HDR2SDR_01_DRG.cube
#Created by: Affinity Photo (Serif Europe Ltd.)
TITLE "HDR2SDR_01_DRG"
#LUT size
LUT_3D_SIZE 5
#data domain
#LUT data points
DOMAIN_MIN 0.000000 0.000000 0.000000
DOMAIN_MAX 0.903226 0.903226 0.903226
0.000000 0.000000 0.000000
0.161915 0.000000 0.000000
0.442188 0.000000 0.000000
0.789326 0.000000 0.000000
1.000000 0.000000 0.000000
0.000000 0.161915 0.000000
0.161915 0.161915 0.000000
0.442188 0.161915 0.000000
0.789326 0.161915 0.000000
1.000000 0.161915 0.000000
0.000000 0.442188 0.000000
0.161915 0.442188 0.000000
0.442188 0.442188 0.000000
0.789326 0.442188 0.000000
1.000000 0.442188 0.000000
0.000000 0.789326 0.000000
0.161915 0.789326 0.000000
0.442188 0.789326 0.000000
0.789326 0.789326 0.000000
1.000000 0.789326 0.000000
0.000000 1.000000 0.000000
0.161915 1.000000 0.000000
0.442188 1.000000 0.000000
0.789326 1.000000 0.000000
1.000000 1.000000 0.000000
0.000000 0.000000 0.161915
0.161915 0.000000 0.161915
0.442188 0.000000 0.161915
0.789326 0.000000 0.161915
1.000000 0.000000 0.161915
0.000000 0.161915 0.161915
0.161915 0.161915 0.161915
0.535613 0.068491 0.068491
0.951241 0.000000 0.000000
1.000000 0.161915 0.161915
0.000000 0.442188 0.161915
0.068491 0.535613 0.068491
0.535613 0.535613 0.068491
0.951241 0.424933 0.000000
1.000000 0.442188 0.161915
0.000000 0.789326 0.161915
0.000000 0.951241 0.000000
0.424933 0.951241 0.000000
0.951241 0.951241 0.000000
1.000000 0.789326 0.161915
0.000000 1.000000 0.161915
0.161915 1.000000 0.161915
0.442188 1.000000 0.161915
0.789326 1.000000 0.161915
1.000000 1.000000 0.161915
0.000000 0.000000 0.442188
0.161915 0.000000 0.442188
0.442188 0.000000 0.442188
0.789326 0.000000 0.442188
1.000000 0.000000 0.442189
0.000000 0.161915 0.442188
0.068491 0.068491 0.535613
0.535613 0.068491 0.535613
0.951241 0.000000 0.424933
1.000000 0.161915 0.442189
0.000000 0.442188 0.442188
0.068491 0.535613 0.535613
0.442188 0.442188 0.442188
0.905038 0.326476 0.326476
1.000000 0.442188 0.442188
0.000000 0.789326 0.442188
0.000000 0.951241 0.424933
0.326476 0.905038 0.326476
0.905038 0.905038 0.326476
1.000000 0.789326 0.442188
0.000000 1.000000 0.442188
0.161915 1.000000 0.442188
0.442188 1.000000 0.442188
0.789326 1.000000 0.442188
1.000000 1.000000 0.442188
0.000000 0.000000 0.789326
0.161915 0.000000 0.789326
0.442188 0.000000 0.789326
0.789325 0.000000 0.789326
1.000000 0.000000 0.789326
0.000000 0.161915 0.789326
0.000000 0.000000 0.951241
0.424933 0.000000 0.951241
0.951240 0.000000 0.951241
1.000000 0.161915 0.789326
0.000000 0.442188 0.789326
0.000000 0.424933 0.951241
0.326476 0.326476 0.905038
0.905038 0.326476 0.905038
1.000000 0.442188 0.789326
0.000000 0.789326 0.789326
0.000000 0.951241 0.951241
0.326476 0.905038 0.905038
0.789326 0.789326 0.789326
1.000000 0.789326 0.789326
0.000000 1.000000 0.789326
0.161915 1.000000 0.789326
0.442188 1.000000 0.789326
0.789326 1.000000 0.789326
1.000000 1.000000 0.789326
0.000000 0.000000 1.000000
0.161915 0.000000 1.000000
0.442188 0.000000 1.000000
0.789326 0.000000 1.000000
1.000000 0.000000 1.000000
0.000000 0.161915 1.000000
0.161915 0.161915 1.000000
0.442189 0.161915 1.000000
0.789325 0.161915 1.000000
1.000000 0.161915 1.000000
0.000000 0.442188 1.000000
0.161915 0.442189 1.000000
0.442188 0.442188 1.000000
0.789326 0.442188 1.000000
1.000000 0.442188 1.000000
0.000000 0.789326 1.000000
0.161915 0.789326 1.000000
0.442188 0.789326 1.000000
0.789326 0.789326 1.000000
1.000000 0.789326 1.000000
0.000000 1.000000 1.000000
0.161915 1.000000 1.000000
0.442188 1.000000 1.000000
0.789326 1.000000 1.000000
1.000000 1.000000 1.000000
