HDR2SDR_03_BF.cube
#Created by: Affinity Photo (Serif Europe Ltd.)
TITLE "HDR2SDR_03_BF"
#LUT size
LUT_3D_SIZE 5
#data domain
DOMAIN_MIN 0.0 0.0 0.0
DOMAIN_MAX 1.0 1.0 1.0
#LUT data points
0.000000 0.000000 0.000000
0.265766 0.000000 0.000000
0.702852 0.000000 0.000000
1.000000 0.000000 0.000000
1.000000 0.000000 0.000000
0.000000 0.265766 0.000000
0.265766 0.265766 0.000000
0.702852 0.265766 0.000000
1.000000 0.265766 0.000000
1.000000 0.265766 0.000000
0.000000 0.702852 0.000000
0.265767 0.702852 0.000000
0.702852 0.702852 0.000000
1.000000 0.702852 0.000000
1.000000 0.702852 0.000000
0.000000 1.000000 0.000000
0.265767 1.000000 0.000000
0.702851 1.000000 0.000000
1.000000 1.000000 0.000000
1.000000 1.000000 0.000000
0.000000 1.000000 0.000000
0.265767 1.000000 0.000000
0.702851 1.000000 0.000000
1.000000 1.000000 0.000000
1.000000 1.000000 0.000000
0.000000 0.000000 0.265766
0.265766 0.000000 0.265766
0.702852 0.000000 0.265767
1.000000 0.000000 0.265767
1.000000 0.000000 0.265767
0.000000 0.265766 0.265766
0.265766 0.265766 0.265766
0.848547 0.120071 0.120072
1.000000 0.265766 0.265767
1.000000 0.265766 0.265767
0.000000 0.702852 0.265767
0.120071 0.848547 0.120071
0.848547 0.848547 0.120071
1.000000 0.702852 0.265766
1.000000 0.702852 0.265766
0.000000 1.000000 0.265766
0.265766 1.000000 0.265766
0.702852 1.000000 0.265766
1.000000 1.000000 0.265766
1.000000 1.000000 0.265766
0.000000 1.000000 0.265766
0.265766 1.000000 0.265766
0.702852 1.000000 0.265766
1.000000 1.000000 0.265766
1.000000 1.000000 0.265766
0.000000 0.000000 0.702852
0.265767 0.000000 0.702852
0.702851 0.000000 0.702852
1.000000 0.000000 0.702851
1.000000 0.000000 0.702851
0.000000 0.265767 0.702852
0.120071 0.120071 0.848547
0.848547 0.120071 0.848547
1.000000 0.265766 0.702851
1.000000 0.265766 0.702851
0.000000 0.702852 0.702852
0.120071 0.848547 0.848547
0.702852 0.702852 0.702852
1.000000 0.702852 0.702852
1.000000 0.702852 0.702852
0.000000 1.000000 0.702852
0.265766 1.000000 0.702851
0.702852 1.000000 0.702852
1.000000 1.000000 0.702852
1.000000 1.000000 0.702852
0.000000 1.000000 0.702852
0.265766 1.000000 0.702851
0.702852 1.000000 0.702852
1.000000 1.000000 0.702852
1.000000 1.000000 0.702852
0.000000 0.000000 1.000000
0.265767 0.000000 1.000000
0.702852 0.000000 1.000000
1.000000 0.000000 1.000000
1.000000 0.000000 1.000000
0.000000 0.265767 1.000000
0.265766 0.265766 1.000000
0.702852 0.265766 1.000000
1.000000 0.265766 1.000000
1.000000 0.265766 1.000000
0.000000 0.702852 1.000000
0.265766 0.702852 1.000000
0.702852 0.702852 1.000000
1.000000 0.702852 1.000000
1.000000 0.702852 1.000000
0.000000 1.000000 1.000000
0.265766 1.000000 1.000000
0.702852 1.000000 1.000000
1.000000 1.000000 1.000000
1.000000 1.000000 1.000000
0.000000 1.000000 1.000000
0.265766 1.000000 1.000000
0.702852 1.000000 1.000000
1.000000 1.000000 1.000000
1.000000 1.000000 1.000000
0.000000 0.000000 1.000000
0.265767 0.000000 1.000000
0.702852 0.000000 1.000000
1.000000 0.000000 1.000000
1.000000 0.000000 1.000000
0.000000 0.265767 1.000000
0.265766 0.265766 1.000000
0.702852 0.265766 1.000000
1.000000 0.265766 1.000000
1.000000 0.265766 1.000000
0.000000 0.702852 1.000000
0.265766 0.702852 1.000000
0.702852 0.702852 1.000000
1.000000 0.702852 1.000000
1.000000 0.702852 1.000000
0.000000 1.000000 1.000000
0.265766 1.000000 1.000000
0.702852 1.000000 1.000000
1.000000 1.000000 1.000000
1.000000 1.000000 1.000000
0.000000 1.000000 1.000000
0.265766 1.000000 1.000000
0.702852 1.000000 1.000000
1.000000 1.000000 1.000000
1.000000 1.000000 1.000000
