HDR2SDR_02_WF.cube
#Created by: Affinity Photo (Serif Europe Ltd.)
TITLE "HDR2SDR_02_WF"
#LUT size
LUT_3D_SIZE 5
#data domain
DOMAIN_MIN 0.0 0.0 0.0
DOMAIN_MAX 1.0 1.0 1.0
#LUT data points
0.000000 0.000000 0.000000
0.195544 0.000000 0.000000
0.517139 0.000000 0.000000
0.913427 0.000000 0.000000
1.000000 0.000000 0.000000
0.000000 0.195544 0.000000
0.195544 0.195544 0.000000
0.517139 0.195544 0.000000
0.913427 0.195544 0.000000
1.000000 0.195544 0.000000
0.000000 0.517139 0.000000
0.195544 0.517139 0.000000
0.517139 0.517139 0.000000
0.913427 0.517139 0.000000
1.000000 0.517139 0.000000
0.000000 0.913427 0.000000
0.195544 0.913427 0.000000
0.517139 0.913427 0.000000
0.913427 0.913427 0.000000
1.000000 0.913427 0.000000
0.000000 1.000000 0.000000
0.195544 1.000000 0.000000
0.517139 1.000000 0.000000
0.913427 1.000000 0.000000
1.000000 1.000000 0.000000
0.000000 0.000000 0.195544
0.195544 0.000000 0.195544
0.517139 0.000000 0.195544
0.913427 0.000000 0.195544
1.000000 0.000000 0.195543
0.000000 0.195544 0.195544
0.195544 0.195544 0.195544
0.624337 0.088345 0.088345
1.000000 0.108971 0.108971
1.000000 0.195544 0.195544
0.000000 0.517139 0.195544
0.088345 0.624337 0.088345
0.624337 0.624337 0.088345
1.000000 0.508131 0.108971
1.000000 0.517139 0.195544
0.000000 0.913427 0.195544
0.108971 1.000000 0.108971
0.508131 1.000000 0.108971
1.000000 1.000000 0.108971
1.000000 0.913427 0.195544
0.000000 1.000000 0.195543
0.195544 1.000000 0.195544
0.517139 1.000000 0.195544
0.913427 1.000000 0.195544
1.000000 1.000000 0.195544
0.000000 0.000000 0.517139
0.195544 0.000000 0.517139
0.517139 0.000000 0.517139
0.913427 0.000000 0.517139
1.000000 0.000000 0.517139
0.000000 0.195544 0.517139
0.088345 0.088345 0.624337
0.624337 0.088345 0.624337
1.000000 0.108971 0.508132
1.000000 0.195544 0.517139
0.000000 0.517139 0.517139
0.088345 0.624337 0.624337
0.517139 0.517139 0.517139
1.000000 0.430566 0.430566
1.000000 0.517139 0.517139
0.000000 0.913427 0.517139
0.108971 1.000000 0.508131
0.430566 1.000000 0.430566
1.000000 1.000000 0.430566
1.000000 0.913427 0.517139
0.000000 1.000000 0.517139
0.195544 1.000000 0.517139
0.517139 1.000000 0.517139
0.913427 1.000000 0.517139
1.000000 1.000000 0.517139
0.000000 0.000000 0.913427
0.195544 0.000000 0.913427
0.517139 0.000000 0.913427
0.913427 0.000000 0.913427
1.000000 0.000000 0.913428
0.000000 0.195544 0.913427
0.108971 0.108971 1.000000
0.508131 0.108971 1.000000
1.000000 0.108971 1.000000
1.000000 0.195544 0.913428
0.000000 0.517139 0.913427
0.108971 0.508132 1.000000
0.430566 0.430566 1.000000
1.000000 0.430566 1.000000
1.000000 0.517139 0.913427
0.000000 0.913427 0.913427
0.108971 1.000000 1.000000
0.430566 1.000000 1.000000
0.913427 0.913427 0.913427
1.000000 0.913427 0.913427
0.000000 1.000000 0.913427
0.195544 1.000000 0.913427
0.517139 1.000000 0.913427
0.913427 1.000000 0.913427
1.000000 1.000000 0.913427
0.000000 0.000000 1.000000
0.195544 0.000000 1.000000
0.517139 0.000000 1.000000
0.913427 0.000000 1.000000
1.000000 0.000000 1.000000
0.000000 0.195543 1.000000
0.195544 0.195544 1.000000
0.517139 0.195544 1.000000
0.913428 0.195544 1.000000
1.000000 0.195544 1.000000
0.000000 0.517139 1.000000
0.195544 0.517139 1.000000
0.517139 0.517139 1.000000
0.913427 0.517139 1.000000
1.000000 0.517139 1.000000
0.000000 0.913427 1.000000
0.195544 0.913428 1.000000
0.517139 0.913427 1.000000
0.913427 0.913427 1.000000
1.000000 0.913427 1.000000
0.000000 1.000000 1.000000
0.195544 1.000000 1.000000
0.517139 1.000000 1.000000
0.913427 1.000000 1.000000
1.000000 1.000000 1.000000
