HDR2SDR_general.cube
#Created by: Affinity Photo (Serif Europe Ltd.)
TITLE "HDR2SDR_general"
#LUT size
LUT_3D_SIZE 8
#data domain
#LUT data points
DOMAIN_MIN 0.000000 0.000000 0.000000
DOMAIN_MAX 0.903226 0.903226 0.903226
0.000000 0.000000 0.000000
0.160302 0.000000 0.000000
0.334071 0.000000 0.000000
0.507840 0.000000 0.000000
0.681608 0.000000 0.000000
0.855377 0.000000 0.000000
1.000000 0.000000 0.000000
1.000000 0.000000 0.000000
0.000000 0.160302 0.000000
0.160302 0.160302 0.000000
0.334071 0.160302 0.000000
0.507840 0.160302 0.000000
0.681608 0.160302 0.000000
0.855377 0.160302 0.000000
1.000000 0.160302 0.000000
1.000000 0.160302 0.000000
0.000000 0.334071 0.000000
0.160302 0.334071 0.000000
0.334071 0.334071 0.000000
0.507840 0.334071 0.000000
0.681608 0.334071 0.000000
0.855377 0.334071 0.000000
1.000000 0.334071 0.000000
1.000000 0.334071 0.000000
0.000000 0.507840 0.000000
0.160302 0.507840 0.000000
0.334071 0.507840 0.000000
0.507840 0.507840 0.000000
0.681608 0.507840 0.000000
0.855377 0.507840 0.000000
1.000000 0.507840 0.000000
1.000000 0.507840 0.000000
0.000000 0.681608 0.000000
0.160302 0.681608 0.000000
0.334071 0.681608 0.000000
0.507840 0.681608 0.000000
0.681608 0.681608 0.000000
0.855377 0.681608 0.000000
1.000000 0.681608 0.000000
1.000000 0.681608 0.000000
0.000000 0.855377 0.000000
0.160302 0.855377 0.000000
0.334071 0.855377 0.000000
0.507840 0.855377 0.000000
0.681608 0.855377 0.000000
0.855377 0.855377 0.000000
1.000000 0.855377 0.000000
1.000000 0.855377 0.000000
0.000000 1.000000 0.000000
0.160302 1.000000 0.000000
0.334070 1.000000 0.000000
0.507839 1.000000 0.000000
0.681609 1.000000 0.000000
0.855377 1.000000 0.000000
1.000000 1.000000 0.000000
1.000000 1.000000 0.000000
0.000000 1.000000 0.000000
0.160302 1.000000 0.000000
0.334071 1.000000 0.000000
0.507840 1.000000 0.000000
0.681608 1.000000 0.000000
0.855377 1.000000 0.000000
1.000000 1.000000 0.000000
1.000000 1.000000 0.000000
0.000000 0.000000 0.160302
0.160302 0.000000 0.160302
0.334071 0.000000 0.160302
0.507840 0.000000 0.160302
0.681608 0.000000 0.160302
0.855377 0.000000 0.160302
1.000000 0.000000 0.160302
1.000000 0.000000 0.160302
0.000000 0.160302 0.160302
0.160302 0.160302 0.160302
0.380870 0.113502 0.113502
0.601439 0.066703 0.066703
0.822007 0.019903 0.019903
1.000000 0.000000 0.000000
1.000000 0.000000 0.000000
1.000000 0.029975 0.029976
0.000000 0.334071 0.160302
0.113502 0.380870 0.113502
0.380870 0.380870 0.113502
0.601439 0.334071 0.066703
0.822007 0.287271 0.019903
1.000000 0.247186 0.000000
1.000000 0.229809 0.000000
1.000000 0.247186 0.029975
0.000000 0.507840 0.160302
0.066703 0.601439 0.066703
0.334071 0.601439 0.066703
0.601439 0.601439 0.066703
0.822007 0.554639 0.019903
1.000000 0.507840 0.000000
1.000000 0.473086 0.000000
1.000000 0.464397 0.029975
0.000000 0.681608 0.160302
0.019903 0.822007 0.019903
0.287271 0.822007 0.019903
0.554639 0.822007 0.019903
0.822007 0.822007 0.019903
1.000000 0.768493 0.000000
1.000000 0.716362 0.000000
1.000000 0.681608 0.029975
0.000000 0.855377 0.160302
0.000000 1.000000 0.000000
0.247186 1.000000 0.000000
0.507839 1.000000 0.000000
0.768493 1.000000 0.000000
1.000000 1.000000 0.000000
1.000000 0.959639 0.000000
1.000000 0.898820 0.029975
0.000000 1.000000 0.160302
0.000000 1.000000 0.000000
0.229810 1.000000 0.000000
0.473086 1.000000 0.000000
0.716362 1.000000 0.000000
0.959639 1.000000 0.000000
1.000000 1.000000 0.000000
1.000000 1.000000 0.029975
0.000000 1.000000 0.160302
0.029975 1.000000 0.029975
0.247186 1.000000 0.029975
0.464397 1.000000 0.029975
0.681608 1.000000 0.029975
0.898820 1.000000 0.029975
1.000000 1.000000 0.029975
1.000000 1.000000 0.029975
0.000000 0.000000 0.334071
0.160302 0.000000 0.334071
0.334071 0.000000 0.334071
0.507840 0.000000 0.334071
0.681608 0.000000 0.334071
0.855377 0.000000 0.334071
1.000000 0.000000 0.334071
1.000000 0.000000 0.334071
0.000000 0.160302 0.334071
0.113502 0.113502 0.380870
0.380870 0.113502 0.380870
0.601439 0.066703 0.334071
0.822007 0.019903 0.287271
1.000000 0.000000 0.247186
1.000000 0.000000 0.229810
1.000000 0.029975 0.247187
0.000000 0.334071 0.334071
0.113502 0.380870 0.380870
0.334071 0.334071 0.334071
0.554639 0.287271 0.287271
0.775208 0.240471 0.240472
0.995776 0.193672 0.193672
1.000000 0.146872 0.146873
1.000000 0.203744 0.203744
0.000000 0.507840 0.334071
0.066703 0.601439 0.334071
0.287271 0.554639 0.287271
0.554639 0.554639 0.287271
0.775208 0.507840 0.240471
0.995776 0.461040 0.193672
1.000000 0.414240 0.146872
1.000000 0.429644 0.203744
0.000000 0.681608 0.334071
0.019903 0.822007 0.287271
0.240471 0.775208 0.240471
0.507839 0.775208 0.240471
0.775208 0.775208 0.240471
0.995776 0.728408 0.193672
1.000000 0.681608 0.146872
1.000000 0.655543 0.203744
0.000000 0.855377 0.334071
0.000000 1.000000 0.247186
0.193672 0.995776 0.193672
0.461040 0.995776 0.193672
0.728408 0.995776 0.193672
0.995776 0.995776 0.193672
1.000000 0.948976 0.146872
1.000000 0.881443 0.203744
0.000000 1.000000 0.334071
0.000000 1.000000 0.229809
0.146872 1.000000 0.146872
0.414240 1.000000 0.146872
0.681608 1.000000 0.146872
0.948976 1.000000 0.146872
1.000000 1.000000 0.146872
1.000000 1.000000 0.203744
0.000000 1.000000 0.334071
0.029975 1.000000 0.247186
0.203744 1.000000 0.203744
0.429644 1.000000 0.203744
0.655543 1.000000 0.203744
0.881443 1.000000 0.203744
1.000000 1.000000 0.203744
1.000000 1.000000 0.203744
0.000000 0.000000 0.507840
0.160302 0.000000 0.507840
0.334071 0.000000 0.507840
0.507839 0.000000 0.507840
0.681608 0.000000 0.507840
0.855377 0.000000 0.507840
1.000000 0.000000 0.507839
1.000000 0.000000 0.507840
0.000000 0.160302 0.507840
0.066703 0.066703 0.601439
0.334071 0.066703 0.601439
0.601439 0.066703 0.601439
0.822007 0.019903 0.554639
1.000000 0.000000 0.507839
1.000000 0.000000 0.473086
1.000000 0.029975 0.464398
0.000000 0.334071 0.507840
0.066703 0.334071 0.601439
0.287271 0.287271 0.554639
0.554639 0.287271 0.554639
0.775208 0.240471 0.507839
0.995776 0.193672 0.461040
1.000000 0.146872 0.414240
1.000000 0.203744 0.429644
0.000000 0.507840 0.507840
0.066703 0.601439 0.601439
0.287271 0.554639 0.554639
0.507840 0.507840 0.507840
0.728408 0.461040 0.461040
0.948976 0.414240 0.414241
1.000000 0.367441 0.367441
1.000000 0.377513 0.377513
0.000000 0.681608 0.507840
0.019903 0.822007 0.554639
0.240471 0.775208 0.507839
0.461040 0.728408 0.461040
0.728408 0.728408 0.461040
0.948976 0.681608 0.414240
1.000000 0.634809 0.367441
1.000000 0.616445 0.377513
0.000000 0.855377 0.507840
0.000000 1.000000 0.507839
0.193672 0.995776 0.461040
0.414240 0.948976 0.414240
0.681608 0.948976 0.414240
0.948977 0.948976 0.414240
1.000000 0.902177 0.367441
1.000000 0.855377 0.377513
0.000000 1.000000 0.507839
0.000000 1.000000 0.473086
0.146872 1.000000 0.414240
0.367441 1.000000 0.367441
0.634809 1.000000 0.367441
0.902177 1.000000 0.367441
1.000000 1.000000 0.367441
1.000000 1.000000 0.377513
0.000000 1.000000 0.507840
0.029975 1.000000 0.464397
0.203744 1.000000 0.429644
0.377513 1.000000 0.377513
0.616445 1.000000 0.377513
0.855377 1.000000 0.377513
1.000000 1.000000 0.377513
1.000000 1.000000 0.377513
0.000000 0.000000 0.681608
0.160302 0.000000 0.681608
0.334071 0.000000 0.681608
0.507840 0.000000 0.681608
0.681608 0.000000 0.681608
0.855377 0.000000 0.681609
1.000000 0.000000 0.681608
1.000000 0.000000 0.681609
0.000000 0.160302 0.681608
0.019903 0.019903 0.822007
0.287271 0.019903 0.822007
0.554639 0.019903 0.822007
0.822007 0.019903 0.822007
1.000000 0.000000 0.768493
1.000000 0.000000 0.716363
1.000000 0.029975 0.681608
0.000000 0.334071 0.681608
0.019903 0.287271 0.822007
0.240471 0.240471 0.775208
0.507840 0.240471 0.775208
0.775208 0.240471 0.775208
0.995776 0.193672 0.728408
1.000000 0.146872 0.681608
1.000000 0.203744 0.655543
0.000000 0.507840 0.681608
0.019903 0.554639 0.822007
0.240471 0.507840 0.775208
0.461040 0.461040 0.728408
0.728408 0.461040 0.728408
0.948976 0.414240 0.681608
1.000000 0.367441 0.634809
1.000000 0.377513 0.616445
0.000000 0.681608 0.681608
0.019903 0.822007 0.822007
0.240471 0.775208 0.775208
0.461040 0.728408 0.728408
0.681608 0.681608 0.681608
0.902177 0.634809 0.634809
1.000000 0.588009 0.588009
1.000000 0.551282 0.551282
0.000000 0.855377 0.681608
0.000000 1.000000 0.768493
0.193672 0.995776 0.728408
0.414240 0.948976 0.681608
0.634809 0.902177 0.634809
0.902177 0.902177 0.634809
1.000000 0.855377 0.588009
1.000000 0.811935 0.551282
0.000000 1.000000 0.681608
0.000000 1.000000 0.716362
0.146872 1.000000 0.681608
0.367441 1.000000 0.634809
0.588009 1.000000 0.588009
0.855377 1.000000 0.588009
1.000000 1.000000 0.588009
1.000000 1.000000 0.551282
0.000000 1.000000 0.681608
0.029975 1.000000 0.681608
0.203744 1.000000 0.655543
0.377513 1.000000 0.616445
0.551282 1.000000 0.551282
0.811935 1.000000 0.551282
1.000000 1.000000 0.551282
1.000000 1.000000 0.551282
0.000000 0.000000 0.855377
0.160302 0.000000 0.855377
0.334071 0.000000 0.855377
0.507840 0.000000 0.855377
0.681608 0.000000 0.855377
0.855377 0.000000 0.855377
1.000000 0.000000 0.855377
1.000000 0.000000 0.855378
0.000000 0.160302 0.855377
0.000000 0.000000 1.000000
0.247186 0.000000 1.000000
0.507840 0.000000 1.000000
0.768493 0.000000 1.000000
1.000000 0.000000 1.000000
1.000000 0.000000 0.959639
1.000000 0.029975 0.898819
0.000000 0.334071 0.855377
0.000000 0.247186 1.000000
0.193672 0.193672 0.995776
0.461040 0.193672 0.995776
0.728408 0.193672 0.995776
0.995776 0.193672 0.995776
1.000000 0.146872 0.948977
1.000000 0.203744 0.881443
0.000000 0.507840 0.855377
0.000000 0.507840 1.000000
0.193672 0.461040 0.995776
0.414240 0.414240 0.948976
0.681609 0.414240 0.948976
0.948976 0.414240 0.948976
1.000000 0.367441 0.902177
1.000000 0.377513 0.855377
0.000000 0.681608 0.855377
0.000000 0.768493 1.000000
0.193672 0.728408 0.995776
0.414240 0.681609 0.948976
0.634809 0.634809 0.902177
0.902177 0.634809 0.902177
1.000000 0.588009 0.855377
1.000000 0.551282 0.811935
0.000000 0.855377 0.855377
0.000000 1.000000 1.000000
0.193672 0.995776 0.995776
0.414240 0.948977 0.948976
0.634809 0.902177 0.902177
0.855377 0.855377 0.855377
1.000000 0.808578 0.808578
1.000000 0.761778 0.761778
0.000000 1.000000 0.855377
0.000000 1.000000 0.959639
0.146872 1.000000 0.948976
0.367441 1.000000 0.902177
0.588009 1.000000 0.855377
0.808578 1.000000 0.808578
1.000000 1.000000 0.808578
1.000000 1.000000 0.761778
0.000000 1.000000 0.855377
0.029975 1.000000 0.898819
0.203744 1.000000 0.881443
0.377513 1.000000 0.855377
0.551282 1.000000 0.811935
0.761778 1.000000 0.761778
1.000000 1.000000 0.761778
1.000000 1.000000 0.761778
0.000000 0.000000 1.000000
0.160302 0.000000 1.000000
0.334071 0.000000 1.000000
0.507840 0.000000 1.000000
0.681609 0.000000 1.000000
0.855378 0.000000 1.000000
1.000000 0.000000 1.000000
1.000000 0.000000 1.000000
0.000000 0.160302 1.000000
0.000000 0.000000 1.000000
0.229809 0.000000 1.000000
0.473086 0.000000 1.000000
0.716362 0.000000 1.000000
0.959639 0.000000 1.000000
1.000000 0.000000 1.000000
1.000000 0.029975 1.000000
0.000000 0.334071 1.000000
0.000000 0.229810 1.000000
0.146872 0.146872 1.000000
0.414240 0.146872 1.000000
0.681609 0.146872 1.000000
0.948976 0.146872 1.000000
1.000000 0.146872 1.000000
1.000000 0.203744 1.000000
0.000000 0.507840 1.000000
0.000000 0.473086 1.000000
0.146872 0.414240 1.000000
0.367441 0.367441 1.000000
0.634809 0.367441 1.000000
0.902177 0.367441 1.000000
1.000000 0.367441 1.000000
1.000000 0.377513 1.000000
0.000000 0.681608 1.000000
0.000000 0.716362 1.000000
0.146872 0.681609 1.000000
0.367441 0.634809 1.000000
0.588009 0.588009 1.000000
0.855377 0.588009 1.000000
1.000000 0.588009 1.000000
1.000000 0.551282 1.000000
0.000000 0.855377 1.000000
0.000000 0.959639 1.000000
0.146872 0.948976 1.000000
0.367441 0.902177 1.000000
0.588009 0.855377 1.000000
0.808578 0.808578 1.000000
1.000000 0.808578 1.000000
1.000000 0.761778 1.000000
0.000000 1.000000 1.000000
0.000000 1.000000 1.000000
0.146872 1.000000 1.000000
0.367441 1.000000 1.000000
0.588009 1.000000 1.000000
0.808578 1.000000 1.000000
1.000000 1.000000 1.000000
1.000000 0.982347 0.982347
0.000000 1.000000 1.000000
0.029975 1.000000 1.000000
0.203744 1.000000 1.000000
0.377513 1.000000 1.000000
0.551282 1.000000 1.000000
0.761778 1.000000 1.000000
0.982347 1.000000 0.982347
1.000000 1.000000 0.982347
0.000000 0.000000 1.000000
0.160302 0.000000 1.000000
0.334071 0.000000 1.000000
0.507839 0.000000 1.000000
0.681609 0.000000 1.000000
0.855377 0.000000 1.000000
1.000000 0.000000 1.000000
1.000000 0.000000 1.000000
0.000000 0.160302 1.000000
0.029975 0.029975 1.000000
0.247186 0.029975 1.000000
0.464398 0.029975 1.000000
0.681609 0.029975 1.000000
0.898820 0.029975 1.000000
1.000000 0.029975 1.000000
1.000000 0.029975 1.000000
0.000000 0.334071 1.000000
0.029975 0.247186 1.000000
0.203744 0.203744 1.000000
0.429643 0.203744 1.000000
0.655543 0.203744 1.000000
0.881443 0.203744 1.000000
1.000000 0.203744 1.000000
1.000000 0.203744 1.000000
0.000000 0.507840 1.000000
0.029975 0.464398 1.000000
0.203744 0.429644 1.000000
0.377513 0.377513 1.000000
0.616445 0.377513 1.000000
0.855377 0.377513 1.000000
1.000000 0.377513 1.000000
1.000000 0.377513 1.000000
0.000000 0.681608 1.000000
0.029975 0.681609 1.000000
0.203744 0.655543 1.000000
0.377513 0.616445 1.000000
0.551282 0.551282 1.000000
0.811935 0.551282 1.000000
1.000000 0.551282 1.000000
1.000000 0.551282 1.000000
0.000000 0.855377 1.000000
0.029975 0.898819 1.000000
0.203744 0.881443 1.000000
0.377513 0.855377 1.000000
0.551282 0.811935 1.000000
0.761778 0.761778 1.000000
1.000000 0.761778 1.000000
1.000000 0.761778 1.000000
0.000000 1.000000 1.000000
0.029975 1.000000 1.000000
0.203744 1.000000 1.000000
0.377513 1.000000 1.000000
0.551282 1.000000 1.000000
0.761778 1.000000 1.000000
0.982347 0.982347 1.000000
1.000000 0.982347 1.000000
0.000000 1.000000 1.000000
0.029975 1.000000 1.000000
0.203744 1.000000 1.000000
0.377513 1.000000 1.000000
0.551282 1.000000 1.000000
0.761778 1.000000 1.000000
0.982347 1.000000 1.000000
1.000000 1.000000 1.000000
