HDR2SDR_02_WF.cube
#Created by: Affinity Photo (Serif Europe Ltd.)
TITLE "HDR2SDR_02_WF"
#LUT size
LUT_3D_SIZE 33
#data domain
DOMAIN_MIN 0.0 0.0 0.0
DOMAIN_MAX 1.0 1.0 1.0
#LUT data points
0.000000 0.000000 0.000000
0.010572 0.000000 0.000000
0.027959 0.000000 0.000000
0.049384 0.000000 0.000000
0.073940 0.000000 0.000000
0.101123 0.000000 0.000000
0.130601 0.000000 0.000000
0.162135 0.000000 0.000000
0.195544 0.000000 0.000000
0.230682 0.000000 0.000000
0.267433 0.000000 0.000000
0.305697 0.000000 0.000000
0.345391 0.000000 0.000000
0.386442 0.000000 0.000000
0.428786 0.000000 0.000000
0.472369 0.000000 0.000000
0.517139 0.000000 0.000000
0.563052 0.000000 0.000000
0.610067 0.000000 0.000000
0.658147 0.000000 0.000000
0.707258 0.000000 0.000000
0.757369 0.000000 0.000000
0.808452 0.000000 0.000000
0.860480 0.000000 0.000000
0.913427 0.000000 0.000000
0.967272 0.000000 0.000000
1.000000 0.000000 0.000000
1.000000 0.000000 0.000000
1.000000 0.000000 0.000000
1.000000 0.000000 0.000000
1.000000 0.000000 0.000000
1.000000 0.000000 0.000000
1.000000 0.000000 0.000000
0.000000 0.010572 0.000000
0.010572 0.010572 0.000000
0.027959 0.010572 0.000000
0.049384 0.010572 0.000000
0.073940 0.010572 0.000000
0.101123 0.010572 0.000000
0.130601 0.010572 0.000000
0.162135 0.010572 0.000000
0.195544 0.010572 0.000000
0.230682 0.010572 0.000000
0.267433 0.010572 0.000000
0.305697 0.010572 0.000000
0.345391 0.010572 0.000000
0.386442 0.010572 0.000000
0.428786 0.010572 0.000000
0.472369 0.010572 0.000000
0.517139 0.010572 0.000000
0.563052 0.010572 0.000000
0.610067 0.010572 0.000000
0.658147 0.010572 0.000000
0.707258 0.010572 0.000000
0.757369 0.010572 0.000000
0.808452 0.010572 0.000000
0.860480 0.010572 0.000000
0.913427 0.010572 0.000000
0.967272 0.010572 0.000000
1.000000 0.010572 0.000000
1.000000 0.010572 0.000000
1.000000 0.010572 0.000000
1.000000 0.010572 0.000000
1.000000 0.010572 0.000000
1.000000 0.010572 0.000000
1.000000 0.010572 0.000000
0.000000 0.027959 0.000000
0.010572 0.027959 0.000000
0.027959 0.027959 0.000000
0.049384 0.027959 0.000000
0.073940 0.027959 0.000000
0.101123 0.027959 0.000000
0.130601 0.027959 0.000000
0.162135 0.027959 0.000000
0.195544 0.027959 0.000000
0.230682 0.027959 0.000000
0.267433 0.027959 0.000000
0.305697 0.027959 0.000000
0.345391 0.027959 0.000000
0.386442 0.027959 0.000000
0.428786 0.027959 0.000000
0.472369 0.027959 0.000000
0.517139 0.027959 0.000000
0.563052 0.027959 0.000000
0.610067 0.027959 0.000000
0.658147 0.027959 0.000000
0.707258 0.027959 0.000000
0.757369 0.027959 0.000000
0.808452 0.027959 0.000000
0.860480 0.027959 0.000000
0.913427 0.027959 0.000000
0.967272 0.027959 0.000000
1.000000 0.027959 0.000000
1.000000 0.027959 0.000000
1.000000 0.027959 0.000000
1.000000 0.027959 0.000000
1.000000 0.027959 0.000000
1.000000 0.027959 0.000000
1.000000 0.027959 0.000000
0.000000 0.049384 0.000000
0.010572 0.049384 0.000000
0.027959 0.049384 0.000000
0.049384 0.049384 0.000000
0.073940 0.049384 0.000000
0.101123 0.049384 0.000000
0.130601 0.049384 0.000000
0.162135 0.049384 0.000000
0.195544 0.049384 0.000000
0.230682 0.049384 0.000000
0.267433 0.049384 0.000000
0.305697 0.049384 0.000000
0.345391 0.049384 0.000000
0.386442 0.049384 0.000000
0.428786 0.049384 0.000000
0.472369 0.049384 0.000000
0.517139 0.049384 0.000000
0.563052 0.049384 0.000000
0.610067 0.049384 0.000000
0.658147 0.049384 0.000000
0.707258 0.049384 0.000000
0.757369 0.049384 0.000000
0.808452 0.049384 0.000000
0.860480 0.049384 0.000000
0.913427 0.049384 0.000000
0.967272 0.049384 0.000000
1.000000 0.049384 0.000000
1.000000 0.049384 0.000000
1.000000 0.049384 0.000000
1.000000 0.049384 0.000000
1.000000 0.049384 0.000000
1.000000 0.049384 0.000000
1.000000 0.049384 0.000000
0.000000 0.073940 0.000000
0.010572 0.073940 0.000000
0.027959 0.073940 0.000000
0.049384 0.073940 0.000000
0.073940 0.073940 0.000000
0.101123 0.073940 0.000000
0.130601 0.073940 0.000000
0.162135 0.073940 0.000000
0.195544 0.073940 0.000000
0.230682 0.073940 0.000000
0.267433 0.073940 0.000000
0.305697 0.073940 0.000000
0.345391 0.073940 0.000000
0.386442 0.073940 0.000000
0.428786 0.073940 0.000000
0.472369 0.073940 0.000000
0.517139 0.073940 0.000000
0.563052 0.073940 0.000000
0.610067 0.073940 0.000000
0.658147 0.073940 0.000000
0.707258 0.073940 0.000000
0.757369 0.073940 0.000000
0.808452 0.073940 0.000000
0.860480 0.073940 0.000000
0.913427 0.073940 0.000000
0.967272 0.073940 0.000000
1.000000 0.073940 0.000000
1.000000 0.073940 0.000000
1.000000 0.073940 0.000000
1.000000 0.073940 0.000000
1.000000 0.073940 0.000000
1.000000 0.073940 0.000000
1.000000 0.073940 0.000000
0.000000 0.101123 0.000000
0.010572 0.101123 0.000000
0.027959 0.101123 0.000000
0.049384 0.101123 0.000000
0.073940 0.101123 0.000000
0.101123 0.101123 0.000000
0.130601 0.101123 0.000000
0.162135 0.101123 0.000000
0.195544 0.101123 0.000000
0.230682 0.101123 0.000000
0.267433 0.101123 0.000000
0.305697 0.101123 0.000000
0.345391 0.101123 0.000000
0.386442 0.101123 0.000000
0.428786 0.101123 0.000000
0.472369 0.101123 0.000000
0.517139 0.101123 0.000000
0.563052 0.101123 0.000000
0.610067 0.101123 0.000000
0.658147 0.101123 0.000000
0.707258 0.101123 0.000000
0.757369 0.101123 0.000000
0.808452 0.101123 0.000000
0.860480 0.101123 0.000000
0.913427 0.101123 0.000000
0.967272 0.101123 0.000000
1.000000 0.101123 0.000000
1.000000 0.101123 0.000000
1.000000 0.101123 0.000000
1.000000 0.101123 0.000000
1.000000 0.101123 0.000000
1.000000 0.101123 0.000000
1.000000 0.101123 0.000000
0.000000 0.130601 0.000000
0.010572 0.130601 0.000000
0.027959 0.130601 0.000000
0.049384 0.130601 0.000000
0.073940 0.130601 0.000000
0.101123 0.130601 0.000000
0.130601 0.130601 0.000000
0.162135 0.130601 0.000000
0.195544 0.130601 0.000000
0.230682 0.130601 0.000000
0.267433 0.130601 0.000000
0.305697 0.130601 0.000000
0.345391 0.130601 0.000000
0.386442 0.130601 0.000000
0.428786 0.130601 0.000000
0.472369 0.130601 0.000000
0.517139 0.130601 0.000000
0.563052 0.130601 0.000000
0.610067 0.130601 0.000000
0.658147 0.130601 0.000000
0.707258 0.130601 0.000000
0.757369 0.130601 0.000000
0.808452 0.130601 0.000000
0.860480 0.130601 0.000000
0.913427 0.130601 0.000000
0.967272 0.130601 0.000000
1.000000 0.130601 0.000000
1.000000 0.130601 0.000000
1.000000 0.130601 0.000000
1.000000 0.130601 0.000000
1.000000 0.130601 0.000000
1.000000 0.130601 0.000000
1.000000 0.130601 0.000000
0.000000 0.162135 0.000000
0.010572 0.162135 0.000000
0.027959 0.162135 0.000000
0.049384 0.162135 0.000000
0.073940 0.162135 0.000000
0.101123 0.162135 0.000000
0.130601 0.162135 0.000000
0.162135 0.162135 0.000000
0.195544 0.162135 0.000000
0.230682 0.162135 0.000000
0.267433 0.162135 0.000000
0.305697 0.162135 0.000000
0.345391 0.162135 0.000000
0.386442 0.162135 0.000000
0.428786 0.162135 0.000000
0.472369 0.162135 0.000000
0.517139 0.162135 0.000000
0.563052 0.162135 0.000000
0.610067 0.162135 0.000000
0.658147 0.162135 0.000000
0.707258 0.162135 0.000000
0.757369 0.162135 0.000000
0.808452 0.162135 0.000000
0.860480 0.162135 0.000000
0.913427 0.162135 0.000000
0.967272 0.162135 0.000000
1.000000 0.162135 0.000000
1.000000 0.162135 0.000000
1.000000 0.162135 0.000000
1.000000 0.162135 0.000000
1.000000 0.162135 0.000000
1.000000 0.162135 0.000000
1.000000 0.162135 0.000000
0.000000 0.195544 0.000000
0.010572 0.195544 0.000000
0.027959 0.195544 0.000000
0.049384 0.195544 0.000000
0.073940 0.195544 0.000000
0.101123 0.195544 0.000000
0.130601 0.195544 0.000000
0.162135 0.195544 0.000000
0.195544 0.195544 0.000000
0.230682 0.195544 0.000000
0.267433 0.195544 0.000000
0.305697 0.195544 0.000000
0.345391 0.195544 0.000000
0.386442 0.195544 0.000000
0.428786 0.195544 0.000000
0.472369 0.195544 0.000000
0.517139 0.195544 0.000000
0.563052 0.195544 0.000000
0.610067 0.195544 0.000000
0.658147 0.195544 0.000000
0.707258 0.195544 0.000000
0.757369 0.195544 0.000000
0.808452 0.195544 0.000000
0.860480 0.195544 0.000000
0.913427 0.195544 0.000000
0.967272 0.195544 0.000000
1.000000 0.195544 0.000000
1.000000 0.195544 0.000000
1.000000 0.195544 0.000000
1.000000 0.195544 0.000000
1.000000 0.195544 0.000000
1.000000 0.195544 0.000000
1.000000 0.195544 0.000000
0.000000 0.230682 0.000000
0.010572 0.230682 0.000000
0.027959 0.230682 0.000000
0.049384 0.230682 0.000000
0.073940 0.230682 0.000000
0.101123 0.230682 0.000000
0.130601 0.230682 0.000000
0.162135 0.230682 0.000000
0.195544 0.230682 0.000000
0.230682 0.230682 0.000000
0.267433 0.230682 0.000000
0.305697 0.230682 0.000000
0.345391 0.230682 0.000000
0.386442 0.230682 0.000000
0.428786 0.230682 0.000000
0.472369 0.230682 0.000000
0.517139 0.230682 0.000000
0.563052 0.230682 0.000000
0.610067 0.230682 0.000000
0.658147 0.230682 0.000000
0.707258 0.230682 0.000000
0.757369 0.230682 0.000000
0.808452 0.230682 0.000000
0.860480 0.230682 0.000000
0.913427 0.230682 0.000000
0.967272 0.230682 0.000000
1.000000 0.230682 0.000000
1.000000 0.230682 0.000000
1.000000 0.230682 0.000000
1.000000 0.230682 0.000000
1.000000 0.230682 0.000000
1.000000 0.230682 0.000000
1.000000 0.230682 0.000000
0.000000 0.267433 0.000000
0.010572 0.267433 0.000000
0.027959 0.267433 0.000000
0.049384 0.267433 0.000000
0.073940 0.267433 0.000000
0.101123 0.267433 0.000000
0.130601 0.267433 0.000000
0.162135 0.267433 0.000000
0.195544 0.267433 0.000000
0.230682 0.267433 0.000000
0.267433 0.267433 0.000000
0.305697 0.267433 0.000000
0.345391 0.267433 0.000000
0.386442 0.267433 0.000000
0.428786 0.267433 0.000000
0.472369 0.267433 0.000000
0.517139 0.267433 0.000000
0.563052 0.267433 0.000000
0.610067 0.267433 0.000000
0.658147 0.267433 0.000000
0.707258 0.267433 0.000000
0.757369 0.267433 0.000000
0.808452 0.267433 0.000000
0.860480 0.267433 0.000000
0.913427 0.267433 0.000000
0.967272 0.267433 0.000000
1.000000 0.267433 0.000000
1.000000 0.267433 0.000000
1.000000 0.267433 0.000000
1.000000 0.267433 0.000000
1.000000 0.267433 0.000000
1.000000 0.267433 0.000000
1.000000 0.267433 0.000000
0.000000 0.305697 0.000000
0.010572 0.305697 0.000000
0.027959 0.305697 0.000000
0.049384 0.305697 0.000000
0.073940 0.305697 0.000000
0.101123 0.305697 0.000000
0.130601 0.305697 0.000000
0.162135 0.305697 0.000000
0.195544 0.305697 0.000000
0.230682 0.305697 0.000000
0.267433 0.305697 0.000000
0.305697 0.305697 0.000000
0.345391 0.305697 0.000000
0.386442 0.305697 0.000000
0.428786 0.305697 0.000000
0.472369 0.305697 0.000000
0.517139 0.305697 0.000000
0.563052 0.305697 0.000000
0.610067 0.305697 0.000000
0.658147 0.305697 0.000000
0.707258 0.305697 0.000000
0.757369 0.305697 0.000000
0.808452 0.305697 0.000000
0.860480 0.305697 0.000000
0.913427 0.305697 0.000000
0.967272 0.305697 0.000000
1.000000 0.305697 0.000000
1.000000 0.305697 0.000000
1.000000 0.305697 0.000000
1.000000 0.305697 0.000000
1.000000 0.305697 0.000000
1.000000 0.305697 0.000000
1.000000 0.305697 0.000000
0.000000 0.345391 0.000000
0.010572 0.345391 0.000000
0.027959 0.345391 0.000000
0.049384 0.345391 0.000000
0.073940 0.345391 0.000000
0.101123 0.345391 0.000000
0.130601 0.345391 0.000000
0.162135 0.345391 0.000000
0.195544 0.345391 0.000000
0.230682 0.345391 0.000000
0.267433 0.345391 0.000000
0.305697 0.345391 0.000000
0.345391 0.345391 0.000000
0.386442 0.345391 0.000000
0.428786 0.345391 0.000000
0.472369 0.345391 0.000000
0.517139 0.345391 0.000000
0.563052 0.345391 0.000000
0.610067 0.345391 0.000000
0.658147 0.345391 0.000000
0.707258 0.345391 0.000000
0.757369 0.345391 0.000000
0.808452 0.345391 0.000000
0.860480 0.345391 0.000000
0.913427 0.345391 0.000000
0.967272 0.345391 0.000000
1.000000 0.345391 0.000000
1.000000 0.345391 0.000000
1.000000 0.345391 0.000000
1.000000 0.345391 0.000000
1.000000 0.345391 0.000000
1.000000 0.345391 0.000000
1.000000 0.345391 0.000000
0.000000 0.386442 0.000000
0.010572 0.386442 0.000000
0.027959 0.386442 0.000000
0.049384 0.386442 0.000000
0.073940 0.386442 0.000000
0.101123 0.386442 0.000000
0.130601 0.386442 0.000000
0.162135 0.386442 0.000000
0.195544 0.386442 0.000000
0.230682 0.386442 0.000000
0.267433 0.386442 0.000000
0.305697 0.386442 0.000000
0.345391 0.386442 0.000000
0.386442 0.386442 0.000000
0.428786 0.386442 0.000000
0.472369 0.386442 0.000000
0.517139 0.386442 0.000000
0.563052 0.386442 0.000000
0.610067 0.386442 0.000000
0.658147 0.386442 0.000000
0.707258 0.386442 0.000000
0.757369 0.386442 0.000000
0.808452 0.386442 0.000000
0.860480 0.386442 0.000000
0.913427 0.386442 0.000000
0.967272 0.386442 0.000000
1.000000 0.386442 0.000000
1.000000 0.386442 0.000000
1.000000 0.386442 0.000000
1.000000 0.386442 0.000000
1.000000 0.386442 0.000000
1.000000 0.386442 0.000000
1.000000 0.386442 0.000000
0.000000 0.428786 0.000000
0.010572 0.428786 0.000000
0.027959 0.428786 0.000000
0.049384 0.428786 0.000000
0.073940 0.428786 0.000000
0.101123 0.428786 0.000000
0.130601 0.428786 0.000000
0.162135 0.428786 0.000000
0.195544 0.428786 0.000000
0.230682 0.428786 0.000000
0.267433 0.428786 0.000000
0.305697 0.428786 0.000000
0.345391 0.428786 0.000000
0.386442 0.428786 0.000000
0.428786 0.428786 0.000000
0.472369 0.428786 0.000000
0.517139 0.428786 0.000000
0.563052 0.428786 0.000000
0.610067 0.428786 0.000000
0.658147 0.428786 0.000000
0.707258 0.428786 0.000000
0.757369 0.428786 0.000000
0.808452 0.428786 0.000000
0.860480 0.428786 0.000000
0.913427 0.428786 0.000000
0.967272 0.428786 0.000000
1.000000 0.428786 0.000000
1.000000 0.428786 0.000000
1.000000 0.428786 0.000000
1.000000 0.428786 0.000000
1.000000 0.428786 0.000000
1.000000 0.428786 0.000000
1.000000 0.428786 0.000000
0.000000 0.472369 0.000000
0.010572 0.472369 0.000000
0.027959 0.472369 0.000000
0.049384 0.472369 0.000000
0.073940 0.472369 0.000000
0.101123 0.472369 0.000000
0.130601 0.472369 0.000000
0.162135 0.472369 0.000000
0.195544 0.472369 0.000000
0.230682 0.472369 0.000000
0.267433 0.472369 0.000000
0.305697 0.472369 0.000000
0.345391 0.472369 0.000000
0.386442 0.472369 0.000000
0.428786 0.472369 0.000000
0.472369 0.472369 0.000000
0.517139 0.472369 0.000000
0.563052 0.472369 0.000000
0.610067 0.472369 0.000000
0.658147 0.472369 0.000000
0.707258 0.472369 0.000000
0.757369 0.472369 0.000000
0.808452 0.472369 0.000000
0.860480 0.472369 0.000000
0.913427 0.472369 0.000000
0.967272 0.472369 0.000000
1.000000 0.472369 0.000000
1.000000 0.472369 0.000000
1.000000 0.472369 0.000000
1.000000 0.472369 0.000000
1.000000 0.472369 0.000000
1.000000 0.472369 0.000000
1.000000 0.472369 0.000000
0.000000 0.517139 0.000000
0.010572 0.517139 0.000000
0.027959 0.517139 0.000000
0.049384 0.517139 0.000000
0.073940 0.517139 0.000000
0.101123 0.517139 0.000000
0.130601 0.517139 0.000000
0.162135 0.517139 0.000000
0.195544 0.517139 0.000000
0.230682 0.517139 0.000000
0.267433 0.517139 0.000000
0.305697 0.517139 0.000000
0.345391 0.517139 0.000000
0.386442 0.517139 0.000000
0.428786 0.517139 0.000000
0.472369 0.517139 0.000000
0.517139 0.517139 0.000000
0.563052 0.517139 0.000000
0.610067 0.517139 0.000000
0.658147 0.517139 0.000000
0.707258 0.517139 0.000000
0.757369 0.517139 0.000000
0.808452 0.517139 0.000000
0.860480 0.517139 0.000000
0.913427 0.517139 0.000000
0.967272 0.517139 0.000000
1.000000 0.517139 0.000000
1.000000 0.517139 0.000000
1.000000 0.517139 0.000000
1.000000 0.517139 0.000000
1.000000 0.517139 0.000000
1.000000 0.517139 0.000000
1.000000 0.517139 0.000000
0.000000 0.563052 0.000000
0.010572 0.563052 0.000000
0.027959 0.563052 0.000000
0.049384 0.563052 0.000000
0.073940 0.563052 0.000000
0.101123 0.563052 0.000000
0.130601 0.563052 0.000000
0.162135 0.563052 0.000000
0.195544 0.563052 0.000000
0.230682 0.563052 0.000000
0.267433 0.563052 0.000000
0.305697 0.563052 0.000000
0.345390 0.563052 0.000000
0.386442 0.563052 0.000000
0.428786 0.563052 0.000000
0.472369 0.563052 0.000000
0.517139 0.563052 0.000000
0.563052 0.563052 0.000000
0.610067 0.563052 0.000000
0.658147 0.563052 0.000000
0.707258 0.563052 0.000000
0.757369 0.563052 0.000000
0.808452 0.563052 0.000000
0.860480 0.563052 0.000000
0.913427 0.563052 0.000000
0.967272 0.563052 0.000000
1.000000 0.563052 0.000000
1.000000 0.563052 0.000000
1.000000 0.563052 0.000000
1.000000 0.563052 0.000000
1.000000 0.563052 0.000000
1.000000 0.563052 0.000000
1.000000 0.563052 0.000000
0.000000 0.610067 0.000000
0.010572 0.610067 0.000000
0.027959 0.610067 0.000000
0.049384 0.610067 0.000000
0.073940 0.610067 0.000000
0.101123 0.610067 0.000000
0.130601 0.610067 0.000000
0.162135 0.610067 0.000000
0.195544 0.610067 0.000000
0.230682 0.610067 0.000000
0.267433 0.610067 0.000000
0.305697 0.610067 0.000000
0.345391 0.610067 0.000000
0.386442 0.610067 0.000000
0.428786 0.610067 0.000000
0.472369 0.610067 0.000000
0.517139 0.610067 0.000000
0.563052 0.610067 0.000000
0.610067 0.610067 0.000000
0.658147 0.610067 0.000000
0.707258 0.610067 0.000000
0.757369 0.610067 0.000000
0.808452 0.610067 0.000000
0.860480 0.610067 0.000000
0.913427 0.610067 0.000000
0.967272 0.610067 0.000000
1.000000 0.610067 0.000000
1.000000 0.610067 0.000000
1.000000 0.610067 0.000000
1.000000 0.610067 0.000000
1.000000 0.610067 0.000000
1.000000 0.610067 0.000000
1.000000 0.610067 0.000000
0.000000 0.658147 0.000000
0.010572 0.658147 0.000000
0.027959 0.658147 0.000000
0.049384 0.658147 0.000000
0.073940 0.658147 0.000000
0.101123 0.658147 0.000000
0.130601 0.658147 0.000000
0.162135 0.658147 0.000000
0.195544 0.658147 0.000000
0.230682 0.658147 0.000000
0.267433 0.658147 0.000000
0.305697 0.658147 0.000000
0.345391 0.658147 0.000000
0.386442 0.658147 0.000000
0.428786 0.658147 0.000000
0.472369 0.658147 0.000000
0.517139 0.658147 0.000000
0.563052 0.658147 0.000000
0.610067 0.658147 0.000000
0.658147 0.658147 0.000000
0.707258 0.658147 0.000000
0.757369 0.658147 0.000000
0.808452 0.658147 0.000000
0.860480 0.658147 0.000000
0.913427 0.658147 0.000000
0.967272 0.658147 0.000000
1.000000 0.658147 0.000000
1.000000 0.658147 0.000000
1.000000 0.658147 0.000000
1.000000 0.658147 0.000000
1.000000 0.658147 0.000000
1.000000 0.658147 0.000000
1.000000 0.658147 0.000000
0.000000 0.707258 0.000000
0.010572 0.707258 0.000000
0.027959 0.707258 0.000000
0.049384 0.707258 0.000000
0.073940 0.707258 0.000000
0.101123 0.707258 0.000000
0.130601 0.707258 0.000000
0.162135 0.707258 0.000000
0.195544 0.707258 0.000000
0.230682 0.707258 0.000000
0.267433 0.707258 0.000000
0.305697 0.707258 0.000000
0.345391 0.707258 0.000000
0.386442 0.707258 0.000000
0.428786 0.707258 0.000000
0.472369 0.707258 0.000000
0.517139 0.707258 0.000000
0.563052 0.707258 0.000000
0.610067 0.707258 0.000000
0.658147 0.707258 0.000000
0.707258 0.707258 0.000000
0.757369 0.707258 0.000000
0.808452 0.707258 0.000000
0.860480 0.707258 0.000000
0.913427 0.707258 0.000000
0.967272 0.707258 0.000000
1.000000 0.707258 0.000000
1.000000 0.707258 0.000000
1.000000 0.707258 0.000000
1.000000 0.707258 0.000000
1.000000 0.707258 0.000000
1.000000 0.707258 0.000000
1.000000 0.707258 0.000000
0.000000 0.757369 0.000000
0.010572 0.757369 0.000000
0.027959 0.757369 0.000000
0.049384 0.757369 0.000000
0.073940 0.757369 0.000000
0.101123 0.757369 0.000000
0.130601 0.757369 0.000000
0.162135 0.757369 0.000000
0.195544 0.757369 0.000000
0.230682 0.757369 0.000000
0.267432 0.757369 0.000000
0.305697 0.757369 0.000000
0.345391 0.757369 0.000000
0.386442 0.757369 0.000000
0.428787 0.757369 0.000000
0.472369 0.757369 0.000000
0.517139 0.757369 0.000000
0.563052 0.757369 0.000000
0.610067 0.757369 0.000000
0.658147 0.757369 0.000000
0.707258 0.757369 0.000000
0.757369 0.757369 0.000000
0.808452 0.757369 0.000000
0.860480 0.757369 0.000000
0.913427 0.757369 0.000000
0.967272 0.757369 0.000000
1.000000 0.757369 0.000000
1.000000 0.757369 0.000000
1.000000 0.757369 0.000000
1.000000 0.757369 0.000000
1.000000 0.757369 0.000000
1.000000 0.757369 0.000000
1.000000 0.757369 0.000000
0.000000 0.808452 0.000000
0.010572 0.808452 0.000000
0.027959 0.808452 0.000000
0.049384 0.808452 0.000000
0.073940 0.808452 0.000000
0.101123 0.808452 0.000000
0.130601 0.808452 0.000000
0.162135 0.808452 0.000000
0.195544 0.808452 0.000000
0.230682 0.808452 0.000000
0.267433 0.808452 0.000000
0.305697 0.808452 0.000000
0.345391 0.808452 0.000000
0.386442 0.808452 0.000000
0.428786 0.808452 0.000000
0.472369 0.808452 0.000000
0.517139 0.808452 0.000000
0.563052 0.808452 0.000000
0.610067 0.808452 0.000000
0.658147 0.808452 0.000000
0.707258 0.808452 0.000000
0.757369 0.808452 0.000000
0.808452 0.808452 0.000000
0.860480 0.808452 0.000000
0.913427 0.808452 0.000000
0.967272 0.808452 0.000000
1.000000 0.808452 0.000000
1.000000 0.808452 0.000000
1.000000 0.808452 0.000000
1.000000 0.808452 0.000000
1.000000 0.808452 0.000000
1.000000 0.808452 0.000000
1.000000 0.808452 0.000000
0.000000 0.860480 0.000000
0.010572 0.860480 0.000000
0.027959 0.860480 0.000000
0.049384 0.860480 0.000000
0.073940 0.860480 0.000000
0.101123 0.860480 0.000000
0.130601 0.860480 0.000000
0.162135 0.860480 0.000000
0.195544 0.860480 0.000000
0.230682 0.860480 0.000000
0.267433 0.860480 0.000000
0.305697 0.860480 0.000000
0.345391 0.860480 0.000000
0.386442 0.860480 0.000000
0.428787 0.860480 0.000000
0.472369 0.860480 0.000000
0.517139 0.860480 0.000000
0.563052 0.860480 0.000000
0.610067 0.860480 0.000000
0.658147 0.860480 0.000000
0.707258 0.860480 0.000000
0.757369 0.860480 0.000000
0.808452 0.860480 0.000000
0.860480 0.860480 0.000000
0.913427 0.860480 0.000000
0.967272 0.860480 0.000000
1.000000 0.860480 0.000000
1.000000 0.860480 0.000000
1.000000 0.860480 0.000000
1.000000 0.860480 0.000000
1.000000 0.860480 0.000000
1.000000 0.860480 0.000000
1.000000 0.860480 0.000000
0.000000 0.913427 0.000000
0.010572 0.913427 0.000000
0.027958 0.913427 0.000000
0.049384 0.913427 0.000000
0.073940 0.913427 0.000000
0.101123 0.913427 0.000000
0.130601 0.913427 0.000000
0.162135 0.913427 0.000000
0.195544 0.913427 0.000000
0.230682 0.913427 0.000000
0.267433 0.913427 0.000000
0.305697 0.913427 0.000000
0.345391 0.913427 0.000000
0.386442 0.913427 0.000000
0.428786 0.913427 0.000000
0.472369 0.913427 0.000000
0.517139 0.913427 0.000000
0.563052 0.913427 0.000000
0.610067 0.913427 0.000000
0.658147 0.913427 0.000000
0.707258 0.913427 0.000000
0.757369 0.913427 0.000000
0.808452 0.913427 0.000000
0.860480 0.913427 0.000000
0.913427 0.913427 0.000000
0.967272 0.913427 0.000000
1.000000 0.913427 0.000000
1.000000 0.913427 0.000000
1.000000 0.913427 0.000000
1.000000 0.913427 0.000000
1.000000 0.913427 0.000000
1.000000 0.913427 0.000000
1.000000 0.913427 0.000000
0.000000 0.967272 0.000000
0.010572 0.967272 0.000000
0.027959 0.967272 0.000000
0.049384 0.967272 0.000000
0.073940 0.967272 0.000000
0.101123 0.967272 0.000000
0.130601 0.967272 0.000000
0.162135 0.967272 0.000000
0.195544 0.967272 0.000000
0.230682 0.967272 0.000000
0.267433 0.967272 0.000000
0.305697 0.967272 0.000000
0.345391 0.967272 0.000000
0.386442 0.967272 0.000000
0.428786 0.967272 0.000000
0.472369 0.967272 0.000000
0.517139 0.967272 0.000000
0.563052 0.967272 0.000000
0.610067 0.967272 0.000000
0.658147 0.967272 0.000000
0.707258 0.967272 0.000000
0.757369 0.967272 0.000000
0.808452 0.967272 0.000000
0.860480 0.967272 0.000000
0.913427 0.967272 0.000000
0.967272 0.967272 0.000000
1.000000 0.967272 0.000000
1.000000 0.967272 0.000000
1.000000 0.967272 0.000000
1.000000 0.967272 0.000000
1.000000 0.967272 0.000000
1.000000 0.967272 0.000000
1.000000 0.967272 0.000000
0.000000 1.000000 0.000000
0.010572 1.000000 0.000000
0.027959 1.000000 0.000000
0.049384 1.000000 0.000000
0.073940 1.000000 0.000000
0.101123 1.000000 0.000000
0.130601 1.000000 0.000000
0.162135 1.000000 0.000000
0.195544 1.000000 0.000000
0.230682 1.000000 0.000000
0.267432 1.000000 0.000000
0.305697 1.000000 0.000000
0.345391 1.000000 0.000000
0.386442 1.000000 0.000000
0.428786 1.000000 0.000000
0.472369 1.000000 0.000000
0.517139 1.000000 0.000000
0.563052 1.000000 0.000000
0.610067 1.000000 0.000000
0.658147 1.000000 0.000000
0.707258 1.000000 0.000000
0.757369 1.000000 0.000000
0.808452 1.000000 0.000000
0.860480 1.000000 0.000000
