HDR2SDR_general.cube
#Created by: Affinity Photo (Serif Europe Ltd.)
TITLE "HDR2SDR_general"
#LUT size
LUT_3D_SIZE 32
#data domain
DOMAIN_MIN 0.0 0.0 0.0
DOMAIN_MAX 1.0 1.0 1.0
#LUT data points
0.000000 0.000000 0.000000
0.029975 0.000000 0.000000
0.073417 0.000000 0.000000
0.116860 0.000000 0.000000
0.160302 0.000000 0.000000
0.203744 0.000000 0.000000
0.247186 0.000000 0.000000
0.290628 0.000000 0.000000
0.334071 0.000000 0.000000
0.377513 0.000000 0.000000
0.420955 0.000000 0.000000
0.464397 0.000000 0.000000
0.507840 0.000000 0.000000
0.551282 0.000000 0.000000
0.594724 0.000000 0.000000
0.638166 0.000000 0.000000
0.681608 0.000000 0.000000
0.725051 0.000000 0.000000
0.768493 0.000000 0.000000
0.811935 0.000000 0.000000
0.855377 0.000000 0.000000
0.898820 0.000000 0.000000
0.942262 0.000000 0.000000
0.985704 0.000000 0.000000
1.000000 0.000000 0.000000
1.000000 0.000000 0.000000
1.000000 0.000000 0.000000
1.000000 0.000000 0.000000
1.000000 0.000000 0.000000
1.000000 0.000000 0.000000
1.000000 0.000000 0.000000
1.000000 0.000000 0.000000
0.000000 0.029975 0.000000
0.029975 0.029975 0.000000
0.073417 0.029975 0.000000
0.116860 0.029975 0.000000
0.160302 0.029975 0.000000
0.203744 0.029975 0.000000
0.247186 0.029975 0.000000
0.290628 0.029975 0.000000
0.334071 0.029975 0.000000
0.377513 0.029975 0.000000
0.420955 0.029975 0.000000
0.464397 0.029975 0.000000
0.507840 0.029975 0.000000
0.551282 0.029975 0.000000
0.594724 0.029975 0.000000
0.638166 0.029975 0.000000
0.681608 0.029975 0.000000
0.725051 0.029975 0.000000
0.768493 0.029975 0.000000
0.811935 0.029975 0.000000
0.855377 0.029975 0.000000
0.898820 0.029975 0.000000
0.942262 0.029975 0.000000
0.985704 0.029975 0.000000
1.000000 0.029975 0.000000
1.000000 0.029975 0.000000
1.000000 0.029975 0.000000
1.000000 0.029975 0.000000
1.000000 0.029975 0.000000
1.000000 0.029975 0.000000
1.000000 0.029975 0.000000
1.000000 0.029975 0.000000
0.000000 0.073417 0.000000
0.029975 0.073417 0.000000
0.073417 0.073417 0.000000
0.116860 0.073417 0.000000
0.160302 0.073417 0.000000
0.203744 0.073417 0.000000
0.247186 0.073417 0.000000
0.290628 0.073417 0.000000
0.334071 0.073417 0.000000
0.377513 0.073417 0.000000
0.420955 0.073417 0.000000
0.464397 0.073417 0.000000
0.507840 0.073417 0.000000
0.551282 0.073417 0.000000
0.594724 0.073417 0.000000
0.638166 0.073417 0.000000
0.681608 0.073417 0.000000
0.725051 0.073417 0.000000
0.768493 0.073417 0.000000
0.811935 0.073417 0.000000
0.855377 0.073417 0.000000
0.898820 0.073417 0.000000
0.942262 0.073417 0.000000
0.985704 0.073417 0.000000
1.000000 0.073417 0.000000
1.000000 0.073417 0.000000
1.000000 0.073417 0.000000
1.000000 0.073417 0.000000
1.000000 0.073417 0.000000
1.000000 0.073417 0.000000
1.000000 0.073417 0.000000
1.000000 0.073417 0.000000
0.000000 0.116860 0.000000
0.029975 0.116860 0.000000
0.073417 0.116860 0.000000
0.116860 0.116860 0.000000
0.160302 0.116860 0.000000
0.203744 0.116860 0.000000
0.247186 0.116860 0.000000
0.290628 0.116860 0.000000
0.334071 0.116860 0.000000
0.377513 0.116860 0.000000
0.420955 0.116860 0.000000
0.464397 0.116860 0.000000
0.507840 0.116860 0.000000
0.551282 0.116860 0.000000
0.594724 0.116860 0.000000
0.638166 0.116860 0.000000
0.681608 0.116860 0.000000
0.725051 0.116860 0.000000
0.768493 0.116860 0.000000
0.811935 0.116860 0.000000
0.855377 0.116860 0.000000
0.898820 0.116860 0.000000
0.942262 0.116860 0.000000
0.985704 0.116860 0.000000
1.000000 0.116860 0.000000
1.000000 0.116860 0.000000
1.000000 0.116860 0.000000
1.000000 0.116860 0.000000
1.000000 0.116860 0.000000
1.000000 0.116860 0.000000
1.000000 0.116860 0.000000
1.000000 0.116860 0.000000
0.000000 0.160302 0.000000
0.029975 0.160302 0.000000
0.073417 0.160302 0.000000
0.116860 0.160302 0.000000
0.160302 0.160302 0.000000
0.203744 0.160302 0.000000
0.247186 0.160302 0.000000
0.290628 0.160302 0.000000
0.334071 0.160302 0.000000
0.377513 0.160302 0.000000
0.420955 0.160302 0.000000
0.464397 0.160302 0.000000
0.507840 0.160302 0.000000
0.551282 0.160302 0.000000
0.594724 0.160302 0.000000
0.638166 0.160302 0.000000
0.681608 0.160302 0.000000
0.725051 0.160302 0.000000
0.768493 0.160302 0.000000
0.811935 0.160302 0.000000
0.855377 0.160302 0.000000
0.898820 0.160302 0.000000
0.942262 0.160302 0.000000
0.985704 0.160302 0.000000
1.000000 0.160302 0.000000
1.000000 0.160302 0.000000
1.000000 0.160302 0.000000
1.000000 0.160302 0.000000
1.000000 0.160302 0.000000
1.000000 0.160302 0.000000
1.000000 0.160302 0.000000
1.000000 0.160302 0.000000
0.000000 0.203744 0.000000
0.029975 0.203744 0.000000
0.073417 0.203744 0.000000
0.116860 0.203744 0.000000
0.160302 0.203744 0.000000
0.203744 0.203744 0.000000
0.247186 0.203744 0.000000
0.290628 0.203744 0.000000
0.334071 0.203744 0.000000
0.377513 0.203744 0.000000
0.420955 0.203744 0.000000
0.464397 0.203744 0.000000
0.507840 0.203744 0.000000
0.551282 0.203744 0.000000
0.594724 0.203744 0.000000
0.638166 0.203744 0.000000
0.681608 0.203744 0.000000
0.725051 0.203744 0.000000
0.768493 0.203744 0.000000
0.811935 0.203744 0.000000
0.855377 0.203744 0.000000
0.898820 0.203744 0.000000
0.942262 0.203744 0.000000
0.985704 0.203744 0.000000
1.000000 0.203744 0.000000
1.000000 0.203744 0.000000
1.000000 0.203744 0.000000
1.000000 0.203744 0.000000
1.000000 0.203744 0.000000
1.000000 0.203744 0.000000
1.000000 0.203744 0.000000
1.000000 0.203744 0.000000
0.000000 0.247186 0.000000
0.029975 0.247186 0.000000
0.073417 0.247186 0.000000
0.116860 0.247186 0.000000
0.160302 0.247186 0.000000
0.203744 0.247186 0.000000
0.247186 0.247186 0.000000
0.290628 0.247186 0.000000
0.334071 0.247186 0.000000
0.377513 0.247186 0.000000
0.420955 0.247186 0.000000
0.464397 0.247186 0.000000
0.507840 0.247186 0.000000
0.551282 0.247186 0.000000
0.594724 0.247186 0.000000
0.638166 0.247186 0.000000
0.681608 0.247186 0.000000
0.725051 0.247186 0.000000
0.768493 0.247186 0.000000
0.811935 0.247186 0.000000
0.855377 0.247186 0.000000
0.898820 0.247186 0.000000
0.942262 0.247186 0.000000
0.985704 0.247186 0.000000
1.000000 0.247186 0.000000
1.000000 0.247186 0.000000
1.000000 0.247186 0.000000
1.000000 0.247186 0.000000
1.000000 0.247186 0.000000
1.000000 0.247186 0.000000
1.000000 0.247186 0.000000
1.000000 0.247186 0.000000
0.000000 0.290628 0.000000
0.029975 0.290628 0.000000
0.073417 0.290628 0.000000
0.116860 0.290628 0.000000
0.160302 0.290628 0.000000
0.203744 0.290628 0.000000
0.247186 0.290628 0.000000
0.290628 0.290628 0.000000
0.334071 0.290628 0.000000
0.377513 0.290628 0.000000
0.420955 0.290628 0.000000
0.464397 0.290628 0.000000
0.507840 0.290628 0.000000
0.551282 0.290628 0.000000
0.594724 0.290628 0.000000
0.638166 0.290628 0.000000
0.681608 0.290628 0.000000
0.725051 0.290628 0.000000
0.768493 0.290628 0.000000
0.811935 0.290628 0.000000
0.855377 0.290628 0.000000
0.898820 0.290628 0.000000
0.942262 0.290628 0.000000
0.985704 0.290628 0.000000
1.000000 0.290628 0.000000
1.000000 0.290628 0.000000
1.000000 0.290628 0.000000
1.000000 0.290628 0.000000
1.000000 0.290628 0.000000
1.000000 0.290628 0.000000
1.000000 0.290628 0.000000
1.000000 0.290628 0.000000
0.000000 0.334071 0.000000
0.029975 0.334071 0.000000
0.073417 0.334071 0.000000
0.116860 0.334071 0.000000
0.160302 0.334071 0.000000
0.203744 0.334071 0.000000
0.247186 0.334071 0.000000
0.290628 0.334071 0.000000
0.334071 0.334071 0.000000
0.377513 0.334071 0.000000
0.420955 0.334071 0.000000
0.464397 0.334071 0.000000
0.507840 0.334071 0.000000
0.551282 0.334071 0.000000
0.594724 0.334071 0.000000
0.638166 0.334071 0.000000
0.681608 0.334071 0.000000
0.725051 0.334071 0.000000
0.768493 0.334071 0.000000
0.811935 0.334071 0.000000
0.855377 0.334071 0.000000
0.898820 0.334071 0.000000
0.942262 0.334071 0.000000
0.985704 0.334071 0.000000
1.000000 0.334071 0.000000
1.000000 0.334071 0.000000
1.000000 0.334071 0.000000
1.000000 0.334071 0.000000
1.000000 0.334071 0.000000
1.000000 0.334071 0.000000
1.000000 0.334071 0.000000
1.000000 0.334071 0.000000
0.000000 0.377513 0.000000
0.029975 0.377513 0.000000
0.073417 0.377513 0.000000
0.116859 0.377513 0.000000
0.160302 0.377513 0.000000
0.203744 0.377513 0.000000
0.247186 0.377513 0.000000
0.290628 0.377513 0.000000
0.334071 0.377513 0.000000
0.377513 0.377513 0.000000
0.420955 0.377513 0.000000
0.464397 0.377513 0.000000
0.507840 0.377513 0.000000
0.551282 0.377513 0.000000
0.594724 0.377513 0.000000
0.638166 0.377513 0.000000
0.681608 0.377513 0.000000
0.725051 0.377513 0.000000
0.768493 0.377513 0.000000
0.811935 0.377513 0.000000
0.855377 0.377513 0.000000
0.898820 0.377513 0.000000
0.942262 0.377513 0.000000
0.985704 0.377513 0.000000
1.000000 0.377513 0.000000
1.000000 0.377513 0.000000
1.000000 0.377513 0.000000
1.000000 0.377513 0.000000
1.000000 0.377513 0.000000
1.000000 0.377513 0.000000
1.000000 0.377513 0.000000
1.000000 0.377513 0.000000
0.000000 0.420955 0.000000
0.029975 0.420955 0.000000
0.073417 0.420955 0.000000
0.116860 0.420955 0.000000
0.160302 0.420955 0.000000
0.203744 0.420955 0.000000
0.247186 0.420955 0.000000
0.290628 0.420955 0.000000
0.334071 0.420955 0.000000
0.377513 0.420955 0.000000
0.420955 0.420955 0.000000
0.464397 0.420955 0.000000
0.507840 0.420955 0.000000
0.551282 0.420955 0.000000
0.594724 0.420955 0.000000
0.638166 0.420955 0.000000
0.681608 0.420955 0.000000
0.725051 0.420955 0.000000
0.768493 0.420955 0.000000
0.811935 0.420955 0.000000
0.855377 0.420955 0.000000
0.898820 0.420955 0.000000
0.942262 0.420955 0.000000
0.985704 0.420955 0.000000
1.000000 0.420955 0.000000
1.000000 0.420955 0.000000
1.000000 0.420955 0.000000
1.000000 0.420955 0.000000
1.000000 0.420955 0.000000
1.000000 0.420955 0.000000
1.000000 0.420955 0.000000
1.000000 0.420955 0.000000
0.000000 0.464397 0.000000
0.029975 0.464397 0.000000
0.073417 0.464397 0.000000
0.116860 0.464397 0.000000
0.160302 0.464397 0.000000
0.203744 0.464397 0.000000
0.247186 0.464397 0.000000
0.290628 0.464397 0.000000
0.334071 0.464397 0.000000
0.377513 0.464397 0.000000
0.420955 0.464397 0.000000
0.464397 0.464397 0.000000
0.507840 0.464397 0.000000
0.551282 0.464397 0.000000
0.594724 0.464397 0.000000
0.638166 0.464397 0.000000
0.681608 0.464397 0.000000
0.725051 0.464397 0.000000
0.768493 0.464397 0.000000
0.811935 0.464397 0.000000
0.855377 0.464397 0.000000
0.898820 0.464397 0.000000
0.942262 0.464397 0.000000
0.985704 0.464397 0.000000
1.000000 0.464397 0.000000
1.000000 0.464397 0.000000
1.000000 0.464397 0.000000
1.000000 0.464397 0.000000
1.000000 0.464397 0.000000
1.000000 0.464397 0.000000
1.000000 0.464397 0.000000
1.000000 0.464397 0.000000
0.000000 0.507840 0.000000
0.029975 0.507840 0.000000
0.073417 0.507840 0.000000
0.116860 0.507840 0.000000
0.160302 0.507840 0.000000
0.203744 0.507840 0.000000
0.247186 0.507840 0.000000
0.290628 0.507840 0.000000
0.334071 0.507840 0.000000
0.377513 0.507840 0.000000
0.420955 0.507840 0.000000
0.464397 0.507840 0.000000
0.507840 0.507840 0.000000
0.551282 0.507840 0.000000
0.594724 0.507840 0.000000
0.638166 0.507840 0.000000
0.681608 0.507840 0.000000
0.725051 0.507840 0.000000
0.768493 0.507840 0.000000
0.811935 0.507840 0.000000
0.855377 0.507840 0.000000
0.898820 0.507840 0.000000
0.942262 0.507840 0.000000
0.985704 0.507840 0.000000
1.000000 0.507840 0.000000
1.000000 0.507840 0.000000
1.000000 0.507840 0.000000
1.000000 0.507840 0.000000
1.000000 0.507840 0.000000
1.000000 0.507840 0.000000
1.000000 0.507840 0.000000
1.000000 0.507840 0.000000
0.000000 0.551282 0.000000
0.029975 0.551282 0.000000
0.073417 0.551282 0.000000
0.116859 0.551282 0.000000
0.160302 0.551282 0.000000
0.203744 0.551282 0.000000
0.247186 0.551282 0.000000
0.290629 0.551282 0.000000
0.334071 0.551282 0.000000
0.377513 0.551282 0.000000
0.420955 0.551282 0.000000
0.464397 0.551282 0.000000
0.507840 0.551282 0.000000
0.551282 0.551282 0.000000
0.594724 0.551282 0.000000
0.638166 0.551282 0.000000
0.681608 0.551282 0.000000
0.725051 0.551282 0.000000
0.768493 0.551282 0.000000
0.811935 0.551282 0.000000
0.855377 0.551282 0.000000
0.898820 0.551282 0.000000
0.942262 0.551282 0.000000
0.985704 0.551282 0.000000
1.000000 0.551282 0.000000
1.000000 0.551282 0.000000
1.000000 0.551282 0.000000
1.000000 0.551282 0.000000
1.000000 0.551282 0.000000
1.000000 0.551282 0.000000
1.000000 0.551282 0.000000
1.000000 0.551282 0.000000
0.000000 0.594724 0.000000
0.029975 0.594724 0.000000
0.073417 0.594724 0.000000
0.116860 0.594724 0.000000
0.160302 0.594724 0.000000
0.203744 0.594724 0.000000
0.247186 0.594724 0.000000
0.290628 0.594724 0.000000
0.334071 0.594724 0.000000
0.377513 0.594724 0.000000
0.420955 0.594724 0.000000
0.464397 0.594724 0.000000
0.507840 0.594724 0.000000
0.551282 0.594724 0.000000
0.594724 0.594724 0.000000
0.638166 0.594724 0.000000
0.681608 0.594724 0.000000
0.725051 0.594724 0.000000
0.768493 0.594724 0.000000
0.811935 0.594724 0.000000
0.855377 0.594724 0.000000
0.898820 0.594724 0.000000
0.942262 0.594724 0.000000
0.985704 0.594724 0.000000
1.000000 0.594724 0.000000
1.000000 0.594724 0.000000
1.000000 0.594724 0.000000
1.000000 0.594724 0.000000
1.000000 0.594724 0.000000
1.000000 0.594724 0.000000
1.000000 0.594724 0.000000
1.000000 0.594724 0.000000
0.000000 0.638166 0.000000
0.029975 0.638166 0.000000
0.073417 0.638166 0.000000
0.116860 0.638166 0.000000
0.160302 0.638166 0.000000
0.203744 0.638166 0.000000
0.247186 0.638166 0.000000
0.290629 0.638166 0.000000
0.334071 0.638166 0.000000
0.377513 0.638166 0.000000
0.420955 0.638166 0.000000
0.464397 0.638166 0.000000
0.507840 0.638166 0.000000
0.551282 0.638166 0.000000
0.594724 0.638166 0.000000
0.638166 0.638166 0.000000
0.681608 0.638166 0.000000
0.725051 0.638166 0.000000
0.768493 0.638166 0.000000
0.811935 0.638166 0.000000
0.855377 0.638166 0.000000
0.898820 0.638166 0.000000
0.942262 0.638166 0.000000
0.985704 0.638166 0.000000
1.000000 0.638166 0.000000
1.000000 0.638166 0.000000
1.000000 0.638166 0.000000
1.000000 0.638166 0.000000
1.000000 0.638166 0.000000
1.000000 0.638166 0.000000
1.000000 0.638166 0.000000
1.000000 0.638166 0.000000
0.000000 0.681608 0.000000
0.029975 0.681608 0.000000
0.073417 0.681608 0.000000
0.116860 0.681608 0.000000
0.160302 0.681608 0.000000
0.203744 0.681608 0.000000
0.247186 0.681608 0.000000
0.290629 0.681608 0.000000
0.334071 0.681608 0.000000
0.377513 0.681608 0.000000
0.420955 0.681608 0.000000
0.464397 0.681608 0.000000
0.507840 0.681608 0.000000
0.551282 0.681608 0.000000
0.594724 0.681608 0.000000
0.638166 0.681608 0.000000
0.681608 0.681608 0.000000
0.725051 0.681608 0.000000
0.768493 0.681608 0.000000
0.811935 0.681608 0.000000
0.855377 0.681608 0.000000
0.898820 0.681608 0.000000
0.942262 0.681608 0.000000
0.985704 0.681608 0.000000
1.000000 0.681608 0.000000
1.000000 0.681608 0.000000
1.000000 0.681608 0.000000
1.000000 0.681608 0.000000
1.000000 0.681608 0.000000
1.000000 0.681608 0.000000
1.000000 0.681608 0.000000
1.000000 0.681608 0.000000
0.000000 0.725051 0.000000
0.029975 0.725051 0.000000
0.073417 0.725051 0.000000
0.116859 0.725051 0.000000
0.160302 0.725051 0.000000
0.203744 0.725051 0.000000
0.247186 0.725051 0.000000
0.290628 0.725051 0.000000
0.334071 0.725051 0.000000
0.377513 0.725051 0.000000
0.420955 0.725051 0.000000
0.464397 0.725051 0.000000
0.507840 0.725051 0.000000
0.551282 0.725051 0.000000
0.594724 0.725051 0.000000
0.638166 0.725051 0.000000
0.681608 0.725051 0.000000
0.725051 0.725051 0.000000
0.768493 0.725051 0.000000
0.811935 0.725051 0.000000
0.855377 0.725051 0.000000
0.898820 0.725051 0.000000
0.942262 0.725051 0.000000
0.985704 0.725051 0.000000
1.000000 0.725051 0.000000
1.000000 0.725051 0.000000
1.000000 0.725051 0.000000
1.000000 0.725051 0.000000
1.000000 0.725051 0.000000
1.000000 0.725051 0.000000
1.000000 0.725051 0.000000
1.000000 0.725051 0.000000
0.000000 0.768493 0.000000
0.029975 0.768493 0.000000
0.073417 0.768493 0.000000
0.116860 0.768493 0.000000
0.160302 0.768493 0.000000
0.203744 0.768493 0.000000
0.247186 0.768493 0.000000
0.290628 0.768493 0.000000
0.334071 0.768493 0.000000
0.377513 0.768493 0.000000
0.420955 0.768493 0.000000
0.464397 0.768493 0.000000
0.507840 0.768493 0.000000
0.551282 0.768493 0.000000
0.594724 0.768493 0.000000
0.638166 0.768493 0.000000
0.681608 0.768493 0.000000
0.725051 0.768493 0.000000
0.768493 0.768493 0.000000
0.811935 0.768493 0.000000
0.855377 0.768493 0.000000
0.898820 0.768493 0.000000
0.942262 0.768493 0.000000
0.985704 0.768493 0.000000
1.000000 0.768493 0.000000
1.000000 0.768493 0.000000
1.000000 0.768493 0.000000
1.000000 0.768493 0.000000
1.000000 0.768493 0.000000
1.000000 0.768493 0.000000
1.000000 0.768493 0.000000
1.000000 0.768493 0.000000
0.000000 0.811935 0.000000
0.029975 0.811935 0.000000
0.073417 0.811935 0.000000
0.116860 0.811935 0.000000
0.160302 0.811935 0.000000
0.203744 0.811935 0.000000
0.247186 0.811935 0.000000
0.290628 0.811935 0.000000
0.334071 0.811935 0.000000
0.377513 0.811935 0.000000
0.420955 0.811935 0.000000
0.464397 0.811935 0.000000
0.507840 0.811935 0.000000
0.551282 0.811935 0.000000
0.594724 0.811935 0.000000
0.638166 0.811935 0.000000
0.681608 0.811935 0.000000
0.725051 0.811935 0.000000
0.768493 0.811935 0.000000
0.811935 0.811935 0.000000
0.855377 0.811935 0.000000
0.898820 0.811935 0.000000
0.942262 0.811935 0.000000
0.985704 0.811935 0.000000
1.000000 0.811935 0.000000
1.000000 0.811935 0.000000
1.000000 0.811935 0.000000
1.000000 0.811935 0.000000
1.000000 0.811935 0.000000
1.000000 0.811935 0.000000
1.000000 0.811935 0.000000
1.000000 0.811935 0.000000
0.000000 0.855377 0.000000
0.029975 0.855377 0.000000
0.073418 0.855377 0.000000
0.116860 0.855377 0.000000
0.160302 0.855377 0.000000
0.203744 0.855377 0.000000
0.247186 0.855377 0.000000
0.290628 0.855377 0.000000
0.334071 0.855377 0.000000
0.377513 0.855377 0.000000
0.420955 0.855377 0.000000
0.464397 0.855377 0.000000
0.507840 0.855377 0.000000
0.551282 0.855377 0.000000
0.594724 0.855377 0.000000
0.638166 0.855377 0.000000
0.681608 0.855377 0.000000
0.725051 0.855377 0.000000
0.768493 0.855377 0.000000
0.811935 0.855377 0.000000
0.855377 0.855377 0.000000
0.898820 0.855377 0.000000
0.942262 0.855377 0.000000
0.985704 0.855377 0.000000
1.000000 0.855377 0.000000
1.000000 0.855377 0.000000
1.000000 0.855377 0.000000
1.000000 0.855377 0.000000
1.000000 0.855377 0.000000
1.000000 0.855377 0.000000
1.000000 0.855377 0.000000
1.000000 0.855377 0.000000
0.000000 0.898820 0.000000
0.029975 0.898820 0.000000
0.073417 0.898820 0.000000
0.116859 0.898820 0.000000
0.160302 0.898820 0.000000
0.203744 0.898820 0.000000
0.247186 0.898820 0.000000
0.290628 0.898820 0.000000
0.334071 0.898820 0.000000
0.377513 0.898820 0.000000
0.420955 0.898820 0.000000
0.464397 0.898820 0.000000
0.507840 0.898820 0.000000
0.551282 0.898820 0.000000
0.594724 0.898820 0.000000
0.638166 0.898820 0.000000
0.681608 0.898820 0.000000
0.725051 0.898820 0.000000
0.768493 0.898820 0.000000
0.811935 0.898820 0.000000
0.855377 0.898820 0.000000
0.898820 0.898820 0.000000
0.942262 0.898819 0.000000
0.985704 0.898819 0.000000
1.000000 0.898820 0.000000
1.000000 0.898820 0.000000
1.000000 0.898820 0.000000
1.000000 0.898819 0.000000
1.000000 0.898820 0.000000
1.000000 0.898820 0.000000
1.000000 0.898820 0.000000
1.000000 0.898819 0.000000
0.000000 0.942262 0.000000
0.029975 0.942262 0.000000
0.073418 0.942262 0.000000
0.116860 0.942262 0.000000
0.160302 0.942262 0.000000
0.203744 0.942262 0.000000
0.247186 0.942262 0.000000
0.290628 0.942262 0.000000
0.334071 0.942262 0.000000
0.377513 0.942262 0.000000
0.420955 0.942262 0.000000
0.464397 0.942262 0.000000
0.507839 0.942262 0.000000
0.551282 0.942262 0.000000
0.594724 0.942262 0.000000
0.638166 0.942262 0.000000
0.681608 0.942262 0.000000
0.725051 0.942262 0.000000
0.768493 0.942262 0.000000
0.811935 0.942262 0.000000
0.855377 0.942262 0.000000
0.898820 0.942262 0.000000
0.942262 0.942262 0.000000
0.985704 0.942262 0.000000
1.000000 0.942262 0.000000
1.000000 0.942262 0.000000
1.000000 0.942262 0.000000
1.000000 0.942262 0.000000
1.000000 0.942262 0.000000
1.000000 0.942262 0.000000
1.000000 0.942262 0.000000
1.000000 0.942262 0.000000
0.000000 0.985704 0.000000
0.029975 0.985704 0.000000
0.073418 0.985704 0.000000
0.116860 0.985704 0.000000
0.160302 0.985704 0.000000
0.203744 0.985704 0.000000
0.247186 0.985704 0.000000
0.290628 0.985704 0.000000
0.334071 0.985704 0.000000
0.377513 0.985704 0.000000
0.420955 0.985704 0.000000
0.464398 0.985704 0.000000
0.507839 0.985704 0.000000
0.551282 0.985704 0.000000
0.594724 0.985704 0.000000
0.638166 0.985704 0.000000
0.681609 0.985704 0.000000
0.725051 0.985704 0.000000
0.768493 0.985704 0.000000
0.811935 0.985704 0.000000
0.855377 0.985704 0.000000
0.898820 0.985704 0.000000
0.942262 0.985704 0.000000
0.985704 0.985704 0.000000
1.000000 0.985704 0.000000
1.000000 0.985704 0.000000
1.000000 0.985704 0.000000
1.000000 0.985704 0.000000
1.000000 0.985704 0.000000
1.000000 0.985704 0.000000
1.000000 0.985704 0.000000
1.000000 0.985704 0.000000
0.000000 1.000000 0.000000
0.029975 1.000000 0.000000
0.073417 1.000000 0.000000
0.116859 1.000000 0.000000
0.160302 1.000000 0.000000
0.203744 1.000000 0.000000
0.247186 1.000000 0.000000
0.290628 1.000000 0.000000
0.334070 1.000000 0.000000
0.377513 1.000000 0.000000
0.420955 1.000000 0.000000
0.464397 1.000000 0.000000
0.507839 1.000000 0.000000
0.551282 1.000000 0.000000
0.594724 1.000000 0.000000
0.638166 1.000000 0.000000
0.681609 1.000000 0.000000
0.725051 1.000000 0.000000
0.768493 1.000000 0.000000
0.811935 1.000000 0.000000
0.855377 1.000000 0.000000
0.898819 1.000000 0.000000
0.942262 1.000000 0.000000
0.985704 1.000000 0.000000
1.000000 1.000000 0.000000
1.000000 1.000000 0.000000
1.000000 1.000000 0.000000
1.000000 1.000000 0.000000
1.000000 1.000000 0.000000
1.000000 1.000000 0.000000
1.000000 1.000000 0.000000
1.000000 1.000000 0.000000
0.000000 1.000000 0.000000
0.029975 1.000000 0.000000
0.073418 1.000000 0.000000
0.116860 1.000000 0.000000
0.160302 1.000000 0.000000
0.203744 1.000000 0.000000
0.247186 1.000000 0.000000
0.290629 1.000000 0.000000
0.334071 1.000000 0.000000
0.377513 1.000000 0.000000
0.420955 1.000000 0.000000
0.464397 1.000000 0.000000
0.507839 1.000000 0.000000
0.551282 1.000000 0.000000
0.594724 1.000000 0.000000
0.638166 1.000000 0.000000
0.681609 1.000000 0.000000
0.725051 1.000000 0.000000
0.768493 1.000000 0.000000
0.811935 1.000000 0.000000
0.855377 1.000000 0.000000
0.898820 1.000000 0.000000
0.942262 1.000000 0.000000
0.985704 1.000000 0.000000
1.000000 1.000000 0.000000
1.000000 1.000000 0.000000
1.000000 1.000000 0.000000
1.000000 1.000000 0.000000
1.000000 1.000000 0.000000
1.000000 1.000000 0.000000
1.000000 1.000000 0.000000
1.000000 1.000000 0.000000
0.000000 1.000000 0.000000
0.029975 1.000000 0.000000
0.073418 1.000000 0.000000
0.116860 1.000000 0.000000
0.160302 1.000000 0.000000
0.203744 1.000000 0.000000
0.247186 1.000000 0.000000
0.290629 1.000000 0.000000
0.334071 1.000000 0.000000
0.377513 1.000000 0.000000
0.420955 1.000000 0.000000
0.464397 1.000000 0.000000
0.507840 1.000000 0.000000
0.551282 1.000000 0.000000
0.594724 1.000000 0.000000
0.638166 1.000000 0.000000
0.681608 1.000000 0.000000
0.725051 1.000000 0.000000
0.768493 1.000000 0.000000
0.811935 1.000000 0.000000
0.855378 1.000000 0.000000
0.898820 1.000000 0.000000
0.942262 1.000000 0.000000
0.985704 1.000000 0.000000
1.000000 1.000000 0.000000
1.000000 1.000000 0.000000
1.000000 1.000000 0.000000
1.000000 1.000000 0.000000
1.000000 1.000000 0.000000
1.000000 1.000000 0.000000
1.000000 1.000000 0.000000
1.000000 1.000000 0.000000
0.000000 1.000000 0.000000
0.029975 1.000000 0.000000
0.073417 1.000000 0.000000
0.116859 1.000000 0.000000
0.160302 1.000000 0.000000
0.203744 1.000000 0.000000
0.247186 1.000000 0.000000
0.290628 1.000000 0.000000
0.334071 1.000000 0.000000
0.377513 1.000000 0.000000
0.420955 1.000000 0.000000
0.464397 1.000000 0.000000
0.507840 1.000000 0.000000
0.551282 1.000000 0.000000
0.594724 1.000000 0.000000
0.638166 1.000000 0.000000
0.681608 1.000000 0.000000
0.725051 1.000000 0.000000
