HDR2SDR_01_DRG.cube
#Created by: Affinity Photo (Serif Europe Ltd.)
TITLE "HDR2SDR_01_DRG"
#LUT size
LUT_3D_SIZE 8
#data domain
#LUT data points
DOMAIN_MIN 0.000000 0.000000 0.000000
DOMAIN_MAX 0.903226 0.903226 0.903226
0.000000 0.000000 0.000000
0.070265 0.000000 0.000000
0.196867 0.000000 0.000000
0.354301 0.000000 0.000000
0.535422 0.000000 0.000000
0.736325 0.000000 0.000000
0.954471 0.000000 0.000000
1.000000 0.000000 0.000000
0.000000 0.070265 0.000000
0.070265 0.070265 0.000000
0.196867 0.070265 0.000000
0.354301 0.070265 0.000000
0.535422 0.070265 0.000000
0.736325 0.070265 0.000000
0.954471 0.070265 0.000000
1.000000 0.070265 0.000000
0.000000 0.196867 0.000000
0.070265 0.196867 0.000000
0.196867 0.196867 0.000000
0.354301 0.196867 0.000000
0.535422 0.196867 0.000000
0.736325 0.196867 0.000000
0.954471 0.196867 0.000000
1.000000 0.196867 0.000000
0.000000 0.354301 0.000000
0.070265 0.354301 0.000000
0.196867 0.354301 0.000000
0.354301 0.354301 0.000000
0.535422 0.354301 0.000000
0.736325 0.354301 0.000000
0.954471 0.354301 0.000000
1.000000 0.354301 0.000000
0.000000 0.535422 0.000000
0.070265 0.535422 0.000000
0.196867 0.535422 0.000000
0.354301 0.535422 0.000000
0.535422 0.535422 0.000000
0.736325 0.535422 0.000000
0.954471 0.535422 0.000000
1.000000 0.535422 0.000000
0.000000 0.736325 0.000000
0.070265 0.736325 0.000000
0.196867 0.736325 0.000000
0.354301 0.736325 0.000000
0.535421 0.736325 0.000000
0.736325 0.736325 0.000000
0.954471 0.736325 0.000000
1.000000 0.736325 0.000000
0.000000 0.954471 0.000000
0.070265 0.954471 0.000000
0.196867 0.954471 0.000000
0.354301 0.954471 0.000000
0.535422 0.954471 0.000000
0.736325 0.954471 0.000000
0.954471 0.954471 0.000000
1.000000 0.954471 0.000000
0.000000 1.000000 0.000000
0.070265 1.000000 0.000000
0.196867 1.000000 0.000000
0.354302 1.000000 0.000000
0.535421 1.000000 0.000000
0.736325 1.000000 0.000000
0.954471 1.000000 0.000000
1.000000 1.000000 0.000000
0.000000 0.000000 0.070265
0.070265 0.000000 0.070265
0.196867 0.000000 0.070265
0.354301 0.000000 0.070265
0.535422 0.000000 0.070265
0.736325 0.000000 0.070265
0.954471 0.000000 0.070264
1.000000 0.000000 0.070265
0.000000 0.070265 0.070265
0.070265 0.070265 0.070265
0.239068 0.028064 0.028064
0.424566 0.000000 0.000000
0.605686 0.000000 0.000000
0.806590 0.000000 0.000000
1.000000 0.024735 0.024736
1.000000 0.070265 0.070265
0.000000 0.196867 0.070265
0.028064 0.239068 0.028064
0.239068 0.239068 0.028064
0.424566 0.189240 0.000000
0.605686 0.164850 0.000000
0.806590 0.153314 0.000000
1.000000 0.164375 0.024735
1.000000 0.196867 0.070265
0.000000 0.354301 0.070265
0.000000 0.424566 0.000000
0.189240 0.424566 0.000000
0.424566 0.424566 0.000000
0.605686 0.369848 0.000000
0.806590 0.343964 0.000000
1.000000 0.338023 0.024735
1.000000 0.354301 0.070265
0.000000 0.535422 0.070264
0.000000 0.605686 0.000000
0.164850 0.605686 0.000000
0.369847 0.605686 0.000000
0.605686 0.605686 0.000000
0.806590 0.563298 0.000000
1.000000 0.537796 0.024735
1.000000 0.535422 0.070265
0.000000 0.736325 0.070265
0.000000 0.806590 0.000000
0.153313 0.806590 0.000000
0.343965 0.806590 0.000000
0.563298 0.806590 0.000000
0.806590 0.806590 0.000000
1.000000 0.759389 0.024735
1.000000 0.736325 0.070265
0.000000 0.954471 0.070265
0.024735 1.000000 0.024735
0.164375 1.000000 0.024735
0.338023 1.000000 0.024735
0.537796 1.000000 0.024735
0.759389 1.000000 0.024735
1.000000 1.000000 0.024735
1.000000 0.954471 0.070265
0.000000 1.000000 0.070265
0.070265 1.000000 0.070265
0.196867 1.000000 0.070265
0.354301 1.000000 0.070265
0.535421 1.000000 0.070265
0.736325 1.000000 0.070265
0.954471 1.000000 0.070265
1.000000 1.000000 0.070265
0.000000 0.000000 0.196867
0.070265 0.000000 0.196867
0.196867 0.000000 0.196867
0.354301 0.000000 0.196867
0.535422 0.000000 0.196867
0.736325 0.000000 0.196867
0.954471 0.000000 0.196867
1.000000 0.000000 0.196867
0.000000 0.070265 0.196867
0.028064 0.028064 0.239068
0.239068 0.028064 0.239068
0.424566 0.000000 0.189240
0.605686 0.000000 0.164850
0.806590 0.000000 0.153314
1.000000 0.024735 0.164376
1.000000 0.070265 0.196867
0.000000 0.196867 0.196867
0.028064 0.239068 0.239068
0.196867 0.196867 0.196867
0.406780 0.144389 0.144389
0.648273 0.084015 0.084015
0.916145 0.017047 0.017048
1.000000 0.151338 0.151338
1.000000 0.196867 0.196867
0.000000 0.354301 0.196867
0.000000 0.424566 0.189240
0.144389 0.406780 0.144389
0.406780 0.406780 0.144389
0.648273 0.346406 0.084015
0.916145 0.279438 0.017047
1.000000 0.327695 0.151338
1.000000 0.354301 0.196867
0.000000 0.535422 0.196867
0.000000 0.605686 0.164850
0.084015 0.648273 0.084015
0.346406 0.648273 0.084015
0.648273 0.648273 0.084015
0.916145 0.581305 0.017047
1.000000 0.530584 0.151338
1.000000 0.535422 0.196867
0.000000 0.736325 0.196867
0.000000 0.806590 0.153313
0.017047 0.916145 0.017047
0.279438 0.916145 0.017047
0.581305 0.916145 0.017047
0.916145 0.916145 0.017047
1.000000 0.755635 0.151338
1.000000 0.736325 0.196867
0.000000 0.954471 0.196867
0.024735 1.000000 0.164375
0.151338 1.000000 0.151338
0.327694 1.000000 0.151338
0.530584 1.000000 0.151338
0.755635 1.000000 0.151338
1.000000 1.000000 0.151338
1.000000 0.954471 0.196867
0.000000 1.000000 0.196867
0.070265 1.000000 0.196867
0.196867 1.000000 0.196867
0.354301 1.000000 0.196867
0.535422 1.000000 0.196867
0.736325 1.000000 0.196867
0.954471 1.000000 0.196867
1.000000 1.000000 0.196867
0.000000 0.000000 0.354301
0.070264 0.000000 0.354301
0.196867 0.000000 0.354301
0.354301 0.000000 0.354301
0.535422 0.000000 0.354301
0.736325 0.000000 0.354301
0.954471 0.000000 0.354302
1.000000 0.000000 0.354302
0.000000 0.070265 0.354301
0.000000 0.000000 0.424566
0.189240 0.000000 0.424566
0.424566 0.000000 0.424566
0.605686 0.000000 0.369847
0.806590 0.000000 0.343965
1.000000 0.024735 0.338023
1.000000 0.070265 0.354302
0.000000 0.196867 0.354301
0.000000 0.189240 0.424566
0.144389 0.144389 0.406780
0.406779 0.144389 0.406780
0.648273 0.084015 0.346406
0.916145 0.017047 0.279438
1.000000 0.151338 0.327694
1.000000 0.196867 0.354301
0.000000 0.354301 0.354301
0.000000 0.424566 0.424566
0.144389 0.406780 0.406779
0.354301 0.354301 0.354301
0.595795 0.293928 0.293928
0.863666 0.226960 0.226960
1.000000 0.308772 0.308772
1.000000 0.354301 0.354302
0.000000 0.535422 0.354301
0.000000 0.605686 0.369847
0.084015 0.648273 0.346406
0.293928 0.595795 0.293928
0.595795 0.595795 0.293928
0.863666 0.528827 0.226960
1.000000 0.517372 0.308772
1.000000 0.535421 0.354301
0.000000 0.736325 0.354301
0.000000 0.806590 0.343965
0.017047 0.916145 0.279438
0.226960 0.863666 0.226960
0.528827 0.863666 0.226960
0.863666 0.863666 0.226960
1.000000 0.748757 0.308772
1.000000 0.736325 0.354301
0.000000 0.954471 0.354301
0.024735 1.000000 0.338023
0.151338 1.000000 0.327694
0.308772 1.000000 0.308772
0.517372 1.000000 0.308772
0.748757 1.000000 0.308772
1.000000 1.000000 0.308772
1.000000 0.954471 0.354301
0.000000 1.000000 0.354301
0.070265 1.000000 0.354301
0.196867 1.000000 0.354301
0.354301 1.000000 0.354301
0.535422 1.000000 0.354301
0.736325 1.000000 0.354301
0.954471 1.000000 0.354301
1.000000 1.000000 0.354301
0.000000 0.000000 0.535422
0.070265 0.000000 0.535422
0.196867 0.000000 0.535422
0.354301 0.000000 0.535422
0.535421 0.000000 0.535422
0.736325 0.000000 0.535421
0.954471 0.000000 0.535422
1.000000 0.000000 0.535422
0.000000 0.070265 0.535422
0.000000 0.000000 0.605686
0.164850 0.000000 0.605686
0.369848 0.000000 0.605686
0.605686 0.000000 0.605686
0.806590 0.000000 0.563298
1.000000 0.024735 0.537796
1.000000 0.070265 0.535422
0.000000 0.196867 0.535422
0.000000 0.164850 0.605686
0.084015 0.084015 0.648273
0.346406 0.084015 0.648273
0.648273 0.084015 0.648273
0.916145 0.017047 0.581305
1.000000 0.151338 0.530584
1.000000 0.196867 0.535422
0.000000 0.354301 0.535422
0.000000 0.369848 0.605686
0.084015 0.346406 0.648273
0.293928 0.293928 0.595795
0.595795 0.293928 0.595795
0.863666 0.226960 0.528827
1.000000 0.308772 0.517372
1.000000 0.354301 0.535422
0.000000 0.535422 0.535421
0.000000 0.605686 0.605686
0.084015 0.648273 0.648273
0.293928 0.595795 0.595795
0.535422 0.535422 0.535422
0.803293 0.468454 0.468454
1.000000 0.489892 0.489892
1.000000 0.535422 0.535422
0.000000 0.736325 0.535421
0.000000 0.806590 0.563298
0.017047 0.916145 0.581305
0.226960 0.863666 0.528827
0.468454 0.803293 0.468454
0.803293 0.803293 0.468454
1.000000 0.734452 0.489892
1.000000 0.736325 0.535422
0.000000 0.954471 0.535421
0.024735 1.000000 0.537796
0.151338 1.000000 0.530584
0.308772 1.000000 0.517372
0.489892 1.000000 0.489892
0.734452 1.000000 0.489892
1.000000 1.000000 0.489892
1.000000 0.954471 0.535422
0.000000 1.000000 0.535421
0.070265 1.000000 0.535421
0.196867 1.000000 0.535421
0.354301 1.000000 0.535421
0.535422 1.000000 0.535422
0.736325 1.000000 0.535422
0.954471 1.000000 0.535422
1.000000 1.000000 0.535422
0.000000 0.000000 0.736325
0.070265 0.000000 0.736325
0.196867 0.000000 0.736325
0.354301 0.000000 0.736325
0.535421 0.000000 0.736325
0.736325 0.000000 0.736325
0.954471 0.000000 0.736325
1.000000 0.000000 0.736325
0.000000 0.070265 0.736325
0.000000 0.000000 0.806590
0.153314 0.000000 0.806590
0.343965 0.000000 0.806590
0.563299 0.000000 0.806590
0.806590 0.000000 0.806590
1.000000 0.024735 0.759389
1.000000 0.070265 0.736326
0.000000 0.196867 0.736325
0.000000 0.153314 0.806590
0.017047 0.017047 0.916145
0.279438 0.017047 0.916145
0.581305 0.017047 0.916145
0.916144 0.017047 0.916145
1.000000 0.151338 0.755635
1.000000 0.196867 0.736326
0.000000 0.354302 0.736325
0.000000 0.343965 0.806590
0.017047 0.279438 0.916145
0.226960 0.226960 0.863666
0.528827 0.226960 0.863666
0.863666 0.226960 0.863666
1.000000 0.308772 0.748757
1.000000 0.354301 0.736325
0.000000 0.535422 0.736325
0.000000 0.563298 0.806590
0.017047 0.581305 0.916145
0.226960 0.528827 0.863666
0.468454 0.468454 0.803293
0.803293 0.468454 0.803293
1.000000 0.489892 0.734452
1.000000 0.535422 0.736325
0.000000 0.736325 0.736325
0.000000 0.806590 0.806590
0.017047 0.916145 0.916144
0.226960 0.863666 0.863666
0.468454 0.803293 0.803293
0.736325 0.736325 0.736325
1.000000 0.690796 0.690796
1.000000 0.736325 0.736325
0.000000 0.954471 0.736325
0.024735 1.000000 0.759389
0.151338 1.000000 0.755635
0.308772 1.000000 0.748757
0.489892 1.000000 0.734452
0.690796 1.000000 0.690796
1.000000 1.000000 0.690796
1.000000 0.954471 0.736325
0.000000 1.000000 0.736325
0.070265 1.000000 0.736325
0.196867 1.000000 0.736325
0.354301 1.000000 0.736325
0.535422 1.000000 0.736325
0.736325 1.000000 0.736325
0.954471 1.000000 0.736325
1.000000 1.000000 0.736325
0.000000 0.000000 0.954471
0.070265 0.000000 0.954471
0.196868 0.000000 0.954471
0.354301 0.000000 0.954471
0.535422 0.000000 0.954471
0.736326 0.000000 0.954471
0.954471 0.000000 0.954471
1.000000 0.000000 0.954471
0.000000 0.070265 0.954471
0.024735 0.024735 1.000000
0.164376 0.024735 1.000000
0.338023 0.024735 1.000000
0.537796 0.024735 1.000000
0.759389 0.024735 1.000000
1.000000 0.024735 1.000000
1.000000 0.070265 0.954471
0.000000 0.196867 0.954471
0.024735 0.164376 1.000000
0.151338 0.151338 1.000000
0.327694 0.151338 1.000000
0.530584 0.151338 1.000000
0.755635 0.151338 1.000000
1.000000 0.151338 1.000000
1.000000 0.196867 0.954471
0.000000 0.354302 0.954471
0.024735 0.338023 1.000000
0.151338 0.327695 1.000000
0.308772 0.308772 1.000000
0.517372 0.308772 1.000000
0.748757 0.308772 1.000000
1.000000 0.308772 1.000000
1.000000 0.354301 0.954471
0.000000 0.535422 0.954471
0.024735 0.537796 1.000000
0.151338 0.530584 1.000000
0.308772 0.517372 1.000000
0.489892 0.489892 1.000000
0.734452 0.489892 1.000000
1.000000 0.489892 1.000000
1.000000 0.535422 0.954471
0.000000 0.736325 0.954471
0.024735 0.759389 1.000000
0.151338 0.755635 1.000000
0.308772 0.748757 1.000000
0.489892 0.734452 1.000000
0.690796 0.690796 1.000000
1.000000 0.690796 1.000000
1.000000 0.736325 0.954471
0.000000 0.954471 0.954471
0.024735 1.000000 1.000000
0.151338 1.000000 1.000000
0.308772 1.000000 1.000000
0.489892 1.000000 1.000000
0.690796 1.000000 1.000000
0.954471 0.954471 0.954471
1.000000 0.954471 0.954471
0.000000 1.000000 0.954471
0.070265 1.000000 0.954470
0.196867 1.000000 0.954471
0.354301 1.000000 0.954471
0.535422 1.000000 0.954471
0.736325 1.000000 0.954471
0.954471 1.000000 0.954471
1.000000 1.000000 0.954471
0.000000 0.000000 1.000000
0.070265 0.000000 1.000000
0.196867 0.000000 1.000000
0.354301 0.000000 1.000000
0.535421 0.000000 1.000000
0.736325 0.000000 1.000000
0.954471 0.000000 1.000000
1.000000 0.000000 1.000000
0.000000 0.070265 1.000000
0.070265 0.070265 1.000000
0.196867 0.070265 1.000000
0.354301 0.070265 1.000000
0.535421 0.070265 1.000000
0.736325 0.070265 1.000000
0.954471 0.070265 1.000000
1.000000 0.070265 1.000000
0.000000 0.196867 1.000000
0.070265 0.196867 1.000000
0.196867 0.196867 1.000000
0.354301 0.196867 1.000000
0.535422 0.196867 1.000000
0.736325 0.196867 1.000000
0.954470 0.196867 1.000000
1.000000 0.196867 1.000000
0.000000 0.354302 1.000000
0.070265 0.354301 1.000000
0.196867 0.354301 1.000000
0.354301 0.354301 1.000000
0.535421 0.354301 1.000000
0.736325 0.354301 1.000000
0.954471 0.354301 1.000000
1.000000 0.354301 1.000000
0.000000 0.535421 1.000000
0.070265 0.535421 1.000000
0.196867 0.535422 1.000000
0.354301 0.535421 1.000000
0.535422 0.535422 1.000000
0.736325 0.535422 1.000000
0.954471 0.535422 1.000000
1.000000 0.535422 1.000000
0.000000 0.736325 1.000000
0.070265 0.736326 1.000000
0.196867 0.736325 1.000000
0.354301 0.736325 1.000000
0.535422 0.736325 1.000000
0.736325 0.736325 1.000000
0.954471 0.736325 1.000000
1.000000 0.736325 1.000000
0.000000 0.954471 1.000000
0.070265 0.954471 1.000000
0.196867 0.954471 1.000000
0.354301 0.954471 1.000000
0.535422 0.954471 1.000000
0.736325 0.954471 1.000000
0.954471 0.954471 1.000000
1.000000 0.954471 1.000000
0.000000 1.000000 1.000000
0.070265 1.000000 1.000000
0.196867 1.000000 1.000000
0.354301 1.000000 1.000000
0.535422 1.000000 1.000000
0.736325 1.000000 1.000000
0.954471 1.000000 1.000000
1.000000 1.000000 1.000000
