HDR2SDR_03_BF.cube
#Created by: Affinity Photo (Serif Europe Ltd.)
TITLE "HDR2SDR_03_BF"
#LUT size
LUT_3D_SIZE 9
#data domain
DOMAIN_MIN 0.0 0.0 0.0
DOMAIN_MAX 1.0 1.0 1.0
#LUT data points
0.000000 0.000000 0.000000
0.100493 0.000000 0.000000
0.265766 0.000000 0.000000
0.469426 0.000000 0.000000
0.702852 0.000000 0.000000
0.961245 0.000000 0.000000
1.000000 0.000000 0.000000
1.000000 0.000000 0.000000
1.000000 0.000000 0.000000
0.000000 0.100493 0.000000
0.100493 0.100493 0.000000
0.265766 0.100493 0.000000
0.469426 0.100493 0.000000
0.702852 0.100493 0.000000
0.961245 0.100493 0.000000
1.000000 0.100493 0.000000
1.000000 0.100493 0.000000
1.000000 0.100493 0.000000
0.000000 0.265766 0.000000
0.100493 0.265766 0.000000
0.265766 0.265766 0.000000
0.469426 0.265766 0.000000
0.702852 0.265766 0.000000
0.961245 0.265766 0.000000
1.000000 0.265766 0.000000
1.000000 0.265766 0.000000
1.000000 0.265766 0.000000
0.000000 0.469426 0.000000
0.100493 0.469426 0.000000
0.265767 0.469426 0.000000
0.469426 0.469426 0.000000
0.702852 0.469426 0.000000
0.961245 0.469426 0.000000
1.000000 0.469426 0.000000
1.000000 0.469426 0.000000
1.000000 0.469426 0.000000
0.000000 0.702852 0.000000
0.100493 0.702852 0.000000
0.265767 0.702852 0.000000
0.469426 0.702852 0.000000
0.702852 0.702852 0.000000
0.961245 0.702852 0.000000
1.000000 0.702852 0.000000
1.000000 0.702852 0.000000
1.000000 0.702852 0.000000
0.000000 0.961245 0.000000
0.100493 0.961245 0.000000
0.265766 0.961245 0.000000
0.469426 0.961245 0.000000
0.702852 0.961245 0.000000
0.961246 0.961245 0.000000
1.000000 0.961246 0.000000
1.000000 0.961246 0.000000
1.000000 0.961246 0.000000
0.000000 1.000000 0.000000
0.100493 1.000000 0.000000
0.265767 1.000000 0.000000
0.469426 1.000000 0.000000
0.702851 1.000000 0.000000
0.961245 1.000000 0.000000
1.000000 1.000000 0.000000
1.000000 1.000000 0.000000
1.000000 1.000000 0.000000
0.000000 1.000000 0.000000
0.100493 1.000000 0.000000
0.265767 1.000000 0.000000
0.469426 1.000000 0.000000
0.702851 1.000000 0.000000
0.961245 1.000000 0.000000
1.000000 1.000000 0.000000
1.000000 1.000000 0.000000
1.000000 1.000000 0.000000
0.000000 1.000000 0.000000
0.100493 1.000000 0.000000
0.265767 1.000000 0.000000
0.469426 1.000000 0.000000
0.702851 1.000000 0.000000
0.961245 1.000000 0.000000
1.000000 1.000000 0.000000
1.000000 1.000000 0.000000
1.000000 1.000000 0.000000
0.000000 0.000000 0.100493
0.100493 0.000000 0.100493
0.265766 0.000000 0.100493
0.469426 0.000000 0.100493
0.702852 0.000000 0.100493
0.961245 0.000000 0.100493
1.000000 0.000000 0.100494
1.000000 0.000000 0.100494
1.000000 0.000000 0.100494
0.000000 0.100493 0.100493
0.100493 0.100493 0.100493
0.320857 0.045402 0.045402
0.569919 0.000000 0.000000
0.803345 0.000000 0.000000
1.000000 0.061739 0.061739
1.000000 0.100493 0.100494
1.000000 0.100493 0.100494
1.000000 0.100493 0.100494
0.000000 0.265766 0.100493
0.045402 0.320857 0.045402
0.320857 0.320857 0.045402
0.569919 0.255310 0.000000
0.803345 0.220419 0.000000
1.000000 0.241894 0.061739
1.000000 0.265766 0.100493
1.000000 0.265766 0.100493
1.000000 0.265766 0.100493
0.000000 0.469426 0.100493
0.000000 0.569919 0.000000
0.255310 0.569919 0.000000
0.569919 0.569919 0.000000
0.803345 0.492033 0.000000
1.000000 0.463893 0.061739
1.000000 0.469426 0.100493
1.000000 0.469426 0.100493
1.000000 0.469426 0.100493
0.000000 0.702852 0.100493
0.000000 0.803345 0.000000
0.220419 0.803345 0.000000
0.492033 0.803345 0.000000
0.803345 0.803345 0.000000
1.000000 0.718338 0.061739
1.000000 0.702852 0.100493
1.000000 0.702852 0.100493
1.000000 0.702852 0.100493
0.000000 0.961245 0.100493
0.061739 1.000000 0.061739
0.241894 1.000000 0.061739
0.463893 1.000000 0.061739
0.718338 1.000000 0.061739
1.000000 1.000000 0.061739
1.000000 0.961245 0.100493
1.000000 0.961245 0.100493
1.000000 0.961245 0.100493
0.000000 1.000000 0.100493
0.100493 1.000000 0.100493
0.265767 1.000000 0.100493
0.469426 1.000000 0.100493
0.702852 1.000000 0.100493
0.961246 1.000000 0.100493
1.000000 1.000000 0.100493
1.000000 1.000000 0.100493
1.000000 1.000000 0.100493
0.000000 1.000000 0.100493
0.100493 1.000000 0.100493
0.265767 1.000000 0.100493
0.469426 1.000000 0.100493
0.702852 1.000000 0.100493
0.961246 1.000000 0.100493
1.000000 1.000000 0.100493
1.000000 1.000000 0.100493
1.000000 1.000000 0.100493
0.000000 1.000000 0.100493
0.100493 1.000000 0.100493
0.265767 1.000000 0.100493
0.469426 1.000000 0.100493
0.702852 1.000000 0.100493
0.961246 1.000000 0.100493
1.000000 1.000000 0.100493
1.000000 1.000000 0.100493
1.000000 1.000000 0.100493
0.000000 0.000000 0.265766
0.100493 0.000000 0.265766
0.265766 0.000000 0.265766
0.469426 0.000000 0.265767
0.702852 0.000000 0.265767
0.961245 0.000000 0.265766
1.000000 0.000000 0.265767
1.000000 0.000000 0.265767
1.000000 0.000000 0.265767
0.000000 0.100493 0.265766
0.045402 0.045402 0.320857
0.320857 0.045402 0.320857
0.569919 0.000000 0.255311
0.803345 0.000000 0.220420
1.000000 0.061739 0.241894
1.000000 0.100493 0.265767
1.000000 0.100493 0.265767
1.000000 0.100493 0.265767
0.000000 0.265766 0.265766
0.045402 0.320857 0.320857
0.265766 0.265766 0.265766
0.537312 0.197880 0.197880
0.848547 0.120071 0.120072
1.000000 0.227012 0.227012
1.000000 0.265766 0.265767
1.000000 0.265766 0.265767
1.000000 0.265766 0.265767
0.000000 0.469426 0.265766
0.000000 0.569919 0.255310
0.197880 0.537312 0.197880
0.537312 0.537312 0.197880
0.848547 0.459504 0.120071
1.000000 0.453368 0.227012
1.000000 0.469426 0.265766
1.000000 0.469426 0.265766
1.000000 0.469426 0.265766
0.000000 0.702852 0.265767
0.000000 0.803345 0.220419
0.120071 0.848547 0.120071
0.459504 0.848547 0.120071
0.848547 0.848547 0.120071
1.000000 0.712809 0.227012
1.000000 0.702852 0.265766
1.000000 0.702852 0.265766
1.000000 0.702852 0.265766
0.000000 0.961245 0.265766
0.061739 1.000000 0.241894
0.227012 1.000000 0.227012
0.453368 1.000000 0.227012
0.712809 1.000000 0.227012
1.000000 1.000000 0.227012
1.000000 0.961245 0.265766
1.000000 0.961245 0.265766
1.000000 0.961245 0.265766
0.000000 1.000000 0.265766
0.100493 1.000000 0.265766
0.265766 1.000000 0.265766
0.469426 1.000000 0.265766
0.702852 1.000000 0.265766
0.961246 1.000000 0.265766
1.000000 1.000000 0.265766
1.000000 1.000000 0.265766
1.000000 1.000000 0.265766
0.000000 1.000000 0.265766
0.100493 1.000000 0.265766
0.265766 1.000000 0.265766
0.469426 1.000000 0.265766
0.702852 1.000000 0.265766
0.961246 1.000000 0.265766
1.000000 1.000000 0.265766
1.000000 1.000000 0.265766
1.000000 1.000000 0.265766
0.000000 1.000000 0.265766
0.100493 1.000000 0.265766
0.265766 1.000000 0.265766
0.469426 1.000000 0.265766
0.702852 1.000000 0.265766
0.961246 1.000000 0.265766
1.000000 1.000000 0.265766
1.000000 1.000000 0.265766
1.000000 1.000000 0.265766
0.000000 0.000000 0.469426
0.100493 0.000000 0.469426
0.265766 0.000000 0.469426
0.469426 0.000000 0.469426
0.702852 0.000000 0.469426
0.961245 0.000000 0.469426
1.000000 0.000000 0.469426
1.000000 0.000000 0.469426
1.000000 0.000000 0.469426
0.000000 0.100493 0.469426
0.000000 0.000000 0.569919
0.255311 0.000000 0.569919
0.569919 0.000000 0.569919
0.803345 0.000000 0.492033
1.000000 0.061739 0.463893
1.000000 0.100493 0.469426
1.000000 0.100493 0.469426
1.000000 0.100493 0.469426
0.000000 0.265767 0.469426
0.000000 0.255311 0.569919
0.197880 0.197880 0.537312
0.537312 0.197880 0.537312
0.848547 0.120071 0.459504
1.000000 0.227012 0.453368
1.000000 0.265766 0.469426
1.000000 0.265766 0.469426
1.000000 0.265766 0.469426
0.000000 0.469426 0.469426
0.000000 0.569919 0.569919
0.197880 0.537312 0.537312
0.469426 0.469426 0.469426
0.780660 0.391617 0.391617
1.000000 0.430671 0.430671
1.000000 0.469426 0.469426
1.000000 0.469426 0.469426
1.000000 0.469426 0.469426
0.000000 0.702852 0.469426
0.000000 0.803345 0.492033
0.120071 0.848547 0.459504
0.391617 0.780660 0.391617
0.780660 0.780660 0.391617
1.000000 0.700884 0.430671
1.000000 0.702852 0.469426
1.000000 0.702852 0.469426
1.000000 0.702852 0.469426
0.000000 0.961245 0.469426
0.061739 1.000000 0.463893
0.227012 1.000000 0.453368
0.430671 1.000000 0.430671
0.700884 1.000000 0.430671
1.000000 1.000000 0.430671
1.000000 0.961246 0.469426
1.000000 0.961246 0.469426
1.000000 0.961246 0.469426
0.000000 1.000000 0.469426
0.100493 1.000000 0.469426
0.265766 1.000000 0.469426
0.469426 1.000000 0.469426
0.702852 1.000000 0.469426
0.961246 1.000000 0.469426
1.000000 1.000000 0.469426
1.000000 1.000000 0.469426
1.000000 1.000000 0.469426
0.000000 1.000000 0.469426
0.100493 1.000000 0.469426
0.265766 1.000000 0.469426
0.469426 1.000000 0.469426
0.702852 1.000000 0.469426
0.961246 1.000000 0.469426
1.000000 1.000000 0.469426
1.000000 1.000000 0.469426
1.000000 1.000000 0.469426
0.000000 1.000000 0.469426
0.100493 1.000000 0.469426
0.265766 1.000000 0.469426
0.469426 1.000000 0.469426
0.702852 1.000000 0.469426
0.961246 1.000000 0.469426
1.000000 1.000000 0.469426
1.000000 1.000000 0.469426
1.000000 1.000000 0.469426
0.000000 0.000000 0.702852
0.100493 0.000000 0.702852
0.265767 0.000000 0.702852
0.469426 0.000000 0.702852
0.702851 0.000000 0.702852
0.961245 0.000000 0.702852
1.000000 0.000000 0.702851
1.000000 0.000000 0.702851
1.000000 0.000000 0.702851
0.000000 0.100493 0.702852
0.000000 0.000000 0.803345
0.220419 0.000000 0.803345
0.492033 0.000000 0.803345
0.803345 0.000000 0.803345
1.000000 0.061739 0.718339
1.000000 0.100493 0.702852
1.000000 0.100493 0.702852
1.000000 0.100493 0.702852
0.000000 0.265767 0.702852
0.000000 0.220419 0.803345
0.120071 0.120071 0.848547
0.459504 0.120071 0.848547
0.848547 0.120071 0.848547
1.000000 0.227012 0.712809
1.000000 0.265766 0.702851
1.000000 0.265766 0.702851
1.000000 0.265766 0.702851
0.000000 0.469426 0.702852
0.000000 0.492033 0.803345
0.120071 0.459504 0.848547
0.391617 0.391617 0.780660
0.780660 0.391617 0.780660
1.000000 0.430671 0.700884
1.000000 0.469426 0.702852
1.000000 0.469426 0.702852
1.000000 0.469426 0.702852
0.000000 0.702852 0.702852
0.000000 0.803345 0.803345
0.120071 0.848547 0.848547
0.391617 0.780660 0.780660
0.702852 0.702852 0.702852
1.000000 0.664097 0.664097
1.000000 0.702852 0.702852
1.000000 0.702852 0.702852
1.000000 0.702852 0.702852
0.000000 0.961245 0.702852
0.061739 1.000000 0.718338
0.227012 1.000000 0.712809
0.430671 1.000000 0.700884
0.664097 1.000000 0.664097
1.000000 1.000000 0.664097
1.000000 0.961245 0.702852
1.000000 0.961245 0.702852
1.000000 0.961245 0.702852
0.000000 1.000000 0.702852
0.100493 1.000000 0.702852
0.265766 1.000000 0.702851
0.469426 1.000000 0.702852
0.702852 1.000000 0.702852
0.961245 1.000000 0.702852
1.000000 1.000000 0.702852
1.000000 1.000000 0.702852
1.000000 1.000000 0.702852
0.000000 1.000000 0.702852
0.100493 1.000000 0.702852
0.265766 1.000000 0.702851
0.469426 1.000000 0.702852
0.702852 1.000000 0.702852
0.961245 1.000000 0.702852
1.000000 1.000000 0.702852
1.000000 1.000000 0.702852
1.000000 1.000000 0.702852
0.000000 1.000000 0.702852
0.100493 1.000000 0.702852
0.265766 1.000000 0.702851
0.469426 1.000000 0.702852
0.702852 1.000000 0.702852
0.961245 1.000000 0.702852
1.000000 1.000000 0.702852
1.000000 1.000000 0.702852
1.000000 1.000000 0.702852
0.000000 0.000000 0.961245
0.100493 0.000000 0.961245
0.265766 0.000000 0.961245
0.469426 0.000000 0.961245
0.702852 0.000000 0.961245
0.961245 0.000000 0.961245
1.000000 0.000000 0.961246
1.000000 0.000000 0.961246
1.000000 0.000000 0.961246
0.000000 0.100493 0.961245
0.061739 0.061739 1.000000
0.241895 0.061739 1.000000
0.463893 0.061739 1.000000
0.718338 0.061739 1.000000
1.000000 0.061739 1.000000
1.000000 0.100493 0.961246
1.000000 0.100493 0.961246
1.000000 0.100493 0.961246
0.000000 0.265766 0.961245
0.061739 0.241895 1.000000
0.227012 0.227012 1.000000
0.453369 0.227012 1.000000
0.712809 0.227012 1.000000
1.000000 0.227012 1.000000
1.000000 0.265766 0.961246
1.000000 0.265766 0.961246
1.000000 0.265766 0.961246
0.000000 0.469426 0.961245
0.061739 0.463893 1.000000
0.227012 0.453368 1.000000
0.430671 0.430671 1.000000
0.700884 0.430671 1.000000
1.000000 0.430671 1.000000
1.000000 0.469426 0.961246
1.000000 0.469426 0.961246
1.000000 0.469426 0.961246
0.000000 0.702852 0.961245
0.061739 0.718338 1.000000
0.227012 0.712809 1.000000
0.430671 0.700884 1.000000
0.664097 0.664097 1.000000
1.000000 0.664097 1.000000
1.000000 0.702852 0.961246
1.000000 0.702852 0.961246
1.000000 0.702852 0.961246
0.000000 0.961246 0.961245
0.061739 1.000000 1.000000
0.227012 1.000000 1.000000
0.430671 1.000000 1.000000
0.664097 1.000000 1.000000
0.961245 0.961245 0.961245
1.000000 0.961246 0.961246
1.000000 0.961246 0.961246
1.000000 0.961246 0.961246
0.000000 1.000000 0.961245
0.100493 1.000000 0.961245
0.265766 1.000000 0.961246
0.469426 1.000000 0.961245
0.702852 1.000000 0.961245
0.961246 1.000000 0.961246
1.000000 1.000000 0.961246
1.000000 1.000000 0.961246
1.000000 1.000000 0.961246
0.000000 1.000000 0.961245
0.100493 1.000000 0.961245
0.265766 1.000000 0.961246
0.469426 1.000000 0.961245
0.702852 1.000000 0.961245
0.961246 1.000000 0.961246
1.000000 1.000000 0.961246
1.000000 1.000000 0.961246
1.000000 1.000000 0.961246
0.000000 1.000000 0.961245
0.100493 1.000000 0.961245
0.265766 1.000000 0.961246
0.469426 1.000000 0.961245
0.702852 1.000000 0.961245
0.961246 1.000000 0.961246
1.000000 1.000000 0.961246
1.000000 1.000000 0.961246
1.000000 1.000000 0.961246
0.000000 0.000000 1.000000
0.100493 0.000000 1.000000
0.265767 0.000000 1.000000
0.469425 0.000000 1.000000
0.702852 0.000000 1.000000
0.961246 0.000000 1.000000
1.000000 0.000000 1.000000
1.000000 0.000000 1.000000
1.000000 0.000000 1.000000
0.000000 0.100493 1.000000
0.100493 0.100493 1.000000
0.265767 0.100493 1.000000
0.469426 0.100493 1.000000
0.702851 0.100493 1.000000
0.961245 0.100493 1.000000
1.000000 0.100493 1.000000
1.000000 0.100493 1.000000
1.000000 0.100493 1.000000
0.000000 0.265767 1.000000
0.100493 0.265766 1.000000
0.265766 0.265766 1.000000
0.469426 0.265766 1.000000
0.702852 0.265766 1.000000
0.961245 0.265766 1.000000
1.000000 0.265766 1.000000
1.000000 0.265766 1.000000
1.000000 0.265766 1.000000
0.000000 0.469426 1.000000
0.100493 0.469426 1.000000
0.265766 0.469426 1.000000
0.469426 0.469426 1.000000
0.702852 0.469426 1.000000
0.961246 0.469426 1.000000
1.000000 0.469426 1.000000
1.000000 0.469426 1.000000
1.000000 0.469426 1.000000
0.000000 0.702852 1.000000
0.100493 0.702852 1.000000
0.265766 0.702852 1.000000
0.469426 0.702852 1.000000
0.702852 0.702852 1.000000
0.961245 0.702852 1.000000
1.000000 0.702852 1.000000
1.000000 0.702852 1.000000
1.000000 0.702852 1.000000
0.000000 0.961245 1.000000
0.100493 0.961246 1.000000
0.265766 0.961246 1.000000
0.469426 0.961246 1.000000
0.702852 0.961245 1.000000
0.961246 0.961246 1.000000
1.000000 0.961246 1.000000
1.000000 0.961246 1.000000
1.000000 0.961246 1.000000
0.000000 1.000000 1.000000
0.100493 1.000000 1.000000
0.265766 1.000000 1.000000
0.469426 1.000000 1.000000
0.702852 1.000000 1.000000
0.961246 1.000000 1.000000
1.000000 1.000000 1.000000
1.000000 1.000000 1.000000
1.000000 1.000000 1.000000
0.000000 1.000000 1.000000
0.100493 1.000000 1.000000
0.265766 1.000000 1.000000
0.469426 1.000000 1.000000
0.702852 1.000000 1.000000
0.961246 1.000000 1.000000
1.000000 1.000000 1.000000
1.000000 1.000000 1.000000
1.000000 1.000000 1.000000
0.000000 1.000000 1.000000
0.100493 1.000000 1.000000
0.265766 1.000000 1.000000
0.469426 1.000000 1.000000
0.702852 1.000000 1.000000
0.961246 1.000000 1.000000
1.000000 1.000000 1.000000
1.000000 1.000000 1.000000
1.000000 1.000000 1.000000
0.000000 0.000000 1.000000
0.100493 0.000000 1.000000
0.265767 0.000000 1.000000
0.469425 0.000000 1.000000
0.702852 0.000000 1.000000
0.961246 0.000000 1.000000
1.000000 0.000000 1.000000
1.000000 0.000000 1.000000
1.000000 0.000000 1.000000
0.000000 0.100493 1.000000
0.100493 0.100493 1.000000
0.265767 0.100493 1.000000
0.469426 0.100493 1.000000
0.702851 0.100493 1.000000
0.961245 0.100493 1.000000
1.000000 0.100493 1.000000
1.000000 0.100493 1.000000
1.000000 0.100493 1.000000
0.000000 0.265767 1.000000
0.100493 0.265766 1.000000
0.265766 0.265766 1.000000
0.469426 0.265766 1.000000
0.702852 0.265766 1.000000
0.961245 0.265766 1.000000
1.000000 0.265766 1.000000
1.000000 0.265766 1.000000
1.000000 0.265766 1.000000
0.000000 0.469426 1.000000
0.100493 0.469426 1.000000
0.265766 0.469426 1.000000
0.469426 0.469426 1.000000
0.702852 0.469426 1.000000
0.961246 0.469426 1.000000
1.000000 0.469426 1.000000
1.000000 0.469426 1.000000
1.000000 0.469426 1.000000
0.000000 0.702852 1.000000
0.100493 0.702852 1.000000
0.265766 0.702852 1.000000
0.469426 0.702852 1.000000
0.702852 0.702852 1.000000
0.961245 0.702852 1.000000
1.000000 0.702852 1.000000
1.000000 0.702852 1.000000
1.000000 0.702852 1.000000
0.000000 0.961245 1.000000
0.100493 0.961246 1.000000
0.265766 0.961246 1.000000
0.469426 0.961246 1.000000
0.702852 0.961245 1.000000
0.961246 0.961246 1.000000
1.000000 0.961246 1.000000
1.000000 0.961246 1.000000
1.000000 0.961246 1.000000
0.000000 1.000000 1.000000
0.100493 1.000000 1.000000
0.265766 1.000000 1.000000
0.469426 1.000000 1.000000
0.702852 1.000000 1.000000
0.961246 1.000000 1.000000
1.000000 1.000000 1.000000
1.000000 1.000000 1.000000
1.000000 1.000000 1.000000
0.000000 1.000000 1.000000
0.100493 1.000000 1.000000
0.265766 1.000000 1.000000
0.469426 1.000000 1.000000
0.702852 1.000000 1.000000
0.961246 1.000000 1.000000
1.000000 1.000000 1.000000
1.000000 1.000000 1.000000
1.000000 1.000000 1.000000
0.000000 1.000000 1.000000
0.100493 1.000000 1.000000
0.265766 1.000000 1.000000
0.469426 1.000000 1.000000
0.702852 1.000000 1.000000
0.961246 1.000000 1.000000
1.000000 1.000000 1.000000
1.000000 1.000000 1.000000
1.000000 1.000000 1.000000
0.000000 0.000000 1.000000
0.100493 0.000000 1.000000
0.265767 0.000000 1.000000
0.469425 0.000000 1.000000
0.702852 0.000000 1.000000
0.961246 0.000000 1.000000
1.000000 0.000000 1.000000
1.000000 0.000000 1.000000
1.000000 0.000000 1.000000
0.000000 0.100493 1.000000
0.100493 0.100493 1.000000
0.265767 0.100493 1.000000
0.469426 0.100493 1.000000
0.702851 0.100493 1.000000
0.961245 0.100493 1.000000
1.000000 0.100493 1.000000
1.000000 0.100493 1.000000
1.000000 0.100493 1.000000
0.000000 0.265767 1.000000
0.100493 0.265766 1.000000
0.265766 0.265766 1.000000
0.469426 0.265766 1.000000
0.702852 0.265766 1.000000
0.961245 0.265766 1.000000
1.000000 0.265766 1.000000
1.000000 0.265766 1.000000
1.000000 0.265766 1.000000
0.000000 0.469426 1.000000
0.100493 0.469426 1.000000
0.265766 0.469426 1.000000
0.469426 0.469426 1.000000
0.702852 0.469426 1.000000
0.961246 0.469426 1.000000
1.000000 0.469426 1.000000
1.000000 0.469426 1.000000
1.000000 0.469426 1.000000
0.000000 0.702852 1.000000
0.100493 0.702852 1.000000
0.265766 0.702852 1.000000
0.469426 0.702852 1.000000
0.702852 0.702852 1.000000
0.961245 0.702852 1.000000
1.000000 0.702852 1.000000
1.000000 0.702852 1.000000
1.000000 0.702852 1.000000
0.000000 0.961245 1.000000
0.100493 0.961246 1.000000
0.265766 0.961246 1.000000
0.469426 0.961246 1.000000
0.702852 0.961245 1.000000
0.961246 0.961246 1.000000
1.000000 0.961246 1.000000
1.000000 0.961246 1.000000
1.000000 0.961246 1.000000
0.000000 1.000000 1.000000
0.100493 1.000000 1.000000
0.265766 1.000000 1.000000
0.469426 1.000000 1.000000
0.702852 1.000000 1.000000
0.961246 1.000000 1.000000
1.000000 1.000000 1.000000
1.000000 1.000000 1.000000
1.000000 1.000000 1.000000
0.000000 1.000000 1.000000
0.100493 1.000000 1.000000
0.265766 1.000000 1.000000
0.469426 1.000000 1.000000
0.702852 1.000000 1.000000
0.961246 1.000000 1.000000
1.000000 1.000000 1.000000
1.000000 1.000000 1.000000
1.000000 1.000000 1.000000
0.000000 1.000000 1.000000
0.100493 1.000000 1.000000
0.265766 1.000000 1.000000
0.469426 1.000000 1.000000
0.702852 1.000000 1.000000
0.961246 1.000000 1.000000
1.000000 1.000000 1.000000
1.000000 1.000000 1.000000
1.000000 1.000000 1.000000
