HDR2SDR_03_BF.cube
#Created by: Affinity Photo (Serif Europe Ltd.)
TITLE "HDR2SDR_03_BF"
#LUT size
LUT_3D_SIZE 33
#data domain
DOMAIN_MIN 0.0 0.0 0.0
DOMAIN_MAX 1.0 1.0 1.0
#LUT data points
0.000000 0.000000 0.000000
0.014368 0.000000 0.000000
0.037999 0.000000 0.000000
0.067118 0.000000 0.000000
0.100493 0.000000 0.000000
0.137438 0.000000 0.000000
0.177502 0.000000 0.000000
0.220361 0.000000 0.000000
0.265766 0.000000 0.000000
0.313524 0.000000 0.000000
0.363472 0.000000 0.000000
0.415477 0.000000 0.000000
0.469426 0.000000 0.000000
0.525219 0.000000 0.000000
0.582770 0.000000 0.000000
0.642004 0.000000 0.000000
0.702852 0.000000 0.000000
0.765252 0.000000 0.000000
0.829151 0.000000 0.000000
0.894498 0.000000 0.000000
0.961245 0.000000 0.000000
1.000000 0.000000 0.000000
1.000000 0.000000 0.000000
1.000000 0.000000 0.000000
1.000000 0.000000 0.000000
1.000000 0.000000 0.000000
1.000000 0.000000 0.000000
1.000000 0.000000 0.000000
1.000000 0.000000 0.000000
1.000000 0.000000 0.000000
1.000000 0.000000 0.000000
1.000000 0.000000 0.000000
1.000000 0.000000 0.000000
0.000000 0.014368 0.000000
0.014368 0.014368 0.000000
0.037999 0.014368 0.000000
0.067118 0.014368 0.000000
0.100493 0.014368 0.000000
0.137438 0.014368 0.000000
0.177502 0.014368 0.000000
0.220361 0.014368 0.000000
0.265766 0.014368 0.000000
0.313524 0.014368 0.000000
0.363472 0.014368 0.000000
0.415477 0.014368 0.000000
0.469426 0.014368 0.000000
0.525219 0.014368 0.000000
0.582770 0.014368 0.000000
0.642004 0.014368 0.000000
0.702852 0.014368 0.000000
0.765252 0.014368 0.000000
0.829151 0.014368 0.000000
0.894498 0.014368 0.000000
0.961245 0.014368 0.000000
1.000000 0.014368 0.000000
1.000000 0.014368 0.000000
1.000000 0.014368 0.000000
1.000000 0.014368 0.000000
1.000000 0.014368 0.000000
1.000000 0.014368 0.000000
1.000000 0.014368 0.000000
1.000000 0.014368 0.000000
1.000000 0.014368 0.000000
1.000000 0.014368 0.000000
1.000000 0.014368 0.000000
1.000000 0.014368 0.000000
0.000000 0.037999 0.000000
0.014368 0.037999 0.000000
0.037999 0.037999 0.000000
0.067118 0.037999 0.000000
0.100493 0.037999 0.000000
0.137438 0.037999 0.000000
0.177502 0.037999 0.000000
0.220361 0.037999 0.000000
0.265766 0.037999 0.000000
0.313524 0.037999 0.000000
0.363472 0.037999 0.000000
0.415477 0.037999 0.000000
0.469426 0.037999 0.000000
0.525219 0.037999 0.000000
0.582770 0.037999 0.000000
0.642004 0.037999 0.000000
0.702852 0.037999 0.000000
0.765252 0.037999 0.000000
0.829151 0.037999 0.000000
0.894498 0.037999 0.000000
0.961245 0.037999 0.000000
1.000000 0.037999 0.000000
1.000000 0.037999 0.000000
1.000000 0.037999 0.000000
1.000000 0.037999 0.000000
1.000000 0.037999 0.000000
1.000000 0.037999 0.000000
1.000000 0.037999 0.000000
1.000000 0.037999 0.000000
1.000000 0.037999 0.000000
1.000000 0.037999 0.000000
1.000000 0.037999 0.000000
1.000000 0.037999 0.000000
0.000000 0.067118 0.000000
0.014368 0.067118 0.000000
0.037999 0.067118 0.000000
0.067118 0.067118 0.000000
0.100493 0.067118 0.000000
0.137438 0.067118 0.000000
0.177502 0.067118 0.000000
0.220361 0.067118 0.000000
0.265766 0.067118 0.000000
0.313524 0.067118 0.000000
0.363472 0.067118 0.000000
0.415477 0.067118 0.000000
0.469426 0.067118 0.000000
0.525219 0.067118 0.000000
0.582770 0.067118 0.000000
0.642004 0.067118 0.000000
0.702852 0.067118 0.000000
0.765252 0.067118 0.000000
0.829151 0.067118 0.000000
0.894498 0.067118 0.000000
0.961245 0.067118 0.000000
1.000000 0.067118 0.000000
1.000000 0.067118 0.000000
1.000000 0.067118 0.000000
1.000000 0.067118 0.000000
1.000000 0.067118 0.000000
1.000000 0.067118 0.000000
1.000000 0.067118 0.000000
1.000000 0.067118 0.000000
1.000000 0.067118 0.000000
1.000000 0.067118 0.000000
1.000000 0.067118 0.000000
1.000000 0.067118 0.000000
0.000000 0.100493 0.000000
0.014368 0.100493 0.000000
0.037999 0.100493 0.000000
0.067118 0.100493 0.000000
0.100493 0.100493 0.000000
0.137438 0.100493 0.000000
0.177502 0.100493 0.000000
0.220361 0.100493 0.000000
0.265766 0.100493 0.000000
0.313524 0.100493 0.000000
0.363472 0.100493 0.000000
0.415477 0.100493 0.000000
0.469426 0.100493 0.000000
0.525219 0.100493 0.000000
0.582770 0.100493 0.000000
0.642004 0.100493 0.000000
0.702852 0.100493 0.000000
0.765252 0.100493 0.000000
0.829151 0.100493 0.000000
0.894498 0.100493 0.000000
0.961245 0.100493 0.000000
1.000000 0.100493 0.000000
1.000000 0.100493 0.000000
1.000000 0.100493 0.000000
1.000000 0.100493 0.000000
1.000000 0.100493 0.000000
1.000000 0.100493 0.000000
1.000000 0.100493 0.000000
1.000000 0.100493 0.000000
1.000000 0.100493 0.000000
1.000000 0.100493 0.000000
1.000000 0.100493 0.000000
1.000000 0.100493 0.000000
0.000000 0.137438 0.000000
0.014368 0.137438 0.000000
0.037999 0.137438 0.000000
0.067118 0.137438 0.000000
0.100493 0.137438 0.000000
0.137438 0.137438 0.000000
0.177502 0.137438 0.000000
0.220361 0.137438 0.000000
0.265766 0.137438 0.000000
0.313524 0.137438 0.000000
0.363472 0.137438 0.000000
0.415477 0.137438 0.000000
0.469426 0.137438 0.000000
0.525219 0.137438 0.000000
0.582770 0.137438 0.000000
0.642004 0.137438 0.000000
0.702852 0.137438 0.000000
0.765252 0.137438 0.000000
0.829151 0.137438 0.000000
0.894498 0.137438 0.000000
0.961245 0.137438 0.000000
1.000000 0.137438 0.000000
1.000000 0.137438 0.000000
1.000000 0.137438 0.000000
1.000000 0.137438 0.000000
1.000000 0.137438 0.000000
1.000000 0.137438 0.000000
1.000000 0.137438 0.000000
1.000000 0.137438 0.000000
1.000000 0.137438 0.000000
1.000000 0.137438 0.000000
1.000000 0.137438 0.000000
1.000000 0.137438 0.000000
0.000000 0.177502 0.000000
0.014368 0.177502 0.000000
0.037999 0.177502 0.000000
0.067118 0.177502 0.000000
0.100493 0.177502 0.000000
0.137438 0.177502 0.000000
0.177502 0.177502 0.000000
0.220361 0.177502 0.000000
0.265766 0.177502 0.000000
0.313524 0.177502 0.000000
0.363472 0.177502 0.000000
0.415477 0.177502 0.000000
0.469426 0.177502 0.000000
0.525219 0.177502 0.000000
0.582770 0.177502 0.000000
0.642004 0.177502 0.000000
0.702852 0.177502 0.000000
0.765252 0.177502 0.000000
0.829151 0.177502 0.000000
0.894498 0.177502 0.000000
0.961245 0.177502 0.000000
1.000000 0.177502 0.000000
1.000000 0.177502 0.000000
1.000000 0.177502 0.000000
1.000000 0.177502 0.000000
1.000000 0.177502 0.000000
1.000000 0.177502 0.000000
1.000000 0.177502 0.000000
1.000000 0.177502 0.000000
1.000000 0.177502 0.000000
1.000000 0.177502 0.000000
1.000000 0.177502 0.000000
1.000000 0.177502 0.000000
0.000000 0.220361 0.000000
0.014369 0.220361 0.000000
0.037999 0.220361 0.000000
0.067118 0.220361 0.000000
0.100493 0.220361 0.000000
0.137438 0.220361 0.000000
0.177502 0.220361 0.000000
0.220361 0.220361 0.000000
0.265766 0.220361 0.000000
0.313524 0.220361 0.000000
0.363472 0.220361 0.000000
0.415477 0.220361 0.000000
0.469426 0.220361 0.000000
0.525219 0.220361 0.000000
0.582770 0.220361 0.000000
0.642004 0.220361 0.000000
0.702852 0.220361 0.000000
0.765252 0.220361 0.000000
0.829151 0.220361 0.000000
0.894498 0.220361 0.000000
0.961245 0.220361 0.000000
1.000000 0.220361 0.000000
1.000000 0.220361 0.000000
1.000000 0.220361 0.000000
1.000000 0.220361 0.000000
1.000000 0.220361 0.000000
1.000000 0.220361 0.000000
1.000000 0.220361 0.000000
1.000000 0.220361 0.000000
1.000000 0.220361 0.000000
1.000000 0.220361 0.000000
1.000000 0.220361 0.000000
1.000000 0.220361 0.000000
0.000000 0.265766 0.000000
0.014369 0.265766 0.000000
0.037999 0.265766 0.000000
0.067118 0.265766 0.000000
0.100493 0.265766 0.000000
0.137438 0.265766 0.000000
0.177502 0.265766 0.000000
0.220361 0.265766 0.000000
0.265766 0.265766 0.000000
0.313524 0.265766 0.000000
0.363472 0.265766 0.000000
0.415477 0.265766 0.000000
0.469426 0.265766 0.000000
0.525219 0.265766 0.000000
0.582770 0.265766 0.000000
0.642004 0.265766 0.000000
0.702852 0.265766 0.000000
0.765252 0.265766 0.000000
0.829151 0.265766 0.000000
0.894498 0.265766 0.000000
0.961245 0.265766 0.000000
1.000000 0.265766 0.000000
1.000000 0.265766 0.000000
1.000000 0.265766 0.000000
1.000000 0.265766 0.000000
1.000000 0.265766 0.000000
1.000000 0.265766 0.000000
1.000000 0.265766 0.000000
1.000000 0.265766 0.000000
1.000000 0.265766 0.000000
1.000000 0.265766 0.000000
1.000000 0.265766 0.000000
1.000000 0.265766 0.000000
0.000000 0.313524 0.000000
0.014368 0.313524 0.000000
0.037999 0.313524 0.000000
0.067118 0.313524 0.000000
0.100493 0.313524 0.000000
0.137438 0.313524 0.000000
0.177502 0.313524 0.000000
0.220361 0.313524 0.000000
0.265766 0.313524 0.000000
0.313524 0.313524 0.000000
0.363472 0.313524 0.000000
0.415477 0.313524 0.000000
0.469426 0.313524 0.000000
0.525219 0.313524 0.000000
0.582770 0.313524 0.000000
0.642004 0.313524 0.000000
0.702852 0.313524 0.000000
0.765252 0.313524 0.000000
0.829151 0.313524 0.000000
0.894498 0.313524 0.000000
0.961245 0.313524 0.000000
1.000000 0.313524 0.000000
1.000000 0.313524 0.000000
1.000000 0.313524 0.000000
1.000000 0.313524 0.000000
1.000000 0.313524 0.000000
1.000000 0.313524 0.000000
1.000000 0.313524 0.000000
1.000000 0.313524 0.000000
1.000000 0.313524 0.000000
1.000000 0.313524 0.000000
1.000000 0.313524 0.000000
1.000000 0.313524 0.000000
0.000000 0.363472 0.000000
0.014368 0.363472 0.000000
0.037999 0.363472 0.000000
0.067118 0.363472 0.000000
0.100493 0.363472 0.000000
0.137438 0.363472 0.000000
0.177502 0.363472 0.000000
0.220361 0.363472 0.000000
0.265767 0.363472 0.000000
0.313524 0.363472 0.000000
0.363472 0.363472 0.000000
0.415477 0.363472 0.000000
0.469426 0.363472 0.000000
0.525219 0.363472 0.000000
0.582770 0.363472 0.000000
0.642004 0.363472 0.000000
0.702852 0.363472 0.000000
0.765252 0.363472 0.000000
0.829151 0.363472 0.000000
0.894498 0.363472 0.000000
0.961245 0.363472 0.000000
1.000000 0.363472 0.000000
1.000000 0.363472 0.000000
1.000000 0.363472 0.000000
1.000000 0.363472 0.000000
1.000000 0.363472 0.000000
1.000000 0.363472 0.000000
1.000000 0.363472 0.000000
1.000000 0.363472 0.000000
1.000000 0.363472 0.000000
1.000000 0.363472 0.000000
1.000000 0.363472 0.000000
1.000000 0.363472 0.000000
0.000000 0.415477 0.000000
0.014368 0.415477 0.000000
0.037999 0.415477 0.000000
0.067118 0.415477 0.000000
0.100493 0.415477 0.000000
0.137438 0.415477 0.000000
0.177502 0.415477 0.000000
0.220361 0.415477 0.000000
0.265766 0.415477 0.000000
0.313524 0.415477 0.000000
0.363472 0.415477 0.000000
0.415477 0.415477 0.000000
0.469426 0.415477 0.000000
0.525219 0.415477 0.000000
0.582770 0.415477 0.000000
0.642004 0.415477 0.000000
0.702852 0.415477 0.000000
0.765252 0.415477 0.000000
0.829151 0.415477 0.000000
0.894498 0.415477 0.000000
0.961245 0.415477 0.000000
1.000000 0.415477 0.000000
1.000000 0.415477 0.000000
1.000000 0.415477 0.000000
1.000000 0.415477 0.000000
1.000000 0.415477 0.000000
1.000000 0.415477 0.000000
1.000000 0.415477 0.000000
1.000000 0.415477 0.000000
1.000000 0.415477 0.000000
1.000000 0.415477 0.000000
1.000000 0.415477 0.000000
1.000000 0.415477 0.000000
0.000000 0.469426 0.000000
0.014368 0.469426 0.000000
0.037999 0.469426 0.000000
0.067118 0.469426 0.000000
0.100493 0.469426 0.000000
0.137438 0.469426 0.000000
0.177502 0.469426 0.000000
0.220361 0.469426 0.000000
0.265767 0.469426 0.000000
0.313524 0.469426 0.000000
0.363472 0.469426 0.000000
0.415477 0.469426 0.000000
0.469426 0.469426 0.000000
0.525219 0.469426 0.000000
0.582770 0.469426 0.000000
0.642004 0.469426 0.000000
0.702852 0.469426 0.000000
0.765252 0.469426 0.000000
0.829151 0.469426 0.000000
0.894498 0.469426 0.000000
0.961245 0.469426 0.000000
1.000000 0.469426 0.000000
1.000000 0.469426 0.000000
1.000000 0.469426 0.000000
1.000000 0.469426 0.000000
1.000000 0.469426 0.000000
1.000000 0.469426 0.000000
1.000000 0.469426 0.000000
1.000000 0.469426 0.000000
1.000000 0.469426 0.000000
1.000000 0.469426 0.000000
1.000000 0.469426 0.000000
1.000000 0.469426 0.000000
0.000000 0.525219 0.000000
0.014368 0.525219 0.000000
0.037999 0.525219 0.000000
0.067118 0.525219 0.000000
0.100493 0.525219 0.000000
0.137438 0.525219 0.000000
0.177502 0.525219 0.000000
0.220360 0.525219 0.000000
0.265766 0.525219 0.000000
0.313524 0.525219 0.000000
0.363472 0.525219 0.000000
0.415477 0.525219 0.000000
0.469426 0.525219 0.000000
0.525219 0.525219 0.000000
0.582770 0.525219 0.000000
0.642004 0.525219 0.000000
0.702852 0.525219 0.000000
0.765252 0.525219 0.000000
0.829151 0.525219 0.000000
0.894498 0.525219 0.000000
0.961245 0.525219 0.000000
1.000000 0.525219 0.000000
1.000000 0.525219 0.000000
1.000000 0.525219 0.000000
1.000000 0.525219 0.000000
1.000000 0.525219 0.000000
1.000000 0.525219 0.000000
1.000000 0.525219 0.000000
1.000000 0.525219 0.000000
1.000000 0.525219 0.000000
1.000000 0.525219 0.000000
1.000000 0.525219 0.000000
1.000000 0.525219 0.000000
0.000000 0.582770 0.000000
0.014368 0.582770 0.000000
0.037999 0.582770 0.000000
0.067118 0.582770 0.000000
0.100493 0.582770 0.000000
0.137438 0.582770 0.000000
0.177502 0.582770 0.000000
0.220361 0.582770 0.000000
0.265767 0.582770 0.000000
0.313524 0.582770 0.000000
0.363472 0.582770 0.000000
0.415477 0.582770 0.000000
0.469426 0.582770 0.000000
0.525219 0.582770 0.000000
0.582770 0.582770 0.000000
0.642004 0.582770 0.000000
0.702852 0.582770 0.000000
0.765252 0.582770 0.000000
0.829151 0.582770 0.000000
0.894498 0.582770 0.000000
0.961245 0.582770 0.000000
1.000000 0.582770 0.000000
1.000000 0.582770 0.000000
1.000000 0.582770 0.000000
1.000000 0.582770 0.000000
1.000000 0.582770 0.000000
1.000000 0.582770 0.000000
1.000000 0.582770 0.000000
1.000000 0.582770 0.000000
1.000000 0.582770 0.000000
1.000000 0.582770 0.000000
1.000000 0.582770 0.000000
1.000000 0.582770 0.000000
0.000000 0.642004 0.000000
0.014369 0.642004 0.000000
0.037999 0.642004 0.000000
0.067118 0.642004 0.000000
0.100493 0.642004 0.000000
0.137438 0.642004 0.000000
0.177502 0.642004 0.000000
0.220361 0.642004 0.000000
0.265766 0.642004 0.000000
0.313524 0.642004 0.000000
0.363472 0.642004 0.000000
0.415477 0.642004 0.000000
0.469426 0.642004 0.000000
0.525219 0.642004 0.000000
0.582771 0.642004 0.000000
0.642004 0.642004 0.000000
0.702852 0.642004 0.000000
0.765252 0.642004 0.000000
0.829151 0.642004 0.000000
0.894498 0.642004 0.000000
0.961245 0.642004 0.000000
1.000000 0.642004 0.000000
1.000000 0.642004 0.000000
1.000000 0.642004 0.000000
1.000000 0.642004 0.000000
1.000000 0.642004 0.000000
1.000000 0.642004 0.000000
1.000000 0.642004 0.000000
1.000000 0.642004 0.000000
1.000000 0.642004 0.000000
1.000000 0.642004 0.000000
1.000000 0.642004 0.000000
1.000000 0.642004 0.000000
0.000000 0.702852 0.000000
0.014368 0.702852 0.000000
0.037999 0.702852 0.000000
0.067118 0.702852 0.000000
0.100493 0.702852 0.000000
0.137438 0.702852 0.000000
0.177502 0.702852 0.000000
0.220360 0.702852 0.000000
0.265767 0.702852 0.000000
0.313524 0.702852 0.000000
0.363472 0.702852 0.000000
0.415477 0.702852 0.000000
0.469426 0.702852 0.000000
0.525219 0.702852 0.000000
0.582770 0.702852 0.000000
0.642004 0.702852 0.000000
0.702852 0.702852 0.000000
0.765252 0.702852 0.000000
0.829151 0.702852 0.000000
0.894498 0.702852 0.000000
0.961245 0.702852 0.000000
1.000000 0.702852 0.000000
1.000000 0.702852 0.000000
1.000000 0.702852 0.000000
1.000000 0.702852 0.000000
1.000000 0.702852 0.000000
1.000000 0.702852 0.000000
1.000000 0.702852 0.000000
1.000000 0.702852 0.000000
1.000000 0.702852 0.000000
1.000000 0.702852 0.000000
1.000000 0.702852 0.000000
1.000000 0.702852 0.000000
0.000000 0.765252 0.000000
0.014369 0.765252 0.000000
0.037999 0.765252 0.000000
0.067118 0.765252 0.000000
0.100493 0.765252 0.000000
0.137438 0.765252 0.000000
0.177502 0.765252 0.000000
0.220361 0.765252 0.000000
0.265767 0.765252 0.000000
0.313524 0.765252 0.000000
0.363472 0.765252 0.000000
0.415477 0.765252 0.000000
0.469426 0.765252 0.000000
0.525219 0.765252 0.000000
0.582770 0.765252 0.000000
0.642004 0.765252 0.000000
0.702852 0.765252 0.000000
0.765253 0.765252 0.000000
0.829151 0.765253 0.000000
0.894498 0.765252 0.000000
0.961245 0.765252 0.000000
1.000000 0.765252 0.000000
1.000000 0.765252 0.000000
1.000000 0.765252 0.000000
1.000000 0.765252 0.000000
1.000000 0.765252 0.000000
1.000000 0.765252 0.000000
1.000000 0.765252 0.000000
1.000000 0.765252 0.000000
1.000000 0.765252 0.000000
1.000000 0.765252 0.000000
1.000000 0.765252 0.000000
1.000000 0.765252 0.000000
0.000000 0.829151 0.000000
0.014369 0.829151 0.000000
0.037999 0.829151 0.000000
0.067118 0.829151 0.000000
0.100493 0.829151 0.000000
0.137438 0.829151 0.000000
0.177502 0.829151 0.000000
0.220361 0.829151 0.000000
0.265766 0.829151 0.000000
0.313524 0.829151 0.000000
0.363472 0.829151 0.000000
0.415477 0.829151 0.000000
0.469426 0.829151 0.000000
0.525219 0.829151 0.000000
0.582770 0.829151 0.000000
0.642004 0.829151 0.000000
0.702852 0.829151 0.000000
0.765253 0.829151 0.000000
0.829151 0.829151 0.000000
0.894498 0.829151 0.000000
0.961245 0.829151 0.000000
1.000000 0.829151 0.000000
1.000000 0.829151 0.000000
1.000000 0.829151 0.000000
1.000000 0.829151 0.000000
1.000000 0.829151 0.000000
1.000000 0.829151 0.000000
1.000000 0.829151 0.000000
1.000000 0.829151 0.000000
1.000000 0.829151 0.000000
1.000000 0.829151 0.000000
1.000000 0.829151 0.000000
1.000000 0.829151 0.000000
0.000000 0.894498 0.000000
0.014368 0.894498 0.000000
0.037999 0.894498 0.000000
0.067118 0.894498 0.000000
0.100493 0.894498 0.000000
0.137438 0.894498 0.000000
0.177502 0.894498 0.000000
0.220361 0.894498 0.000000
0.265766 0.894498 0.000000
0.313524 0.894498 0.000000
0.363472 0.894498 0.000000
0.415477 0.894498 0.000000
0.469426 0.894498 0.000000
0.525219 0.894498 0.000000
0.582770 0.894498 0.000000
0.642004 0.894498 0.000000
0.702852 0.894498 0.000000
0.765252 0.894498 0.000000
0.829151 0.894498 0.000000
0.894498 0.894498 0.000000
0.961245 0.894498 0.000000
1.000000 0.894498 0.000000
1.000000 0.894498 0.000000
1.000000 0.894498 0.000000
1.000000 0.894498 0.000000
1.000000 0.894498 0.000000
1.000000 0.894498 0.000000
1.000000 0.894498 0.000000
1.000000 0.894498 0.000000
1.000000 0.894498 0.000000
1.000000 0.894498 0.000000
1.000000 0.894498 0.000000
1.000000 0.894498 0.000000
0.000000 0.961245 0.000000
0.014368 0.961245 0.000000
0.037999 0.961245 0.000000
0.067118 0.961245 0.000000
0.100493 0.961245 0.000000
0.137438 0.961245 0.000000
0.177502 0.961245 0.000000
0.220361 0.961245 0.000000
0.265766 0.961245 0.000000
0.313524 0.961245 0.000000
0.363472 0.961245 0.000000
0.415477 0.961245 0.000000
0.469426 0.961245 0.000000
0.525219 0.961245 0.000000
0.582770 0.961245 0.000000
0.642004 0.961245 0.000000
0.702852 0.961245 0.000000
0.765253 0.961245 0.000000
0.829151 0.961245 0.000000
0.894497 0.961245 0.000000
0.961246 0.961245 0.000000
1.000000 0.961246 0.000000
1.000000 0.961246 0.000000
1.000000 0.961246 0.000000
1.000000 0.961246 0.000000
1.000000 0.961246 0.000000
1.000000 0.961246 0.000000
1.000000 0.961246 0.000000
1.000000 0.961246 0.000000
1.000000 0.961246 0.000000
1.000000 0.961246 0.000000
1.000000 0.961246 0.000000
1.000000 0.961246 0.000000
0.000000 1.000000 0.000000
0.014368 1.000000 0.000000
0.037999 1.000000 0.000000
0.067119 1.000000 0.000000
0.100493 1.000000 0.000000
0.137438 1.000000 0.000000
0.177502 1.000000 0.000000
0.220361 1.000000 0.000000
0.265767 1.000000 0.000000
0.313523 1.000000 0.000000
0.363472 1.000000 0.000000
0.415477 1.000000 0.000000
0.469426 1.000000 0.000000
0.525219 1.000000 0.000000
0.582770 1.000000 0.000000
0.642004 1.000000 0.000000
0.702851 1.000000 0.000000
0.765252 1.000000 0.000000
0.829151 1.000000 0.000000
0.894498 1.000000 0.000000
0.961245 1.000000 0.000000
1.000000 1.000000 0.000000
1.000000 1.000000 0.000000
1.000000 1.000000 0.000000
1.000000 1.000000 0.000000
1.000000 1.000000 0.000000
1.000000 1.000000 0.000000
1.000000 1.000000 0.000000
1.000000 1.000000 0.000000
1.000000 1.000000 0.000000
1.000000 1.000000 0.000000
1.000000 1.000000 0.000000
1.000000 1.000000 0.000000
0.000000 1.000000 0.000000
0.014368 1.000000 0.000000
0.037999 1.000000 0.000000
0.067119 1.000000 0.000000
0.100493 1.000000 0.000000
0.137438 1.000000 0.000000
0.177502 1.000000 0.000000
0.220361 1.000000 0.000000
0.265767 1.000000 0.000000
0.313523 1.000000 0.000000
0.363472 1.000000 0.000000
0.415477 1.000000 0.000000
0.469426 1.000000 0.000000
0.525219 1.000000 0.000000
0.582770 1.000000 0.000000
0.642004 1.000000 0.000000
0.702851 1.000000 0.000000
0.765252 1.000000 0.000000
0.829151 1.000000 0.000000
0.894498 1.000000 0.000000
0.961245 1.000000 0.000000
1.000000 1.000000 0.000000
1.000000 1.000000 0.000000
1.000000 1.000000 0.000000
1.000000 1.000000 0.000000
1.000000 1.000000 0.000000
1.000000 1.000000 0.000000
1.000000 1.000000 0.000000
1.000000 1.000000 0.000000
1.000000 1.000000 0.000000
1.000000 1.000000 0.000000
1.000000 1.000000 0.000000
1.000000 1.000000 0.000000
0.000000 1.000000 0.000000
0.014368 1.000000 0.000000
0.037999 1.000000 0.000000
0.067119 1.000000 0.000000
0.100493 1.000000 0.000000
0.137438 1.000000 0.000000
0.177502 1.000000 0.000000
0.220361 1.000000 0.000000
0.265767 1.000000 0.000000
0.313523 1.000000 0.000000
0.363472 1.000000 0.000000
0.415477 1.000000 0.000000
0.469426 1.000000 0.000000
0.525219 1.000000 0.000000
0.582770 1.000000 0.000000
0.642004 1.000000 0.000000
0.702851 1.000000 0.000000
0.765252 1.000000 0.000000
0.829151 1.000000 0.000000
0.894498 1.000000 0.000000
0.961245 1.000000 0.000000
1.000000 1.000000 0.000000
1.000000 1.000000 0.000000
1.000000 1.000000 0.000000
1.000000 1.000000 0.000000
1.000000 1.000000 0.000000
1.000000 1.000000 0.000000
1.000000 1.000000 0.000000
1.000000 1.000000 0.000000
1.000000 1.000000 0.000000
1.000000 1.000000 0.000000
1.000000 1.000000 0.000000
1.000000 1.000000 0.000000
0.000000 1.000000 0.000000
0.014368 1.000000 0.000000
0.037999 1.000000 0.000000
0.067119 1.000000 0.000000
0.100493 1.000000 0.000000
0.137438 1.000000 0.000000
0.177502 1.000000 0.000000
0.220361 1.000000 0.000000
0.265767 1.000000 0.000000
0.313523 1.000000 0.000000
0.363472 1.000000 0.000000
0.415477 1.000000 0.000000
0.469426 1.000000 0.000000
0.525219 1.000000 0.000000
0.582770 1.000000 0.000000
0.642004 1.000000 0.000000
0.702851 1.000000 0.000000
0.765252 1.000000 0.000000
0.829151 1.000000 0.000000
0.894498 1.000000 0.000000
0.961245 1.000000 0.000000
1.000000 1.000000 0.000000
1.000000 1.000000 0.000000
1.000000 1.000000 0.000000
1.000000 1.000000 0.000000
1.000000 1.000000 0.000000
1.000000 1.000000 0.000000
1.000000 1.000000 0.000000
1.000000 1.000000 0.000000
1.000000 1.000000 0.000000
1.000000 1.000000 0.000000
1.000000 1.000000 0.000000
1.000000 1.000000 0.000000
0.000000 1.000000 0.000000
0.014368 1.000000 0.000000
0.037999 1.000000 0.000000
0.067119 1.000000 0.000000
0.100493 1.000000 0.000000
0.137438 1.000000 0.000000
0.177502 1.000000 0.000000
0.220361 1.000000 0.000000
0.265767 1.000000 0.000000
0.313523 1.000000 0.000000
0.363472 1.000000 0.000000
0.415477 1.000000 0.000000
0.469426 1.000000 0.000000
0.525219 1.000000 0.000000
0.582770 1.000000 0.000000
0.642004 1.000000 0.000000
0.702851 1.000000 0.000000
0.765252 1.000000 0.000000
0.829151 1.000000 0.000000
0.894498 1.000000 0.000000
0.961245 1.000000 0.000000
1.000000 1.000000 0.000000
1.000000 1.000000 0.000000
1.000000 1.000000 0.000000
1.000000 1.000000 0.000000
1.000000 1.000000 0.000000
1.000000 1.000000 0.000000
1.000000 1.000000 0.000000
1.000000 1.000000 0.000000
1.000000 1.000000 0.000000
1.000000 1.000000 0.000000
1.000000 1.000000 0.000000
1.000000 1.000000 0.000000
0.000000 1.000000 0.000000
0.014368 1.000000 0.000000
0.037999 1.000000 0.000000
0.067119 1.000000 0.000000
0.100493 1.000000 0.000000
0.137438 1.000000 0.000000
0.177502 1.000000 0.000000
0.220361 1.000000 0.000000
0.265767 1.000000 0.000000
0.313523 1.000000 0.000000
0.363472 1.000000 0.000000
0.415477 1.000000 0.000000
0.469426 1.000000 0.000000
0.525219 1.000000 0.000000
0.582770 1.000000 0.000000
0.642004 1.000000 0.000000
0.702851 1.000000 0.000000
0.765252 1.000000 0.000000
0.829151 1.000000 0.000000
0.894498 1.000000 0.000000
0.961245 1.000000 0.000000
1.000000 1.000000 0.000000
1.000000 1.000000 0.000000
1.000000 1.000000 0.000000
