HDR2SDR_04_BL3.cube
#Created by: Affinity Photo (Serif Europe Ltd.)
TITLE "HDR2SDR_04_BL3"
#LUT size
LUT_3D_SIZE 9
#data domain
DOMAIN_MIN 0.0 0.0 0.0
DOMAIN_MAX 1.0 1.0 1.0
#LUT data points
0.000000 0.000000 0.000000
0.175000 0.000000 0.000000
0.350000 0.000000 0.000000
0.525000 0.000000 0.000000
0.700000 0.000000 0.000000
0.875000 0.000000 0.000000
1.000000 0.000000 0.000000
1.000000 0.000000 0.000000
1.000000 0.000000 0.000001
0.000000 0.175000 0.000000
0.175000 0.175000 0.000000
0.350000 0.175000 0.000000
0.525000 0.175000 0.000000
0.700000 0.175000 0.000000
0.875000 0.175000 0.000000
1.000000 0.175000 0.000000
1.000000 0.175000 0.000000
1.000000 0.175000 0.000000
0.000000 0.350000 0.000000
0.175000 0.350000 0.000000
0.350000 0.350000 0.000000
0.525000 0.350000 0.000000
0.700000 0.350000 0.000000
0.875000 0.350000 0.000000
1.000000 0.350000 0.000000
1.000000 0.350000 0.000000
1.000000 0.350000 0.000000
0.000000 0.525000 0.000000
0.175000 0.525000 0.000000
0.350000 0.525000 0.000000
0.525000 0.525000 0.000000
0.700000 0.525000 0.000000
0.875000 0.525000 0.000000
1.000000 0.525000 0.000000
1.000000 0.525000 0.000000
1.000000 0.525000 0.000000
0.000000 0.700000 0.000000
0.175000 0.700000 0.000000
0.350000 0.700000 0.000000
0.525000 0.700000 0.000000
0.700000 0.700000 0.000000
0.875000 0.700000 0.000000
1.000000 0.700000 0.000000
1.000000 0.700000 0.000000
1.000000 0.700000 0.000000
0.000000 0.875000 0.000000
0.175000 0.875000 0.000000
0.350000 0.875000 0.000000
0.525000 0.875000 0.000000
0.700000 0.875000 0.000000
0.875000 0.875000 0.000000
1.000000 0.875000 0.000000
1.000000 0.875000 0.000000
1.000000 0.875000 0.000000
0.000000 1.000000 0.000000
0.175000 1.000000 0.000000
0.350000 1.000000 0.000000
0.525000 1.000000 0.000000
0.700000 1.000000 0.000000
0.875000 1.000000 0.000000
1.000000 1.000000 0.000000
1.000000 1.000000 0.000000
1.000000 1.000000 0.000000
0.000000 1.000000 0.000000
0.175000 1.000000 0.000000
0.350000 1.000000 0.000000
0.525000 1.000000 0.000000
0.700000 1.000000 0.000000
0.875000 1.000000 0.000000
1.000000 1.000000 0.000000
1.000000 1.000000 0.000000
1.000000 1.000000 0.000000
0.000000 1.000000 0.000000
0.175000 1.000000 0.000000
0.350000 1.000000 0.000000
0.525000 1.000000 0.000000
0.700000 1.000000 0.000000
0.875000 1.000000 0.000000
1.000000 1.000000 0.000000
1.000000 1.000000 0.000000
1.000000 1.000000 0.000000
0.000000 0.000000 0.175000
0.175000 0.000000 0.175000
0.350000 0.000000 0.175000
0.525000 0.000000 0.175000
0.700000 0.000000 0.175000
0.875000 0.000000 0.175000
1.000000 0.000000 0.175000
1.000000 0.000000 0.175001
1.000000 0.000000 0.175000
0.000000 0.175000 0.175000
0.175000 0.175000 0.175000
0.371875 0.153125 0.153125
0.568750 0.131250 0.131250
0.765625 0.109375 0.109375
0.962500 0.087500 0.087500
1.000000 0.065625 0.065625
1.000000 0.043750 0.043750
1.000000 0.175000 0.175000
0.000000 0.350000 0.175000
0.153125 0.371875 0.153125
0.371875 0.371875 0.153125
0.568750 0.350000 0.131250
0.765625 0.328125 0.109375
0.962500 0.306250 0.087500
1.000000 0.284375 0.065625
1.000000 0.262500 0.043750
1.000000 0.350000 0.175000
0.000000 0.525000 0.175000
0.131250 0.568750 0.131250
0.350000 0.568750 0.131250
0.568750 0.568750 0.131250
0.765625 0.546875 0.109375
0.962500 0.525000 0.087500
1.000000 0.503125 0.065625
1.000000 0.481250 0.043750
1.000000 0.525000 0.175000
0.000000 0.700000 0.175000
0.109375 0.765625 0.109375
0.328125 0.765625 0.109375
0.546875 0.765625 0.109375
0.765625 0.765625 0.109375
0.962500 0.743750 0.087500
1.000000 0.721875 0.065625
1.000000 0.700000 0.043750
1.000000 0.700000 0.175000
0.000000 0.875000 0.175000
0.087500 0.962500 0.087500
0.306250 0.962500 0.087500
0.525000 0.962500 0.087500
0.743750 0.962500 0.087500
0.962500 0.962500 0.087500
1.000000 0.940625 0.065625
1.000000 0.918750 0.043750
1.000000 0.875000 0.175000
0.000000 1.000000 0.175000
0.065625 1.000000 0.065625
0.284375 1.000000 0.065625
0.503125 1.000000 0.065625
0.721875 1.000000 0.065625
0.940625 1.000000 0.065625
1.000000 1.000000 0.065625
1.000000 1.000000 0.043750
1.000000 1.000000 0.175000
0.000000 1.000000 0.175000
0.043750 1.000000 0.043750
0.262500 1.000000 0.043750
0.481250 1.000000 0.043750
0.700000 1.000000 0.043750
0.918750 1.000000 0.043750
1.000000 1.000000 0.043750
1.000000 1.000000 0.043750
1.000000 1.000000 0.175000
0.000000 1.000000 0.175000
0.175000 1.000000 0.175000
0.350000 1.000000 0.175000
0.525000 1.000000 0.175000
0.700000 1.000000 0.175000
0.875000 1.000000 0.175000
1.000000 1.000000 0.175000
1.000000 1.000000 0.175000
1.000000 1.000000 0.175000
0.000000 0.000000 0.350000
0.175000 0.000000 0.350000
0.350000 0.000000 0.350000
0.525000 0.000000 0.350000
0.700000 0.000000 0.350000
0.875000 0.000000 0.350000
1.000000 0.000000 0.350001
1.000000 0.000000 0.350000
1.000000 0.000000 0.350000
0.000000 0.175000 0.350000
0.153125 0.153125 0.371875
0.371875 0.153125 0.371875
0.568750 0.131250 0.350000
0.765625 0.109375 0.328125
0.962500 0.087500 0.306250
1.000000 0.065625 0.284375
1.000000 0.043750 0.262501
1.000000 0.175000 0.350001
0.000000 0.350000 0.350000
0.153125 0.371875 0.371875
0.350000 0.350000 0.350000
0.546875 0.328125 0.328125
0.743750 0.306250 0.306250
0.940625 0.284375 0.284375
1.000000 0.262500 0.262500
1.000000 0.240625 0.240625
1.000000 0.350000 0.350000
0.000000 0.525000 0.350000
0.131250 0.568750 0.350000
0.328125 0.546875 0.328125
0.546875 0.546875 0.328125
0.743750 0.525000 0.306250
0.940625 0.503125 0.284375
1.000000 0.481250 0.262500
1.000000 0.459375 0.240625
1.000000 0.525000 0.350000
0.000000 0.700000 0.350000
0.109375 0.765625 0.328125
0.306250 0.743750 0.306250
0.525000 0.743750 0.306250
0.743750 0.743750 0.306250
0.940625 0.721875 0.284375
1.000000 0.700000 0.262500
1.000000 0.678125 0.240625
1.000000 0.700000 0.350000
0.000000 0.875000 0.350000
0.087500 0.962500 0.306250
0.284375 0.940625 0.284375
0.503125 0.940625 0.284375
0.721875 0.940625 0.284375
0.940625 0.940625 0.284375
1.000000 0.918750 0.262500
1.000000 0.896875 0.240625
1.000000 0.875000 0.350000
0.000000 1.000000 0.350000
0.065625 1.000000 0.284375
0.262500 1.000000 0.262500
0.481250 1.000000 0.262500
0.700000 1.000000 0.262500
0.918750 1.000000 0.262500
1.000000 1.000000 0.262500
1.000000 1.000000 0.240625
1.000000 1.000000 0.350000
0.000000 1.000000 0.350000
0.043750 1.000000 0.262500
0.240625 1.000000 0.240625
0.459375 1.000000 0.240625
0.678125 1.000000 0.240625
0.896875 1.000000 0.240625
1.000000 1.000000 0.240625
1.000000 1.000000 0.240625
1.000000 1.000000 0.350000
0.000000 1.000000 0.350000
0.175000 1.000000 0.350000
0.350000 1.000000 0.350000
0.525000 1.000000 0.350000
0.700000 1.000000 0.350000
0.875000 1.000000 0.350000
1.000000 1.000000 0.350000
1.000000 1.000000 0.350000
1.000000 1.000000 0.350000
0.000000 0.000000 0.525000
0.175000 0.000000 0.525000
0.350000 0.000000 0.525000
0.525000 0.000000 0.525000
0.700000 0.000000 0.525000
0.875000 0.000000 0.525000
1.000000 0.000000 0.525000
1.000000 0.000000 0.525000
1.000000 0.000000 0.525001
0.000000 0.175000 0.525000
0.131250 0.131250 0.568750
0.350000 0.131250 0.568750
0.568750 0.131250 0.568750
0.765625 0.109375 0.546875
0.962500 0.087500 0.525000
1.000000 0.065625 0.503125
1.000000 0.043750 0.481251
1.000000 0.175000 0.525000
0.000000 0.350000 0.525000
0.131250 0.350000 0.568750
0.328125 0.328125 0.546875
0.546875 0.328125 0.546875
0.743750 0.306250 0.525000
0.940625 0.284375 0.503125
1.000000 0.262500 0.481250
1.000000 0.240625 0.459375
1.000000 0.350000 0.525000
0.000000 0.525000 0.525000
0.131250 0.568750 0.568750
0.328125 0.546875 0.546875
0.525000 0.525000 0.525000
0.721875 0.503125 0.503125
0.918750 0.481250 0.481250
1.000000 0.459375 0.459375
1.000000 0.437500 0.437500
1.000000 0.525000 0.525000
0.000000 0.700000 0.525000
0.109375 0.765625 0.546875
0.306250 0.743750 0.525000
0.503125 0.721875 0.503125
0.721875 0.721875 0.503125
0.918750 0.700000 0.481250
1.000000 0.678125 0.459375
1.000000 0.656250 0.437500
1.000000 0.700000 0.525000
0.000000 0.875000 0.525000
0.087500 0.962500 0.525000
0.284375 0.940625 0.503125
0.481250 0.918750 0.481250
0.700000 0.918750 0.481250
0.918750 0.918750 0.481250
1.000000 0.896875 0.459375
1.000000 0.875000 0.437500
1.000000 0.875000 0.525000
0.000000 1.000000 0.525000
0.065625 1.000000 0.503125
0.262500 1.000000 0.481250
0.459375 1.000000 0.459375
0.678125 1.000000 0.459375
0.896875 1.000000 0.459375
1.000000 1.000000 0.459375
1.000000 1.000000 0.437500
1.000000 1.000000 0.525000
0.000000 1.000000 0.525000
0.043750 1.000000 0.481250
0.240625 1.000000 0.459375
0.437500 1.000000 0.437500
0.656250 1.000000 0.437500
0.875000 1.000000 0.437500
1.000000 1.000000 0.437500
1.000000 1.000000 0.437500
1.000000 1.000000 0.525000
0.000000 1.000000 0.525000
0.175000 1.000000 0.525000
0.350000 1.000000 0.525000
0.525000 1.000000 0.525000
0.700000 1.000000 0.525000
0.875000 1.000000 0.525000
1.000000 1.000000 0.525000
1.000000 1.000000 0.525000
1.000000 1.000000 0.525000
0.000000 0.000000 0.700000
0.175000 0.000000 0.700000
0.350000 0.000000 0.700000
0.525000 0.000000 0.700000
0.700000 0.000000 0.700000
0.875000 0.000000 0.700000
1.000000 0.000000 0.700000
1.000000 0.000000 0.700000
1.000000 0.000000 0.700000
0.000000 0.175000 0.700000
0.109375 0.109375 0.765625
0.328125 0.109375 0.765625
0.546875 0.109375 0.765625
0.765625 0.109375 0.765625
0.962500 0.087500 0.743750
1.000000 0.065625 0.721875
1.000000 0.043750 0.700000
1.000000 0.175000 0.700000
0.000000 0.350000 0.700000
0.109375 0.328125 0.765625
0.306250 0.306250 0.743750
0.525000 0.306250 0.743750
0.743750 0.306250 0.743750
0.940625 0.284375 0.721875
1.000000 0.262500 0.700000
1.000000 0.240625 0.678125
1.000000 0.350000 0.700000
0.000000 0.525000 0.700000
0.109375 0.546875 0.765625
0.306250 0.525000 0.743750
0.503125 0.503125 0.721875
0.721875 0.503125 0.721875
0.918750 0.481250 0.700000
1.000000 0.459375 0.678125
1.000000 0.437500 0.656250
1.000000 0.525000 0.700000
0.000000 0.700000 0.700000
0.109375 0.765625 0.765625
0.306250 0.743750 0.743750
0.503125 0.721875 0.721875
0.700000 0.700000 0.700000
0.896875 0.678125 0.678125
1.000000 0.656250 0.656250
1.000000 0.634375 0.634375
1.000000 0.700000 0.700000
0.000000 0.875000 0.700000
0.087500 0.962500 0.743750
0.284375 0.940625 0.721875
0.481250 0.918750 0.700000
0.678125 0.896875 0.678125
0.896875 0.896875 0.678125
1.000000 0.875000 0.656250
1.000000 0.853125 0.634375
1.000000 0.875000 0.700000
0.000000 1.000000 0.700000
0.065625 1.000000 0.721875
0.262500 1.000000 0.700000
0.459375 1.000000 0.678125
0.656250 1.000000 0.656250
0.875000 1.000000 0.656250
1.000000 1.000000 0.656250
1.000000 1.000000 0.634375
1.000000 1.000000 0.700000
0.000000 1.000000 0.700000
0.043750 1.000000 0.700000
0.240625 1.000000 0.678125
0.437500 1.000000 0.656250
0.634375 1.000000 0.634375
0.853125 1.000000 0.634375
1.000000 1.000000 0.634375
1.000000 1.000000 0.634375
1.000000 1.000000 0.700000
0.000000 1.000000 0.700000
0.175000 1.000000 0.700000
0.350000 1.000000 0.700000
0.525000 1.000000 0.700000
0.700000 1.000000 0.700000
0.875000 1.000000 0.700000
1.000000 1.000000 0.700000
1.000000 1.000000 0.700000
1.000000 1.000000 0.700000
0.000000 0.000000 0.875000
0.175000 0.000000 0.875000
0.350000 0.000000 0.875000
0.525000 0.000000 0.875000
0.700000 0.000000 0.875000
0.875000 0.000000 0.875000
1.000000 0.000000 0.875000
1.000000 0.000000 0.875001
1.000000 0.000000 0.875000
0.000000 0.175000 0.875000
0.087500 0.087500 0.962500
0.306250 0.087500 0.962500
0.525000 0.087500 0.962500
0.743750 0.087500 0.962500
0.962500 0.087500 0.962500
1.000000 0.065625 0.940625
1.000000 0.043750 0.918750
1.000000 0.175000 0.875000
0.000000 0.350000 0.875000
0.087500 0.306250 0.962500
0.284375 0.284375 0.940625
0.503125 0.284375 0.940625
0.721875 0.284375 0.940625
0.940625 0.284375 0.940625
1.000000 0.262500 0.918750
1.000000 0.240625 0.896876
1.000000 0.350000 0.875000
0.000000 0.525000 0.875000
0.087500 0.525000 0.962500
0.284375 0.503125 0.940625
0.481250 0.481250 0.918750
0.700000 0.481250 0.918750
0.918750 0.481250 0.918750
1.000000 0.459375 0.896875
1.000000 0.437500 0.875000
1.000000 0.525000 0.875000
0.000000 0.700000 0.875000
0.087500 0.743750 0.962500
0.284375 0.721875 0.940625
0.481250 0.700000 0.918750
0.678125 0.678125 0.896875
0.896875 0.678125 0.896875
1.000000 0.656250 0.875000
1.000000 0.634375 0.853125
1.000000 0.700000 0.875000
0.000000 0.875000 0.875000
0.087500 0.962500 0.962500
0.284375 0.940625 0.940625
0.481250 0.918750 0.918750
0.678125 0.896875 0.896875
0.875000 0.875000 0.875000
1.000000 0.853125 0.853125
1.000000 0.831250 0.831250
1.000000 0.875000 0.875000
0.000000 1.000000 0.875000
0.065625 1.000000 0.940625
0.262500 1.000000 0.918750
0.459375 1.000000 0.896875
0.656250 1.000000 0.875000
0.853125 1.000000 0.853125
1.000000 1.000000 0.853125
1.000000 1.000000 0.831250
1.000000 1.000000 0.875000
0.000000 1.000000 0.875000
0.043750 1.000000 0.918750
0.240625 1.000000 0.896875
0.437500 1.000000 0.875000
0.634375 1.000000 0.853125
0.831250 1.000000 0.831250
1.000000 1.000000 0.831250
1.000000 1.000000 0.831250
1.000000 1.000000 0.875000
0.000000 1.000000 0.875000
0.175000 1.000000 0.875000
0.350000 1.000000 0.875000
0.525000 1.000000 0.875000
0.700000 1.000000 0.875000
0.875000 1.000000 0.875000
1.000000 1.000000 0.875000
1.000000 1.000000 0.875000
1.000000 1.000000 0.875000
0.000000 0.000000 1.000000
0.175000 0.000000 1.000000
0.350000 0.000000 1.000000
0.525000 0.000000 1.000000
0.700000 0.000000 1.000000
0.875000 0.000000 1.000000
1.000000 0.000000 1.000000
1.000000 0.000000 1.000000
1.000000 0.000000 1.000000
0.000000 0.175000 1.000000
0.065625 0.065625 1.000000
0.284375 0.065625 1.000000
0.503125 0.065625 1.000000
0.721875 0.065625 1.000000
0.940625 0.065625 1.000000
1.000000 0.065625 1.000000
1.000000 0.043750 1.000000
1.000000 0.175000 1.000000
0.000000 0.350000 1.000000
0.065625 0.284375 1.000000
0.262500 0.262500 1.000000
0.481250 0.262500 1.000000
0.700000 0.262500 1.000000
0.918750 0.262500 1.000000
1.000000 0.262500 1.000000
1.000000 0.240625 1.000000
1.000000 0.350000 1.000000
0.000000 0.525000 1.000000
0.065625 0.503125 1.000000
0.262500 0.481250 1.000000
0.459375 0.459375 1.000000
0.678125 0.459375 1.000000
0.896875 0.459375 1.000000
1.000000 0.459375 1.000000
1.000000 0.437500 1.000000
1.000000 0.525000 1.000000
0.000000 0.700000 1.000000
0.065625 0.721875 1.000000
0.262500 0.700000 1.000000
0.459375 0.678125 1.000000
0.656250 0.656250 1.000000
0.875000 0.656250 1.000000
1.000000 0.656250 1.000000
1.000000 0.634375 1.000000
1.000000 0.700000 1.000000
0.000000 0.875000 1.000000
0.065625 0.940625 1.000000
0.262500 0.918750 1.000000
0.459375 0.896875 1.000000
0.656250 0.875000 1.000000
0.853125 0.853125 1.000000
1.000000 0.853125 1.000000
1.000000 0.831250 1.000000
1.000000 0.875000 1.000000
0.000000 1.000000 1.000000
0.065625 1.000000 1.000000
0.262500 1.000000 1.000000
0.459375 1.000000 1.000000
0.656250 1.000000 1.000000
0.853125 1.000000 1.000000
1.000000 1.000000 1.000000
1.000000 1.000000 1.000000
1.000000 1.000000 1.000000
0.000000 1.000000 1.000000
0.043750 1.000000 1.000000
0.240625 1.000000 1.000000
0.437500 1.000000 1.000000
0.634375 1.000000 1.000000
0.831250 1.000000 1.000000
1.000000 1.000000 1.000000
1.000000 1.000000 1.000000
1.000000 1.000000 1.000000
0.000000 1.000000 1.000000
0.175000 1.000000 1.000000
0.350000 1.000000 1.000000
0.525000 1.000000 1.000000
0.700000 1.000000 1.000000
0.875000 1.000000 1.000000
1.000000 1.000000 1.000000
1.000000 1.000000 1.000000
1.000000 1.000000 1.000000
0.000000 0.000000 1.000000
0.175000 0.000000 1.000000
0.350000 0.000000 1.000000
0.525000 0.000000 1.000000
0.700001 0.000000 1.000000
0.875000 0.000000 1.000000
1.000000 0.000000 1.000000
1.000000 0.000000 1.000000
1.000000 0.000000 1.000000
0.000000 0.175000 1.000000
0.043750 0.043750 1.000000
0.262500 0.043750 1.000000
0.481250 0.043750 1.000000
0.700000 0.043750 1.000000
0.918750 0.043750 1.000000
1.000000 0.043750 1.000000
1.000000 0.043750 1.000000
1.000000 0.175000 1.000000
0.000000 0.350000 1.000000
0.043750 0.262500 1.000000
0.240625 0.240625 1.000000
0.459375 0.240625 1.000000
0.678125 0.240625 1.000000
0.896875 0.240625 1.000000
1.000000 0.240625 1.000000
1.000000 0.240625 1.000000
1.000000 0.350000 1.000000
0.000000 0.525000 1.000000
0.043750 0.481250 1.000000
0.240625 0.459375 1.000000
0.437500 0.437500 1.000000
0.656250 0.437500 1.000000
0.875000 0.437500 1.000000
1.000000 0.437500 1.000000
1.000000 0.437500 1.000000
1.000000 0.525000 1.000000
0.000000 0.700000 1.000000
0.043750 0.700000 1.000000
0.240625 0.678125 1.000000
0.437500 0.656250 1.000000
0.634375 0.634375 1.000000
0.853125 0.634375 1.000000
1.000000 0.634375 1.000000
1.000000 0.634375 1.000000
1.000000 0.700000 1.000000
0.000000 0.875000 1.000000
0.043750 0.918750 1.000000
0.240625 0.896875 1.000000
0.437500 0.875000 1.000000
0.634375 0.853125 1.000000
0.831250 0.831250 1.000000
1.000000 0.831250 1.000000
1.000000 0.831250 1.000000
1.000000 0.875000 1.000000
0.000000 1.000000 1.000000
0.043750 1.000000 1.000000
0.240625 1.000000 1.000000
0.437500 1.000000 1.000000
0.634375 1.000000 1.000000
0.831250 1.000000 1.000000
1.000000 1.000000 1.000000
1.000000 1.000000 1.000000
1.000000 1.000000 1.000000
0.000000 1.000000 1.000000
0.043750 1.000000 1.000000
0.240625 1.000000 1.000000
0.437500 1.000000 1.000000
0.634375 1.000000 1.000000
0.831250 1.000000 1.000000
1.000000 1.000000 1.000000
1.000000 1.000000 1.000000
1.000000 1.000000 1.000000
0.000000 1.000000 1.000000
0.175000 1.000000 1.000000
0.350000 1.000000 1.000000
0.525000 1.000000 1.000000
0.700000 1.000000 1.000000
0.875000 1.000000 1.000000
1.000000 1.000000 1.000000
1.000000 1.000000 1.000000
1.000000 1.000000 1.000000
0.000000 0.000000 1.000000
0.175000 0.000000 1.000000
0.350000 0.000000 1.000000
0.525000 0.000000 1.000000
0.700000 0.000000 1.000000
0.875000 0.000000 1.000000
1.000000 0.000000 1.000000
1.000000 0.000000 1.000000
1.000000 0.000000 1.000000
0.000000 0.175000 1.000000
0.175000 0.175000 1.000000
0.350000 0.175000 1.000000
0.525000 0.175000 1.000000
0.700000 0.175000 1.000000
0.875001 0.175000 1.000000
1.000000 0.175000 1.000000
1.000000 0.175000 1.000000
1.000000 0.175000 1.000000
0.000000 0.350000 1.000000
0.175000 0.350000 1.000000
0.350000 0.350000 1.000000
0.525000 0.350000 1.000000
0.700000 0.350000 1.000000
0.875000 0.350000 1.000000
1.000000 0.350000 1.000000
1.000000 0.350000 1.000000
1.000000 0.350000 1.000000
0.000000 0.525000 1.000000
0.175000 0.525000 1.000000
0.350000 0.525000 1.000000
0.525000 0.525000 1.000000
0.700000 0.525000 1.000000
0.875000 0.525000 1.000000
1.000000 0.525000 1.000000
1.000000 0.525000 1.000000
1.000000 0.525000 1.000000
0.000000 0.700000 1.000000
0.175000 0.700000 1.000000
0.350000 0.700000 1.000000
0.525000 0.700000 1.000000
0.700000 0.700000 1.000000
0.875000 0.700000 1.000000
1.000000 0.700000 1.000000
1.000000 0.700000 1.000000
1.000000 0.700000 1.000000
0.000000 0.875000 1.000000
0.175000 0.875000 1.000000
0.350000 0.875000 1.000000
0.525000 0.875000 1.000000
0.700000 0.875000 1.000000
0.875000 0.875000 1.000000
1.000000 0.875000 1.000000
1.000000 0.875000 1.000000
1.000000 0.875000 1.000000
0.000000 1.000000 1.000000
0.175000 1.000000 1.000000
0.350000 1.000000 1.000000
0.525000 1.000000 1.000000
0.700000 1.000000 1.000000
0.875000 1.000000 1.000000
1.000000 1.000000 1.000000
1.000000 1.000000 1.000000
1.000000 1.000000 1.000000
0.000000 1.000000 1.000000
0.175000 1.000000 1.000000
0.350000 1.000000 1.000000
0.525000 1.000000 1.000000
0.700000 1.000000 1.000000
0.875000 1.000000 1.000000
1.000000 1.000000 1.000000
1.000000 1.000000 1.000000
1.000000 1.000000 1.000000
0.000000 1.000000 1.000000
0.175000 1.000000 1.000000
0.350000 1.000000 1.000000
0.525000 1.000000 1.000000
0.700000 1.000000 1.000000
0.875000 1.000000 1.000000
1.000000 1.000000 1.000000
1.000000 1.000000 1.000000
1.000000 1.000000 1.000000
