HDR2SDR_04_BL3.cube
#Created by: Affinity Photo (Serif Europe Ltd.)
TITLE "HDR2SDR_04_BL3"
#LUT size
LUT_3D_SIZE 33
#data domain
DOMAIN_MIN 0.0 0.0 0.0
DOMAIN_MAX 1.0 1.0 1.0
#LUT data points
0.000000 0.000000 0.000000
0.043750 0.000000 0.000000
0.087500 0.000000 0.000000
0.131250 0.000000 0.000000
0.175000 0.000000 0.000000
0.218750 0.000000 0.000000
0.262500 0.000000 0.000000
0.306250 0.000000 0.000000
0.350000 0.000000 0.000000
0.393750 0.000000 0.000000
0.437500 0.000000 0.000000
0.481250 0.000000 0.000000
0.525000 0.000000 0.000000
0.568750 0.000000 0.000000
0.612500 0.000000 0.000000
0.656250 0.000000 0.000000
0.700000 0.000000 0.000000
0.743750 0.000000 0.000000
0.787500 0.000000 0.000000
0.831250 0.000000 0.000000
0.875000 0.000000 0.000000
0.918750 0.000000 0.000000
0.962500 0.000000 0.000000
1.000000 0.000000 0.000000
1.000000 0.000000 0.000000
1.000000 0.000000 0.000000
1.000000 0.000000 0.000000
1.000000 0.000000 0.000000
1.000000 0.000000 0.000000
1.000000 0.000000 0.000000
1.000000 0.000000 0.000000
1.000000 0.000000 0.000000
1.000000 0.000000 0.000001
0.000000 0.043750 0.000000
0.043750 0.043750 0.000000
0.087500 0.043750 0.000000
0.131250 0.043750 0.000000
0.175000 0.043750 0.000000
0.218750 0.043750 0.000000
0.262500 0.043750 0.000000
0.306250 0.043750 0.000000
0.350000 0.043750 0.000000
0.393750 0.043750 0.000000
0.437500 0.043750 0.000000
0.481250 0.043750 0.000000
0.525000 0.043750 0.000000
0.568750 0.043750 0.000000
0.612500 0.043750 0.000000
0.656250 0.043750 0.000000
0.700000 0.043750 0.000000
0.743750 0.043750 0.000000
0.787500 0.043750 0.000000
0.831250 0.043750 0.000000
0.875000 0.043750 0.000000
0.918750 0.043750 0.000000
0.962500 0.043750 0.000000
1.000000 0.043750 0.000000
1.000000 0.043750 0.000000
1.000000 0.043750 0.000000
1.000000 0.043750 0.000000
1.000000 0.043750 0.000000
1.000000 0.043750 0.000000
1.000000 0.043750 0.000000
1.000000 0.043750 0.000000
1.000000 0.043750 0.000000
1.000000 0.043750 0.000000
0.000000 0.087500 0.000000
0.043750 0.087500 0.000000
0.087500 0.087500 0.000000
0.131250 0.087500 0.000000
0.175000 0.087500 0.000000
0.218750 0.087500 0.000000
0.262500 0.087500 0.000000
0.306250 0.087500 0.000000
0.350000 0.087500 0.000000
0.393750 0.087500 0.000000
0.437500 0.087500 0.000000
0.481250 0.087500 0.000000
0.525000 0.087500 0.000000
0.568750 0.087500 0.000000
0.612500 0.087500 0.000000
0.656250 0.087500 0.000000
0.700000 0.087500 0.000000
0.743750 0.087500 0.000000
0.787500 0.087500 0.000000
0.831250 0.087500 0.000000
0.875000 0.087500 0.000000
0.918750 0.087500 0.000000
0.962500 0.087500 0.000000
1.000000 0.087500 0.000000
1.000000 0.087500 0.000000
1.000000 0.087500 0.000000
1.000000 0.087500 0.000000
1.000000 0.087500 0.000000
1.000000 0.087500 0.000000
1.000000 0.087500 0.000000
1.000000 0.087500 0.000000
1.000000 0.087500 0.000000
1.000000 0.087500 0.000000
0.000000 0.131250 0.000000
0.043750 0.131250 0.000000
0.087500 0.131250 0.000000
0.131250 0.131250 0.000000
0.175000 0.131250 0.000000
0.218750 0.131250 0.000000
0.262500 0.131250 0.000000
0.306250 0.131250 0.000000
0.350000 0.131250 0.000000
0.393750 0.131250 0.000000
0.437500 0.131250 0.000000
0.481250 0.131250 0.000000
0.525000 0.131250 0.000000
0.568750 0.131250 0.000000
0.612500 0.131250 0.000000
0.656250 0.131250 0.000000
0.700000 0.131250 0.000000
0.743750 0.131250 0.000000
0.787500 0.131250 0.000000
0.831250 0.131250 0.000000
0.875000 0.131250 0.000000
0.918750 0.131250 0.000000
0.962500 0.131250 0.000000
1.000000 0.131250 0.000000
1.000000 0.131250 0.000000
1.000000 0.131250 0.000000
1.000000 0.131250 0.000000
1.000000 0.131250 0.000000
1.000000 0.131250 0.000000
1.000000 0.131250 0.000000
1.000000 0.131250 0.000000
1.000000 0.131250 0.000000
1.000000 0.131250 0.000000
0.000000 0.175000 0.000000
0.043750 0.175000 0.000000
0.087500 0.175000 0.000000
0.131250 0.175000 0.000000
0.175000 0.175000 0.000000
0.218750 0.175000 0.000000
0.262500 0.175000 0.000000
0.306250 0.175000 0.000000
0.350000 0.175000 0.000000
0.393750 0.175000 0.000000
0.437500 0.175000 0.000000
0.481250 0.175000 0.000000
0.525000 0.175000 0.000000
0.568750 0.175000 0.000000
0.612500 0.175000 0.000000
0.656250 0.175000 0.000000
0.700000 0.175000 0.000000
0.743750 0.175000 0.000000
0.787500 0.175000 0.000000
0.831250 0.175000 0.000000
0.875000 0.175000 0.000000
0.918750 0.175000 0.000000
0.962500 0.175000 0.000000
1.000000 0.175000 0.000000
1.000000 0.175000 0.000000
1.000000 0.175000 0.000000
1.000000 0.175000 0.000000
1.000000 0.175000 0.000000
1.000000 0.175000 0.000000
1.000000 0.175000 0.000000
1.000000 0.175000 0.000000
1.000000 0.175000 0.000000
1.000000 0.175000 0.000000
0.000000 0.218750 0.000000
0.043750 0.218750 0.000000
0.087500 0.218750 0.000000
0.131250 0.218750 0.000000
0.175000 0.218750 0.000000
0.218750 0.218750 0.000000
0.262500 0.218750 0.000000
0.306250 0.218750 0.000000
0.350000 0.218750 0.000000
0.393750 0.218750 0.000000
0.437500 0.218750 0.000000
0.481250 0.218750 0.000000
0.525000 0.218750 0.000000
0.568750 0.218750 0.000000
0.612500 0.218750 0.000000
0.656250 0.218750 0.000000
0.700000 0.218750 0.000000
0.743750 0.218750 0.000000
0.787500 0.218750 0.000000
0.831250 0.218750 0.000000
0.875000 0.218750 0.000000
0.918750 0.218750 0.000000
0.962500 0.218750 0.000000
1.000000 0.218750 0.000000
1.000000 0.218750 0.000000
1.000000 0.218750 0.000000
1.000000 0.218750 0.000000
1.000000 0.218750 0.000000
1.000000 0.218750 0.000000
1.000000 0.218750 0.000000
1.000000 0.218750 0.000000
1.000000 0.218750 0.000000
1.000000 0.218750 0.000000
0.000000 0.262500 0.000000
0.043750 0.262500 0.000000
0.087500 0.262500 0.000000
0.131250 0.262500 0.000000
0.175000 0.262500 0.000000
0.218750 0.262500 0.000000
0.262500 0.262500 0.000000
0.306250 0.262500 0.000000
0.350000 0.262500 0.000000
0.393750 0.262500 0.000000
0.437500 0.262500 0.000000
0.481250 0.262500 0.000000
0.525000 0.262500 0.000000
0.568750 0.262500 0.000000
0.612500 0.262500 0.000000
0.656250 0.262500 0.000000
0.700000 0.262500 0.000000
0.743750 0.262500 0.000000
0.787500 0.262500 0.000000
0.831250 0.262500 0.000000
0.875000 0.262500 0.000000
0.918750 0.262500 0.000000
0.962500 0.262500 0.000000
1.000000 0.262500 0.000000
1.000000 0.262500 0.000000
1.000000 0.262500 0.000000
1.000000 0.262500 0.000000
1.000000 0.262500 0.000000
1.000000 0.262500 0.000000
1.000000 0.262500 0.000000
1.000000 0.262500 0.000000
1.000000 0.262500 0.000000
1.000000 0.262500 0.000000
0.000000 0.306250 0.000000
0.043750 0.306250 0.000000
0.087500 0.306250 0.000000
0.131250 0.306250 0.000000
0.175000 0.306250 0.000000
0.218750 0.306250 0.000000
0.262500 0.306250 0.000000
0.306250 0.306250 0.000000
0.350000 0.306250 0.000000
0.393750 0.306250 0.000000
0.437500 0.306250 0.000000
0.481250 0.306250 0.000000
0.525000 0.306250 0.000000
0.568750 0.306250 0.000000
0.612500 0.306250 0.000000
0.656250 0.306250 0.000000
0.700000 0.306250 0.000000
0.743750 0.306250 0.000000
0.787500 0.306250 0.000000
0.831250 0.306250 0.000000
0.875000 0.306250 0.000000
0.918750 0.306250 0.000000
0.962500 0.306250 0.000000
1.000000 0.306250 0.000000
1.000000 0.306250 0.000000
1.000000 0.306250 0.000000
1.000000 0.306250 0.000000
1.000000 0.306250 0.000000
1.000000 0.306250 0.000000
1.000000 0.306250 0.000000
1.000000 0.306250 0.000000
1.000000 0.306250 0.000000
1.000000 0.306250 0.000000
0.000000 0.350000 0.000000
0.043750 0.350000 0.000000
0.087500 0.350000 0.000000
0.131250 0.350000 0.000000
0.175000 0.350000 0.000000
0.218750 0.350000 0.000000
0.262500 0.350000 0.000000
0.306250 0.350000 0.000000
0.350000 0.350000 0.000000
0.393750 0.350000 0.000000
0.437500 0.350000 0.000000
0.481250 0.350000 0.000000
0.525000 0.350000 0.000000
0.568750 0.350000 0.000000
0.612500 0.350000 0.000000
0.656250 0.350000 0.000000
0.700000 0.350000 0.000000
0.743750 0.350000 0.000000
0.787500 0.350000 0.000000
0.831250 0.350000 0.000000
0.875000 0.350000 0.000000
0.918750 0.350000 0.000000
0.962500 0.350000 0.000000
1.000000 0.350000 0.000000
1.000000 0.350000 0.000000
1.000000 0.350000 0.000000
1.000000 0.350000 0.000000
1.000000 0.350000 0.000000
1.000000 0.350000 0.000000
1.000000 0.350000 0.000000
1.000000 0.350000 0.000000
1.000000 0.350000 0.000000
1.000000 0.350000 0.000000
0.000000 0.393750 0.000000
0.043750 0.393750 0.000000
0.087500 0.393750 0.000000
0.131250 0.393750 0.000000
0.175000 0.393750 0.000000
0.218750 0.393750 0.000000
0.262500 0.393750 0.000000
0.306250 0.393750 0.000000
0.350000 0.393750 0.000000
0.393750 0.393750 0.000000
0.437500 0.393750 0.000000
0.481250 0.393750 0.000000
0.525000 0.393750 0.000000
0.568750 0.393750 0.000000
0.612500 0.393750 0.000000
0.656250 0.393750 0.000000
0.700000 0.393750 0.000000
0.743750 0.393750 0.000000
0.787500 0.393750 0.000000
0.831250 0.393750 0.000000
0.875000 0.393750 0.000000
0.918750 0.393750 0.000000
0.962500 0.393750 0.000000
1.000000 0.393750 0.000000
1.000000 0.393750 0.000000
1.000000 0.393750 0.000000
1.000000 0.393750 0.000000
1.000000 0.393750 0.000000
1.000000 0.393750 0.000000
1.000000 0.393750 0.000000
1.000000 0.393750 0.000000
1.000000 0.393750 0.000000
1.000000 0.393750 0.000000
0.000000 0.437500 0.000000
0.043750 0.437500 0.000000
0.087500 0.437500 0.000000
0.131250 0.437500 0.000000
0.175000 0.437500 0.000000
0.218750 0.437500 0.000000
0.262500 0.437500 0.000000
0.306250 0.437500 0.000000
0.350000 0.437500 0.000000
0.393750 0.437500 0.000000
0.437500 0.437500 0.000000
0.481250 0.437500 0.000000
0.525000 0.437500 0.000000
0.568750 0.437500 0.000000
0.612500 0.437500 0.000000
0.656250 0.437500 0.000000
0.700000 0.437500 0.000000
0.743750 0.437500 0.000000
0.787500 0.437500 0.000000
0.831250 0.437500 0.000000
0.875000 0.437500 0.000000
0.918750 0.437500 0.000000
0.962500 0.437500 0.000000
1.000000 0.437500 0.000000
1.000000 0.437500 0.000000
1.000000 0.437500 0.000000
1.000000 0.437500 0.000000
1.000000 0.437500 0.000000
1.000000 0.437500 0.000000
1.000000 0.437500 0.000000
1.000000 0.437500 0.000000
1.000000 0.437500 0.000000
1.000000 0.437500 0.000000
0.000000 0.481250 0.000000
0.043750 0.481250 0.000000
0.087500 0.481250 0.000000
0.131250 0.481250 0.000000
0.175000 0.481250 0.000000
0.218750 0.481250 0.000000
0.262500 0.481250 0.000000
0.306250 0.481250 0.000000
0.350000 0.481250 0.000000
0.393750 0.481250 0.000000
0.437500 0.481250 0.000000
0.481250 0.481250 0.000000
0.525000 0.481250 0.000000
0.568750 0.481250 0.000000
0.612500 0.481250 0.000000
0.656250 0.481250 0.000000
0.700000 0.481250 0.000000
0.743750 0.481250 0.000000
0.787500 0.481250 0.000000
0.831250 0.481250 0.000000
0.875000 0.481250 0.000000
0.918750 0.481250 0.000000
0.962500 0.481250 0.000000
1.000000 0.481250 0.000000
1.000000 0.481250 0.000000
1.000000 0.481250 0.000000
1.000000 0.481250 0.000000
1.000000 0.481250 0.000000
1.000000 0.481250 0.000000
1.000000 0.481250 0.000000
1.000000 0.481250 0.000000
1.000000 0.481250 0.000000
1.000000 0.481250 0.000000
0.000000 0.525000 0.000000
0.043750 0.525000 0.000000
0.087500 0.525000 0.000000
0.131250 0.525000 0.000000
0.175000 0.525000 0.000000
0.218750 0.525000 0.000000
0.262500 0.525000 0.000000
0.306250 0.525000 0.000000
0.350000 0.525000 0.000000
0.393750 0.525000 0.000000
0.437500 0.525000 0.000000
0.481250 0.525000 0.000000
0.525000 0.525000 0.000000
0.568750 0.525000 0.000000
0.612500 0.525000 0.000000
0.656250 0.525000 0.000000
0.700000 0.525000 0.000000
0.743750 0.525000 0.000000
0.787500 0.525000 0.000000
0.831250 0.525000 0.000000
0.875000 0.525000 0.000000
0.918750 0.525000 0.000000
0.962500 0.525000 0.000000
1.000000 0.525000 0.000000
1.000000 0.525000 0.000000
1.000000 0.525000 0.000000
1.000000 0.525000 0.000000
1.000000 0.525000 0.000000
1.000000 0.525000 0.000000
1.000000 0.525000 0.000000
1.000000 0.525000 0.000000
1.000000 0.525000 0.000000
1.000000 0.525000 0.000000
0.000000 0.568750 0.000000
0.043750 0.568750 0.000000
0.087500 0.568750 0.000000
0.131250 0.568750 0.000000
0.175000 0.568750 0.000000
0.218750 0.568750 0.000000
0.262500 0.568750 0.000000
0.306250 0.568750 0.000000
0.350000 0.568750 0.000000
0.393750 0.568750 0.000000
0.437500 0.568750 0.000000
0.481250 0.568750 0.000000
0.525000 0.568750 0.000000
0.568750 0.568750 0.000000
0.612500 0.568750 0.000000
0.656250 0.568750 0.000000
0.700000 0.568750 0.000000
0.743750 0.568750 0.000000
0.787500 0.568750 0.000000
0.831250 0.568750 0.000000
0.875000 0.568750 0.000000
0.918750 0.568750 0.000000
0.962500 0.568750 0.000000
1.000000 0.568750 0.000000
1.000000 0.568750 0.000000
1.000000 0.568750 0.000000
1.000000 0.568750 0.000000
1.000000 0.568750 0.000000
1.000000 0.568750 0.000000
1.000000 0.568750 0.000000
1.000000 0.568750 0.000000
1.000000 0.568750 0.000000
1.000000 0.568750 0.000000
0.000000 0.612500 0.000000
0.043750 0.612500 0.000000
0.087500 0.612500 0.000000
0.131250 0.612500 0.000000
0.175000 0.612500 0.000000
0.218750 0.612500 0.000000
0.262500 0.612500 0.000000
0.306250 0.612500 0.000000
0.350000 0.612500 0.000000
0.393750 0.612500 0.000000
0.437500 0.612500 0.000000
0.481250 0.612500 0.000000
0.525000 0.612500 0.000000
0.568750 0.612500 0.000000
0.612500 0.612500 0.000000
0.656250 0.612500 0.000000
0.700000 0.612500 0.000000
0.743750 0.612500 0.000000
0.787500 0.612500 0.000000
0.831250 0.612500 0.000000
0.875000 0.612500 0.000000
0.918750 0.612500 0.000000
0.962500 0.612500 0.000000
1.000000 0.612500 0.000000
1.000000 0.612500 0.000000
1.000000 0.612500 0.000000
1.000000 0.612500 0.000000
1.000000 0.612500 0.000000
1.000000 0.612500 0.000000
1.000000 0.612500 0.000000
1.000000 0.612500 0.000000
1.000000 0.612500 0.000000
1.000000 0.612500 0.000000
0.000000 0.656250 0.000000
0.043750 0.656250 0.000000
0.087500 0.656250 0.000000
0.131250 0.656250 0.000000
0.175000 0.656250 0.000000
0.218750 0.656250 0.000000
0.262500 0.656250 0.000000
0.306250 0.656250 0.000000
0.350000 0.656250 0.000000
0.393750 0.656250 0.000000
0.437500 0.656250 0.000000
0.481250 0.656250 0.000000
0.525000 0.656250 0.000000
0.568750 0.656250 0.000000
0.612500 0.656250 0.000000
0.656250 0.656250 0.000000
0.700000 0.656250 0.000000
0.743750 0.656250 0.000000
0.787500 0.656250 0.000000
0.831250 0.656250 0.000000
0.875000 0.656250 0.000000
0.918750 0.656250 0.000000
0.962500 0.656250 0.000000
1.000000 0.656250 0.000000
1.000000 0.656250 0.000000
1.000000 0.656250 0.000000
1.000000 0.656250 0.000000
1.000000 0.656250 0.000000
1.000000 0.656250 0.000000
1.000000 0.656250 0.000000
1.000000 0.656250 0.000000
1.000000 0.656250 0.000000
1.000000 0.656250 0.000000
0.000000 0.700000 0.000000
0.043750 0.700000 0.000000
0.087500 0.700000 0.000000
0.131250 0.700000 0.000000
0.175000 0.700000 0.000000
0.218750 0.700000 0.000000
0.262500 0.700000 0.000000
0.306250 0.700000 0.000000
0.350000 0.700000 0.000000
0.393750 0.700000 0.000000
0.437500 0.700000 0.000000
0.481250 0.700000 0.000000
0.525000 0.700000 0.000000
0.568750 0.700000 0.000000
0.612500 0.700000 0.000000
0.656250 0.700000 0.000000
0.700000 0.700000 0.000000
0.743750 0.700000 0.000000
0.787500 0.700000 0.000000
0.831250 0.700000 0.000000
0.875000 0.700000 0.000000
0.918750 0.700000 0.000000
0.962500 0.700000 0.000000
1.000000 0.700000 0.000000
1.000000 0.700000 0.000000
1.000000 0.700000 0.000000
1.000000 0.700000 0.000000
1.000000 0.700000 0.000000
1.000000 0.700000 0.000000
1.000000 0.700000 0.000000
1.000000 0.700000 0.000000
1.000000 0.700000 0.000000
1.000000 0.700000 0.000000
0.000000 0.743750 0.000000
0.043750 0.743750 0.000000
0.087500 0.743750 0.000000
0.131250 0.743750 0.000000
0.175000 0.743750 0.000000
0.218750 0.743750 0.000000
0.262500 0.743750 0.000000
0.306250 0.743750 0.000000
0.350000 0.743750 0.000000
0.393750 0.743750 0.000000
0.437500 0.743750 0.000000
0.481250 0.743750 0.000000
0.525000 0.743750 0.000000
0.568750 0.743750 0.000000
0.612500 0.743750 0.000000
0.656250 0.743750 0.000000
0.700000 0.743750 0.000000
0.743750 0.743750 0.000000
0.787500 0.743750 0.000000
0.831250 0.743750 0.000000
0.875000 0.743750 0.000000
0.918750 0.743750 0.000000
0.962500 0.743750 0.000000
1.000000 0.743750 0.000000
1.000000 0.743750 0.000000
1.000000 0.743750 0.000000
1.000000 0.743750 0.000000
1.000000 0.743750 0.000000
1.000000 0.743750 0.000000
1.000000 0.743750 0.000000
1.000000 0.743750 0.000000
1.000000 0.743750 0.000000
1.000000 0.743750 0.000000
0.000000 0.787500 0.000000
0.043750 0.787500 0.000000
0.087500 0.787500 0.000000
0.131250 0.787500 0.000000
0.175000 0.787500 0.000000
0.218750 0.787500 0.000000
0.262500 0.787500 0.000000
0.306250 0.787500 0.000000
0.350000 0.787500 0.000000
0.393750 0.787500 0.000000
0.437500 0.787500 0.000000
0.481250 0.787500 0.000000
0.525000 0.787500 0.000000
0.568750 0.787500 0.000000
0.612500 0.787500 0.000000
0.656250 0.787500 0.000000
0.700000 0.787500 0.000000
0.743750 0.787500 0.000000
0.787500 0.787500 0.000000
0.831250 0.787500 0.000000
0.875000 0.787500 0.000000
0.918750 0.787500 0.000000
0.962500 0.787500 0.000000
1.000000 0.787500 0.000000
1.000000 0.787500 0.000000
1.000000 0.787500 0.000000
1.000000 0.787500 0.000000
1.000000 0.787500 0.000000
1.000000 0.787500 0.000000
1.000000 0.787500 0.000000
1.000000 0.787500 0.000000
1.000000 0.787500 0.000000
1.000000 0.787500 0.000000
0.000000 0.831250 0.000000
0.043750 0.831250 0.000000
0.087500 0.831250 0.000000
0.131250 0.831250 0.000000
0.175000 0.831250 0.000000
0.218750 0.831250 0.000000
0.262500 0.831250 0.000000
0.306250 0.831250 0.000000
0.350000 0.831250 0.000000
0.393750 0.831250 0.000000
0.437500 0.831250 0.000000
0.481250 0.831250 0.000000
0.525000 0.831250 0.000000
0.568750 0.831250 0.000000
0.612500 0.831250 0.000000
0.656250 0.831250 0.000000
0.700000 0.831250 0.000000
0.743750 0.831250 0.000000
0.787500 0.831250 0.000000
0.831250 0.831250 0.000000
0.875000 0.831250 0.000000
0.918750 0.831250 0.000000
0.962500 0.831250 0.000000
1.000000 0.831250 0.000000
1.000000 0.831250 0.000000
1.000000 0.831250 0.000000
1.000000 0.831250 0.000000
1.000000 0.831250 0.000000
1.000000 0.831250 0.000000
1.000000 0.831250 0.000000
1.000000 0.831250 0.000000
1.000000 0.831250 0.000000
1.000000 0.831250 0.000000
0.000000 0.875000 0.000000
0.043750 0.875000 0.000000
0.087500 0.875000 0.000000
0.131250 0.875000 0.000000
0.175000 0.875000 0.000000
0.218750 0.875000 0.000000
0.262500 0.875000 0.000000
0.306250 0.875000 0.000000
0.350000 0.875000 0.000000
0.393750 0.875000 0.000000
0.437500 0.875000 0.000000
0.481250 0.875000 0.000000
0.525000 0.875000 0.000000
0.568750 0.875000 0.000000
0.612500 0.875000 0.000000
0.656250 0.875000 0.000000
0.700000 0.875000 0.000000
0.743750 0.875000 0.000000
0.787500 0.875000 0.000000
0.831250 0.875000 0.000000
0.875000 0.875000 0.000000
0.918750 0.875000 0.000000
0.962500 0.875000 0.000000
1.000000 0.875000 0.000000
1.000000 0.875000 0.000000
1.000000 0.875000 0.000000
1.000000 0.875000 0.000000
1.000000 0.875000 0.000000
1.000000 0.875000 0.000000
1.000000 0.875000 0.000000
1.000000 0.875000 0.000000
1.000000 0.875000 0.000000
1.000000 0.875000 0.000000
0.000000 0.918750 0.000000
0.043750 0.918750 0.000000
0.087500 0.918750 0.000000
0.131250 0.918750 0.000000
0.175000 0.918750 0.000000
0.218750 0.918750 0.000000
0.262500 0.918750 0.000000
0.306250 0.918750 0.000000
0.350000 0.918750 0.000000
0.393750 0.918750 0.000000
0.437500 0.918750 0.000000
0.481250 0.918750 0.000000
0.525000 0.918750 0.000000
0.568750 0.918750 0.000000
0.612500 0.918750 0.000000
0.656250 0.918750 0.000000
0.700000 0.918750 0.000000
0.743750 0.918750 0.000000
0.787500 0.918750 0.000000
0.831250 0.918750 0.000000
0.875000 0.918750 0.000000
0.918750 0.918750 0.000000
0.962500 0.918750 0.000000
1.000000 0.918750 0.000000
1.000000 0.918750 0.000000
1.000000 0.918750 0.000000
1.000000 0.918750 0.000000
1.000000 0.918750 0.000000
1.000000 0.918750 0.000000
1.000000 0.918750 0.000000
1.000000 0.918750 0.000000
1.000000 0.918750 0.000000
1.000000 0.918750 0.000000
0.000000 0.962500 0.000000
0.043750 0.962500 0.000000
0.087500 0.962500 0.000000
0.131250 0.962500 0.000000
0.175000 0.962500 0.000000
0.218750 0.962500 0.000000
0.262500 0.962500 0.000000
0.306250 0.962500 0.000000
0.350000 0.962500 0.000000
0.393750 0.962500 0.000000
0.437500 0.962500 0.000000
0.481250 0.962500 0.000000
0.525000 0.962500 0.000000
0.568750 0.962500 0.000000
0.612500 0.962500 0.000000
0.656250 0.962500 0.000000
0.700000 0.962500 0.000000
0.743750 0.962500 0.000000
0.787500 0.962500 0.000000
0.831250 0.962500 0.000000
0.875000 0.962500 0.000000
0.918750 0.962500 0.000000
0.962500 0.962500 0.000000
1.000000 0.962500 0.000000
1.000000 0.962500 0.000000
1.000000 0.962500 0.000000
1.000000 0.962500 0.000000
1.000000 0.962500 0.000000
1.000000 0.962500 0.000000
1.000000 0.962500 0.000000
1.000000 0.962500 0.000000
1.000000 0.962500 0.000000
1.000000 0.962500 0.000000
0.000000 1.000000 0.000000
0.043750 1.000000 0.000000
0.087500 1.000000 0.000000
0.131250 1.000000 0.000000
0.175000 1.000000 0.000000
0.218750 1.000000 0.000000
0.262500 1.000000 0.000000
0.306250 1.000000 0.000000
0.350000 1.000000 0.000000
0.393750 1.000000 0.000000
0.437500 1.000000 0.000000
0.481250 1.000000 0.000000
0.525000 1.000000 0.000000
0.568750 1.000000 0.000000
0.612500 1.000000 0.000000
0.656250 1.000000 0.000000
0.700000 1.000000 0.000000
0.743750 1.000000 0.000000
0.787500 1.000000 0.000000
0.831250 1.000000 0.000000
0.875000 1.000000 0.000000
0.918750 1.000000 0.000000
0.962500 1.000000 0.000000
1.000000 1.000000 0.000000
1.000000 1.000000 0.000000
1.000000 1.000000 0.000000
1.000000 1.000000 0.000000
1.000000 1.000000 0.000000
1.000000 1.000000 0.000000
1.000000 1.000000 0.000000
1.000000 1.000000 0.000000
1.000000 1.000000 0.000000
1.000000 1.000000 0.000000
0.000000 1.000000 0.000000
0.043750 1.000000 0.000000
0.087500 1.000000 0.000000
0.131250 1.000000 0.000000
0.175000 1.000000 0.000000
0.218750 1.000000 0.000000
0.262500 1.000000 0.000000
0.306250 1.000000 0.000000
0.350000 1.000000 0.000000
0.393750 1.000000 0.000000
0.437500 1.000000 0.000000
0.481250 1.000000 0.000000
0.525000 1.000000 0.000000
0.568750 1.000000 0.000000
0.612500 1.000000 0.000000
0.656250 1.000000 0.000000
0.700000 1.000000 0.000000
0.743750 1.000000 0.000000
0.787500 1.000000 0.000000
0.831250 1.000000 0.000000
0.875000 1.000000 0.000000
0.918750 1.000000 0.000000
0.962500 1.000000 0.000000
1.000000 1.000000 0.000000
1.000000 1.000000 0.000000
1.000000 1.000000 0.000000
1.000000 1.000000 0.000000
1.000000 1.000000 0.000000
1.000000 1.000000 0.000000
1.000000 1.000000 0.000000
1.000000 1.000000 0.000000
1.000000 1.000000 0.000000
1.000000 1.000000 0.000000
0.000000 1.000000 0.000000
0.043750 1.000000 0.000000
0.087500 1.000000 0.000000
0.131250 1.000000 0.000000
0.175000 1.000000 0.000000
0.218750 1.000000 0.000000
0.262500 1.000000 0.000000
0.306250 1.000000 0.000000
0.350000 1.000000 0.000000
0.393750 1.000000 0.000000
0.437500 1.000000 0.000000
0.481250 1.000000 0.000000
0.525000 1.000000 0.000000
0.568750 1.000000 0.000000
0.612500 1.000000 0.000000
0.656250 1.000000 0.000000
0.700000 1.000000 0.000000
0.743750 1.000000 0.000000
0.787500 1.000000 0.000000
0.831250 1.000000 0.000000
0.875000 1.000000 0.000000
0.918750 1.000000 0.000000
0.962500 1.000000 0.000000
1.000000 1.000000 0.000000
1.000000 1.000000 0.000000
1.000000 1.000000 0.000000
1.000000 1.000000 0.000000
1.000000 1.000000 0.000000
1.000000 1.000000 0.000000
1.000000 1.000000 0.000000
1.000000 1.000000 0.000000
1.000000 1.000000 0.000000
1.000000 1.000000 0.000000
0.000000 1.000000 0.000000
0.043750 1.000000 0.000000
0.087500 1.000000 0.000000
0.131250 1.000000 0.000000
0.175000 1.000000 0.000000
0.218750 1.000000 0.000000
0.262500 1.000000 0.000000
0.306250 1.000000 0.000000
0.350000 1.000000 0.000000
0.393750 1.000000 0.000000
0.437500 1.000000 0.000000
0.481250 1.000000 0.000000
0.525000 1.000000 0.000000
0.568750 1.000000 0.000000
0.612500 1.000000 0.000000
0.656250 1.000000 0.000000
0.700000 1.000000 0.000000
0.743750 1.000000 0.000000
0.787500 1.000000 0.000000
0.831250 1.000000 0.000000
0.875000 1.000000 0.000000
0.918750 1.000000 0.000000
0.962500 1.000000 0.000000
1.000000 1.000000 0.000000
