HDR2SDR_01_DRG.cube
#Created by: Affinity Photo (Serif Europe Ltd.)
TITLE "HDR2SDR_01_DRG"
#LUT size
LUT_3D_SIZE 32
#data domain
DOMAIN_MIN 0.0 0.0 0.0
DOMAIN_MAX 1.0 1.0 1.0
#LUT data points
0.000000 0.000000 0.000000
0.006684 0.000000 0.000000
0.023491 0.000000 0.000000
0.045095 0.000000 0.000000
0.070265 0.000000 0.000000
0.098369 0.000000 0.000000
0.129013 0.000000 0.000000
0.161915 0.000000 0.000000
0.196867 0.000000 0.000000
0.233704 0.000000 0.000000
0.272293 0.000000 0.000000
0.312523 0.000000 0.000000
0.354301 0.000000 0.000000
0.397546 0.000000 0.000000
0.442188 0.000000 0.000000
0.488165 0.000000 0.000000
0.535422 0.000000 0.000000
0.583908 0.000000 0.000000
0.633581 0.000000 0.000000
0.684399 0.000000 0.000000
0.736325 0.000000 0.000000
0.789326 0.000000 0.000000
0.843369 0.000000 0.000000
0.898426 0.000000 0.000000
0.954471 0.000000 0.000000
1.000000 0.000000 0.000000
1.000000 0.000000 0.000000
1.000000 0.000000 0.000000
1.000000 0.000000 0.000000
1.000000 0.000000 0.000000
1.000000 0.000000 0.000000
1.000000 0.000000 0.000000
0.000000 0.006684 0.000000
0.006684 0.006684 0.000000
0.023491 0.006684 0.000000
0.045095 0.006684 0.000000
0.070265 0.006684 0.000000
0.098369 0.006684 0.000000
0.129013 0.006684 0.000000
0.161915 0.006684 0.000000
0.196867 0.006684 0.000000
0.233704 0.006684 0.000000
0.272293 0.006684 0.000000
0.312523 0.006684 0.000000
0.354301 0.006684 0.000000
0.397546 0.006684 0.000000
0.442188 0.006684 0.000000
0.488165 0.006684 0.000000
0.535422 0.006684 0.000000
0.583908 0.006684 0.000000
0.633581 0.006684 0.000000
0.684399 0.006684 0.000000
0.736325 0.006684 0.000000
0.789326 0.006684 0.000000
0.843369 0.006684 0.000000
0.898426 0.006684 0.000000
0.954471 0.006684 0.000000
1.000000 0.006684 0.000000
1.000000 0.006684 0.000000
1.000000 0.006684 0.000000
1.000000 0.006684 0.000000
1.000000 0.006684 0.000000
1.000000 0.006684 0.000000
1.000000 0.006684 0.000000
0.000000 0.023491 0.000000
0.006684 0.023491 0.000000
0.023491 0.023491 0.000000
0.045095 0.023491 0.000000
0.070265 0.023491 0.000000
0.098369 0.023491 0.000000
0.129013 0.023491 0.000000
0.161915 0.023491 0.000000
0.196867 0.023491 0.000000
0.233704 0.023491 0.000000
0.272293 0.023491 0.000000
0.312523 0.023491 0.000000
0.354301 0.023491 0.000000
0.397546 0.023491 0.000000
0.442188 0.023491 0.000000
0.488165 0.023491 0.000000
0.535422 0.023491 0.000000
0.583908 0.023491 0.000000
0.633581 0.023491 0.000000
0.684399 0.023491 0.000000
0.736325 0.023491 0.000000
0.789326 0.023491 0.000000
0.843369 0.023491 0.000000
0.898426 0.023491 0.000000
0.954471 0.023491 0.000000
1.000000 0.023491 0.000000
1.000000 0.023491 0.000000
1.000000 0.023491 0.000000
1.000000 0.023491 0.000000
1.000000 0.023491 0.000000
1.000000 0.023491 0.000000
1.000000 0.023491 0.000000
0.000000 0.045095 0.000000
0.006684 0.045095 0.000000
0.023491 0.045095 0.000000
0.045095 0.045095 0.000000
0.070265 0.045095 0.000000
0.098369 0.045095 0.000000
0.129013 0.045095 0.000000
0.161915 0.045095 0.000000
0.196867 0.045095 0.000000
0.233704 0.045095 0.000000
0.272293 0.045095 0.000000
0.312523 0.045095 0.000000
0.354301 0.045095 0.000000
0.397546 0.045095 0.000000
0.442188 0.045095 0.000000
0.488165 0.045095 0.000000
0.535422 0.045095 0.000000
0.583908 0.045095 0.000000
0.633581 0.045095 0.000000
0.684399 0.045095 0.000000
0.736325 0.045095 0.000000
0.789326 0.045095 0.000000
0.843369 0.045095 0.000000
0.898426 0.045095 0.000000
0.954471 0.045095 0.000000
1.000000 0.045095 0.000000
1.000000 0.045095 0.000000
1.000000 0.045095 0.000000
1.000000 0.045095 0.000000
1.000000 0.045095 0.000000
1.000000 0.045095 0.000000
1.000000 0.045095 0.000000
0.000000 0.070265 0.000000
0.006684 0.070265 0.000000
0.023491 0.070265 0.000000
0.045095 0.070265 0.000000
0.070265 0.070265 0.000000
0.098369 0.070265 0.000000
0.129013 0.070265 0.000000
0.161915 0.070265 0.000000
0.196867 0.070265 0.000000
0.233704 0.070265 0.000000
0.272293 0.070265 0.000000
0.312523 0.070265 0.000000
0.354301 0.070265 0.000000
0.397546 0.070265 0.000000
0.442188 0.070265 0.000000
0.488165 0.070265 0.000000
0.535422 0.070265 0.000000
0.583908 0.070265 0.000000
0.633581 0.070265 0.000000
0.684399 0.070265 0.000000
0.736325 0.070265 0.000000
0.789326 0.070265 0.000000
0.843369 0.070265 0.000000
0.898426 0.070265 0.000000
0.954471 0.070265 0.000000
1.000000 0.070265 0.000000
1.000000 0.070265 0.000000
1.000000 0.070265 0.000000
1.000000 0.070265 0.000000
1.000000 0.070265 0.000000
1.000000 0.070265 0.000000
1.000000 0.070265 0.000000
0.000000 0.098369 0.000000
0.006684 0.098369 0.000000
0.023491 0.098369 0.000000
0.045095 0.098369 0.000000
0.070265 0.098369 0.000000
0.098369 0.098369 0.000000
0.129013 0.098369 0.000000
0.161915 0.098369 0.000000
0.196867 0.098369 0.000000
0.233704 0.098369 0.000000
0.272293 0.098369 0.000000
0.312523 0.098369 0.000000
0.354301 0.098369 0.000000
0.397546 0.098369 0.000000
0.442188 0.098369 0.000000
0.488165 0.098369 0.000000
0.535422 0.098369 0.000000
0.583908 0.098369 0.000000
0.633581 0.098369 0.000000
0.684399 0.098369 0.000000
0.736325 0.098369 0.000000
0.789326 0.098369 0.000000
0.843369 0.098369 0.000000
0.898426 0.098369 0.000000
0.954471 0.098369 0.000000
1.000000 0.098369 0.000000
1.000000 0.098369 0.000000
1.000000 0.098369 0.000000
1.000000 0.098369 0.000000
1.000000 0.098369 0.000000
1.000000 0.098369 0.000000
1.000000 0.098369 0.000000
0.000000 0.129013 0.000000
0.006684 0.129013 0.000000
0.023491 0.129013 0.000000
0.045095 0.129013 0.000000
0.070265 0.129013 0.000000
0.098369 0.129013 0.000000
0.129013 0.129013 0.000000
0.161915 0.129013 0.000000
0.196867 0.129013 0.000000
0.233704 0.129013 0.000000
0.272293 0.129013 0.000000
0.312523 0.129013 0.000000
0.354301 0.129013 0.000000
0.397546 0.129013 0.000000
0.442188 0.129013 0.000000
0.488165 0.129013 0.000000
0.535422 0.129013 0.000000
0.583908 0.129013 0.000000
0.633581 0.129013 0.000000
0.684399 0.129013 0.000000
0.736325 0.129013 0.000000
0.789326 0.129013 0.000000
0.843369 0.129013 0.000000
0.898426 0.129013 0.000000
0.954471 0.129013 0.000000
1.000000 0.129013 0.000000
1.000000 0.129013 0.000000
1.000000 0.129013 0.000000
1.000000 0.129013 0.000000
1.000000 0.129013 0.000000
1.000000 0.129013 0.000000
1.000000 0.129013 0.000000
0.000000 0.161915 0.000000
0.006684 0.161915 0.000000
0.023491 0.161915 0.000000
0.045095 0.161915 0.000000
0.070265 0.161915 0.000000
0.098369 0.161915 0.000000
0.129013 0.161915 0.000000
0.161915 0.161915 0.000000
0.196867 0.161915 0.000000
0.233704 0.161915 0.000000
0.272293 0.161915 0.000000
0.312523 0.161915 0.000000
0.354301 0.161915 0.000000
0.397546 0.161915 0.000000
0.442188 0.161915 0.000000
0.488165 0.161915 0.000000
0.535422 0.161915 0.000000
0.583908 0.161915 0.000000
0.633581 0.161915 0.000000
0.684399 0.161915 0.000000
0.736325 0.161915 0.000000
0.789326 0.161915 0.000000
0.843369 0.161915 0.000000
0.898426 0.161915 0.000000
0.954471 0.161915 0.000000
1.000000 0.161915 0.000000
1.000000 0.161915 0.000000
1.000000 0.161915 0.000000
1.000000 0.161915 0.000000
1.000000 0.161915 0.000000
1.000000 0.161915 0.000000
1.000000 0.161915 0.000000
0.000000 0.196867 0.000000
0.006684 0.196867 0.000000
0.023491 0.196867 0.000000
0.045095 0.196867 0.000000
0.070265 0.196867 0.000000
0.098369 0.196867 0.000000
0.129013 0.196867 0.000000
0.161915 0.196867 0.000000
0.196867 0.196867 0.000000
0.233704 0.196867 0.000000
0.272293 0.196867 0.000000
0.312523 0.196867 0.000000
0.354301 0.196867 0.000000
0.397546 0.196867 0.000000
0.442188 0.196867 0.000000
0.488165 0.196867 0.000000
0.535422 0.196867 0.000000
0.583908 0.196867 0.000000
0.633581 0.196867 0.000000
0.684399 0.196867 0.000000
0.736325 0.196867 0.000000
0.789326 0.196867 0.000000
0.843369 0.196867 0.000000
0.898426 0.196867 0.000000
0.954471 0.196867 0.000000
1.000000 0.196867 0.000000
1.000000 0.196867 0.000000
1.000000 0.196867 0.000000
1.000000 0.196867 0.000000
1.000000 0.196867 0.000000
1.000000 0.196867 0.000000
1.000000 0.196867 0.000000
0.000000 0.233704 0.000000
0.006684 0.233704 0.000000
0.023491 0.233704 0.000000
0.045095 0.233704 0.000000
0.070265 0.233704 0.000000
0.098369 0.233704 0.000000
0.129013 0.233704 0.000000
0.161915 0.233704 0.000000
0.196867 0.233704 0.000000
0.233704 0.233704 0.000000
0.272293 0.233704 0.000000
0.312523 0.233704 0.000000
0.354301 0.233704 0.000000
0.397546 0.233704 0.000000
0.442188 0.233704 0.000000
0.488165 0.233704 0.000000
0.535422 0.233704 0.000000
0.583908 0.233704 0.000000
0.633581 0.233704 0.000000
0.684399 0.233704 0.000000
0.736325 0.233704 0.000000
0.789326 0.233704 0.000000
0.843369 0.233704 0.000000
0.898426 0.233704 0.000000
0.954471 0.233704 0.000000
1.000000 0.233704 0.000000
1.000000 0.233704 0.000000
1.000000 0.233704 0.000000
1.000000 0.233704 0.000000
1.000000 0.233704 0.000000
1.000000 0.233704 0.000000
1.000000 0.233704 0.000000
0.000000 0.272293 0.000000
0.006684 0.272293 0.000000
0.023491 0.272293 0.000000
0.045095 0.272293 0.000000
0.070265 0.272293 0.000000
0.098369 0.272293 0.000000
0.129013 0.272293 0.000000
0.161915 0.272293 0.000000
0.196867 0.272293 0.000000
0.233704 0.272293 0.000000
0.272293 0.272293 0.000000
0.312523 0.272293 0.000000
0.354301 0.272293 0.000000
0.397546 0.272293 0.000000
0.442188 0.272293 0.000000
0.488165 0.272293 0.000000
0.535422 0.272293 0.000000
0.583908 0.272293 0.000000
0.633581 0.272293 0.000000
0.684399 0.272293 0.000000
0.736325 0.272293 0.000000
0.789326 0.272293 0.000000
0.843369 0.272293 0.000000
0.898426 0.272293 0.000000
0.954471 0.272293 0.000000
1.000000 0.272293 0.000000
1.000000 0.272293 0.000000
1.000000 0.272293 0.000000
1.000000 0.272293 0.000000
1.000000 0.272293 0.000000
1.000000 0.272293 0.000000
1.000000 0.272293 0.000000
0.000000 0.312523 0.000000
0.006684 0.312523 0.000000
0.023491 0.312523 0.000000
0.045095 0.312523 0.000000
0.070264 0.312523 0.000000
0.098369 0.312523 0.000000
0.129013 0.312523 0.000000
0.161915 0.312523 0.000000
0.196867 0.312523 0.000000
0.233704 0.312523 0.000000
0.272293 0.312523 0.000000
0.312523 0.312523 0.000000
0.354301 0.312523 0.000000
0.397546 0.312523 0.000000
0.442188 0.312523 0.000000
0.488165 0.312523 0.000000
0.535422 0.312523 0.000000
0.583908 0.312523 0.000000
0.633581 0.312523 0.000000
0.684399 0.312523 0.000000
0.736325 0.312523 0.000000
0.789326 0.312523 0.000000
0.843369 0.312523 0.000000
0.898426 0.312523 0.000000
0.954471 0.312523 0.000000
1.000000 0.312523 0.000000
1.000000 0.312523 0.000000
1.000000 0.312523 0.000000
1.000000 0.312523 0.000000
1.000000 0.312523 0.000000
1.000000 0.312523 0.000000
1.000000 0.312523 0.000000
0.000000 0.354301 0.000000
0.006684 0.354301 0.000000
0.023491 0.354301 0.000000
0.045096 0.354301 0.000000
0.070265 0.354301 0.000000
0.098369 0.354301 0.000000
0.129013 0.354301 0.000000
0.161915 0.354301 0.000000
0.196867 0.354301 0.000000
0.233704 0.354301 0.000000
0.272293 0.354301 0.000000
0.312523 0.354301 0.000000
0.354301 0.354301 0.000000
0.397546 0.354301 0.000000
0.442188 0.354301 0.000000
0.488165 0.354301 0.000000
0.535422 0.354301 0.000000
0.583908 0.354301 0.000000
0.633581 0.354301 0.000000
0.684399 0.354301 0.000000
0.736325 0.354301 0.000000
0.789326 0.354301 0.000000
0.843369 0.354301 0.000000
0.898426 0.354301 0.000000
0.954471 0.354301 0.000000
1.000000 0.354301 0.000000
1.000000 0.354301 0.000000
1.000000 0.354301 0.000000
1.000000 0.354301 0.000000
1.000000 0.354301 0.000000
1.000000 0.354301 0.000000
1.000000 0.354301 0.000000
0.000000 0.397546 0.000000
0.006684 0.397546 0.000000
0.023491 0.397546 0.000000
0.045095 0.397546 0.000000
0.070265 0.397546 0.000000
0.098370 0.397546 0.000000
0.129013 0.397546 0.000000
0.161915 0.397546 0.000000
0.196867 0.397546 0.000000
0.233704 0.397546 0.000000
0.272293 0.397546 0.000000
0.312523 0.397546 0.000000
0.354301 0.397546 0.000000
0.397546 0.397546 0.000000
0.442188 0.397546 0.000000
0.488165 0.397546 0.000000
0.535422 0.397546 0.000000
0.583908 0.397546 0.000000
0.633581 0.397546 0.000000
0.684399 0.397546 0.000000
0.736325 0.397546 0.000000
0.789326 0.397546 0.000000
0.843369 0.397546 0.000000
0.898426 0.397546 0.000000
0.954471 0.397546 0.000000
1.000000 0.397546 0.000000
1.000000 0.397546 0.000000
1.000000 0.397546 0.000000
1.000000 0.397546 0.000000
1.000000 0.397546 0.000000
1.000000 0.397546 0.000000
1.000000 0.397546 0.000000
0.000000 0.442188 0.000000
0.006684 0.442188 0.000000
0.023491 0.442188 0.000000
0.045095 0.442188 0.000000
0.070265 0.442188 0.000000
0.098369 0.442188 0.000000
0.129013 0.442188 0.000000
0.161915 0.442188 0.000000
0.196867 0.442188 0.000000
0.233704 0.442188 0.000000
0.272293 0.442188 0.000000
0.312523 0.442188 0.000000
0.354301 0.442188 0.000000
0.397546 0.442188 0.000000
0.442188 0.442188 0.000000
0.488165 0.442188 0.000000
0.535422 0.442188 0.000000
0.583908 0.442188 0.000000
0.633581 0.442188 0.000000
0.684399 0.442188 0.000000
0.736325 0.442188 0.000000
0.789326 0.442188 0.000000
0.843369 0.442188 0.000000
0.898426 0.442188 0.000000
0.954471 0.442188 0.000000
1.000000 0.442188 0.000000
1.000000 0.442188 0.000000
1.000000 0.442188 0.000000
1.000000 0.442188 0.000000
1.000000 0.442188 0.000000
1.000000 0.442188 0.000000
1.000000 0.442188 0.000000
0.000000 0.488165 0.000000
0.006684 0.488165 0.000000
0.023491 0.488165 0.000000
0.045096 0.488165 0.000000
0.070265 0.488165 0.000000
0.098369 0.488165 0.000000
0.129013 0.488165 0.000000
0.161915 0.488165 0.000000
0.196867 0.488165 0.000000
0.233704 0.488165 0.000000
0.272293 0.488165 0.000000
0.312523 0.488165 0.000000
0.354301 0.488165 0.000000
0.397547 0.488165 0.000000
0.442188 0.488165 0.000000
0.488165 0.488165 0.000000
0.535422 0.488165 0.000000
0.583908 0.488165 0.000000
0.633581 0.488165 0.000000
0.684399 0.488165 0.000000
0.736325 0.488165 0.000000
0.789326 0.488165 0.000000
0.843369 0.488165 0.000000
0.898426 0.488165 0.000000
0.954471 0.488165 0.000000
1.000000 0.488165 0.000000
1.000000 0.488165 0.000000
1.000000 0.488165 0.000000
1.000000 0.488165 0.000000
1.000000 0.488165 0.000000
1.000000 0.488165 0.000000
1.000000 0.488165 0.000000
0.000000 0.535422 0.000000
0.006684 0.535422 0.000000
0.023491 0.535422 0.000000
0.045095 0.535422 0.000000
0.070265 0.535422 0.000000
0.098369 0.535422 0.000000
0.129013 0.535422 0.000000
0.161915 0.535422 0.000000
0.196867 0.535422 0.000000
0.233704 0.535422 0.000000
0.272293 0.535422 0.000000
0.312523 0.535422 0.000000
0.354301 0.535422 0.000000
0.397546 0.535422 0.000000
0.442188 0.535422 0.000000
0.488165 0.535422 0.000000
0.535422 0.535422 0.000000
0.583908 0.535422 0.000000
0.633581 0.535422 0.000000
0.684399 0.535421 0.000000
0.736325 0.535422 0.000000
0.789326 0.535421 0.000000
0.843369 0.535422 0.000000
0.898426 0.535422 0.000000
0.954471 0.535422 0.000000
1.000000 0.535422 0.000000
1.000000 0.535422 0.000000
1.000000 0.535422 0.000000
1.000000 0.535422 0.000000
1.000000 0.535422 0.000000
1.000000 0.535422 0.000000
1.000000 0.535422 0.000000
0.000000 0.583908 0.000000
0.006684 0.583908 0.000000
0.023491 0.583908 0.000000
0.045096 0.583908 0.000000
0.070265 0.583908 0.000000
0.098370 0.583908 0.000000
0.129013 0.583908 0.000000
0.161915 0.583908 0.000000
0.196867 0.583908 0.000000
0.233704 0.583908 0.000000
0.272293 0.583908 0.000000
0.312523 0.583908 0.000000
0.354301 0.583908 0.000000
0.397546 0.583908 0.000000
0.442188 0.583908 0.000000
0.488165 0.583908 0.000000
0.535421 0.583908 0.000000
0.583908 0.583908 0.000000
0.633581 0.583908 0.000000
0.684399 0.583908 0.000000
0.736325 0.583908 0.000000
0.789326 0.583908 0.000000
0.843369 0.583908 0.000000
0.898426 0.583908 0.000000
0.954471 0.583908 0.000000
1.000000 0.583908 0.000000
1.000000 0.583908 0.000000
1.000000 0.583908 0.000000
1.000000 0.583908 0.000000
1.000000 0.583908 0.000000
1.000000 0.583908 0.000000
1.000000 0.583908 0.000000
0.000000 0.633581 0.000000
0.006685 0.633581 0.000000
0.023491 0.633581 0.000000
0.045095 0.633581 0.000000
0.070265 0.633581 0.000000
0.098369 0.633581 0.000000
0.129013 0.633581 0.000000
0.161915 0.633581 0.000000
0.196867 0.633581 0.000000
0.233704 0.633581 0.000000
0.272293 0.633581 0.000000
0.312523 0.633581 0.000000
0.354301 0.633581 0.000000
0.397546 0.633581 0.000000
0.442188 0.633581 0.000000
0.488165 0.633581 0.000000
0.535421 0.633581 0.000000
0.583908 0.633581 0.000000
0.633581 0.633581 0.000000
0.684399 0.633581 0.000000
0.736325 0.633581 0.000000
0.789326 0.633581 0.000000
0.843369 0.633581 0.000000
0.898426 0.633581 0.000000
0.954471 0.633581 0.000000
1.000000 0.633581 0.000000
1.000000 0.633581 0.000000
1.000000 0.633581 0.000000
1.000000 0.633581 0.000000
1.000000 0.633581 0.000000
1.000000 0.633581 0.000000
1.000000 0.633581 0.000000
0.000000 0.684399 0.000000
0.006684 0.684399 0.000000
0.023491 0.684399 0.000000
0.045095 0.684399 0.000000
0.070265 0.684399 0.000000
0.098369 0.684399 0.000000
0.129013 0.684399 0.000000
0.161915 0.684399 0.000000
0.196867 0.684399 0.000000
0.233704 0.684399 0.000000
0.272293 0.684399 0.000000
0.312523 0.684399 0.000000
0.354301 0.684399 0.000000
0.397547 0.684399 0.000000
0.442188 0.684399 0.000000
0.488165 0.684399 0.000000
0.535421 0.684399 0.000000
0.583908 0.684399 0.000000
0.633581 0.684399 0.000000
0.684399 0.684399 0.000000
0.736325 0.684399 0.000000
0.789326 0.684399 0.000000
0.843369 0.684399 0.000000
0.898426 0.684399 0.000000
0.954471 0.684399 0.000000
1.000000 0.684399 0.000000
1.000000 0.684399 0.000000
1.000000 0.684399 0.000000
1.000000 0.684399 0.000000
1.000000 0.684399 0.000000
1.000000 0.684399 0.000000
1.000000 0.684399 0.000000
0.000000 0.736325 0.000000
0.006684 0.736325 0.000000
0.023491 0.736325 0.000000
0.045096 0.736325 0.000000
0.070265 0.736325 0.000000
0.098369 0.736325 0.000000
0.129013 0.736325 0.000000
0.161915 0.736325 0.000000
0.196867 0.736325 0.000000
0.233704 0.736325 0.000000
0.272293 0.736325 0.000000
0.312523 0.736325 0.000000
0.354301 0.736325 0.000000
0.397546 0.736325 0.000000
0.442188 0.736325 0.000000
0.488165 0.736325 0.000000
0.535421 0.736325 0.000000
0.583908 0.736325 0.000000
0.633581 0.736325 0.000000
0.684399 0.736325 0.000000
0.736325 0.736325 0.000000
0.789326 0.736325 0.000000
0.843369 0.736325 0.000000
0.898426 0.736325 0.000000
0.954471 0.736325 0.000000
1.000000 0.736325 0.000000
1.000000 0.736325 0.000000
1.000000 0.736325 0.000000
1.000000 0.736325 0.000000
1.000000 0.736325 0.000000
1.000000 0.736325 0.000000
1.000000 0.736325 0.000000
0.000000 0.789326 0.000000
0.006684 0.789326 0.000000
0.023491 0.789326 0.000000
0.045095 0.789326 0.000000
0.070265 0.789326 0.000000
0.098369 0.789326 0.000000
0.129013 0.789326 0.000000
0.161915 0.789326 0.000000
0.196867 0.789326 0.000000
0.233704 0.789326 0.000000
0.272293 0.789326 0.000000
0.312523 0.789326 0.000000
0.354301 0.789326 0.000000
0.397547 0.789326 0.000000
0.442188 0.789326 0.000000
0.488165 0.789326 0.000000
0.535421 0.789326 0.000000
0.583908 0.789326 0.000000
0.633581 0.789326 0.000000
0.684399 0.789326 0.000000
0.736325 0.789326 0.000000
0.789326 0.789326 0.000000
0.843369 0.789326 0.000000
0.898426 0.789326 0.000000
0.954471 0.789326 0.000000
1.000000 0.789326 0.000000
1.000000 0.789326 0.000000
1.000000 0.789326 0.000000
1.000000 0.789326 0.000000
1.000000 0.789326 0.000000
1.000000 0.789326 0.000000
1.000000 0.789326 0.000000
0.000000 0.843369 0.000000
0.006685 0.843369 0.000000
0.023491 0.843369 0.000000
0.045096 0.843369 0.000000
0.070264 0.843369 0.000000
0.098369 0.843369 0.000000
0.129013 0.843369 0.000000
0.161915 0.843369 0.000000
0.196867 0.843369 0.000000
0.233704 0.843369 0.000000
0.272293 0.843369 0.000000
0.312523 0.843369 0.000000
0.354301 0.843369 0.000000
0.397546 0.843369 0.000000
0.442188 0.843369 0.000000
0.488165 0.843369 0.000000
0.535422 0.843369 0.000000
0.583908 0.843369 0.000000
0.633581 0.843369 0.000000
0.684399 0.843369 0.000000
0.736325 0.843369 0.000000
0.789326 0.843369 0.000000
0.843369 0.843369 0.000000
0.898426 0.843369 0.000000
0.954471 0.843369 0.000000
1.000000 0.843369 0.000000
1.000000 0.843369 0.000000
1.000000 0.843369 0.000000
1.000000 0.843369 0.000000
1.000000 0.843369 0.000000
1.000000 0.843369 0.000000
1.000000 0.843369 0.000000
0.000000 0.898426 0.000000
0.006684 0.898426 0.000000
0.023491 0.898426 0.000000
0.045095 0.898426 0.000000
0.070265 0.898426 0.000000
0.098370 0.898426 0.000000
0.129013 0.898426 0.000000
0.161915 0.898426 0.000000
0.196867 0.898426 0.000000
0.233704 0.898426 0.000000
0.272293 0.898426 0.000000
0.312523 0.898426 0.000000
0.354301 0.898426 0.000000
0.397546 0.898426 0.000000
0.442188 0.898426 0.000000
0.488165 0.898426 0.000000
0.535422 0.898426 0.000000
0.583908 0.898426 0.000000
0.633581 0.898426 0.000000
0.684399 0.898426 0.000000
0.736325 0.898426 0.000000
0.789326 0.898426 0.000000
0.843369 0.898426 0.000000
0.898426 0.898426 0.000000
0.954471 0.898426 0.000000
1.000000 0.898426 0.000000
1.000000 0.898426 0.000000
1.000000 0.898426 0.000000
1.000000 0.898426 0.000000
1.000000 0.898426 0.000000
1.000000 0.898426 0.000000
1.000000 0.898426 0.000000
0.000000 0.954471 0.000000
0.006685 0.954471 0.000000
0.023491 0.954471 0.000000
0.045095 0.954471 0.000000
0.070265 0.954471 0.000000
0.098370 0.954471 0.000000
0.129013 0.954471 0.000000
0.161915 0.954471 0.000000
0.196867 0.954471 0.000000
0.233704 0.954471 0.000000
0.272293 0.954471 0.000000
0.312523 0.954471 0.000000
0.354301 0.954471 0.000000
0.397546 0.954471 0.000000
0.442188 0.954471 0.000000
0.488165 0.954471 0.000000
0.535422 0.954471 0.000000
0.583908 0.954471 0.000000
0.633581 0.954471 0.000000
0.684399 0.954471 0.000000
0.736325 0.954471 0.000000
0.789326 0.954471 0.000000
0.843369 0.954471 0.000000
0.898426 0.954471 0.000000
0.954471 0.954471 0.000000
1.000000 0.954471 0.000000
1.000000 0.954471 0.000000
1.000000 0.954471 0.000000
1.000000 0.954471 0.000000
1.000000 0.954471 0.000000
1.000000 0.954471 0.000000
1.000000 0.954471 0.000000
0.000000 1.000000 0.000000
0.006684 1.000000 0.000000
0.023491 1.000000 0.000000
0.045095 1.000000 0.000000
0.070265 1.000000 0.000000
0.098369 1.000000 0.000000
0.129013 1.000000 0.000000
0.161915 1.000000 0.000000
0.196867 1.000000 0.000000
0.233704 1.000000 0.000000
0.272293 1.000000 0.000000
0.312523 1.000000 0.000000
0.354302 1.000000 0.000000
0.397547 1.000000 0.000000
0.442188 1.000000 0.000000
0.488165 1.000000 0.000000
0.535421 1.000000 0.000000
0.583909 1.000000 0.000000
0.633581 1.000000 0.000000
0.684399 1.000000 0.000000
0.736325 1.000000 0.000000
0.789326 1.000000 0.000000
0.843369 1.000000 0.000000
0.898427 1.000000 0.000000
0.954471 1.000000 0.000000
1.000000 1.000000 0.000000
1.000000 1.000000 0.000000
1.000000 1.000000 0.000000
1.000000 1.000000 0.000000
1.000000 1.000000 0.000000
1.000000 1.000000 0.000000
1.000000 1.000000 0.000000
0.000000 1.000000 0.000000
0.006684 1.000000 0.000000
0.023491 1.000000 0.000000
0.045095 1.000000 0.000000
0.070265 1.000000 0.000000
0.098369 1.000000 0.000000
0.129013 1.000000 0.000000
0.161915 1.000000 0.000000
0.196867 1.000000 0.000000
0.233704 1.000000 0.000000
0.272293 1.000000 0.000000
0.312523 1.000000 0.000000
0.354302 1.000000 0.000000
0.397547 1.000000 0.000000
0.442188 1.000000 0.000000
0.488165 1.000000 0.000000
0.535421 1.000000 0.000000
0.583909 1.000000 0.000000
0.633581 1.000000 0.000000
0.684399 1.000000 0.000000
0.736325 1.000000 0.000000
0.789326 1.000000 0.000000
0.843369 1.000000 0.000000
0.898427 1.000000 0.000000
0.954471 1.000000 0.000000
1.000000 1.000000 0.000000
1.000000 1.000000 0.000000
1.000000 1.000000 0.000000
1.000000 1.000000 0.000000
1.000000 1.000000 0.000000
1.000000 1.000000 0.000000
1.000000 1.000000 0.000000
0.000000 1.000000 0.000000
0.006684 1.000000 0.000000
0.023491 1.000000 0.000000
0.045095 1.000000 0.000000
0.070265 1.000000 0.000000
0.098369 1.000000 0.000000
0.129013 1.000000 0.000000
0.161915 1.000000 0.000000
0.196867 1.000000 0.000000
0.233704 1.000000 0.000000
0.272293 1.000000 0.000000
0.312523 1.000000 0.000000
0.354302 1.000000 0.000000
0.397547 1.000000 0.000000
0.442188 1.000000 0.000000
0.488165 1.000000 0.000000
0.535421 1.000000 0.000000
0.583909 1.000000 0.000000
