HDR2SDR_04_BL3.cube
#Created by: Affinity Photo (Serif Europe Ltd.)
TITLE "HDR2SDR_04_BL3"
#LUT size
LUT_3D_SIZE 5
#data domain
DOMAIN_MIN 0.0 0.0 0.0
DOMAIN_MAX 1.0 1.0 1.0
#LUT data points
0.000000 0.000000 0.000000
0.350000 0.000000 0.000000
0.700000 0.000000 0.000000
1.000000 0.000000 0.000000
1.000000 0.000000 0.000001
0.000000 0.350000 0.000000
0.350000 0.350000 0.000000
0.700000 0.350000 0.000000
1.000000 0.350000 0.000000
1.000000 0.350000 0.000000
0.000000 0.700000 0.000000
0.350000 0.700000 0.000000
0.700000 0.700000 0.000000
1.000000 0.700000 0.000000
1.000000 0.700000 0.000000
0.000000 1.000000 0.000000
0.350000 1.000000 0.000000
0.700000 1.000000 0.000000
1.000000 1.000000 0.000000
1.000000 1.000000 0.000000
0.000000 1.000000 0.000000
0.350000 1.000000 0.000000
0.700000 1.000000 0.000000
1.000000 1.000000 0.000000
1.000000 1.000000 0.000000
0.000000 0.000000 0.350000
0.350000 0.000000 0.350000
0.700000 0.000000 0.350000
1.000000 0.000000 0.350001
1.000000 0.000000 0.350000
0.000000 0.350000 0.350000
0.350000 0.350000 0.350000
0.743750 0.306250 0.306250
1.000000 0.262500 0.262500
1.000000 0.350000 0.350000
0.000000 0.700000 0.350000
0.306250 0.743750 0.306250
0.743750 0.743750 0.306250
1.000000 0.700000 0.262500
1.000000 0.700000 0.350000
0.000000 1.000000 0.350000
0.262500 1.000000 0.262500
0.700000 1.000000 0.262500
1.000000 1.000000 0.262500
1.000000 1.000000 0.350000
0.000000 1.000000 0.350000
0.350000 1.000000 0.350000
0.700000 1.000000 0.350000
1.000000 1.000000 0.350000
1.000000 1.000000 0.350000
0.000000 0.000000 0.700000
0.350000 0.000000 0.700000
0.700000 0.000000 0.700000
1.000000 0.000000 0.700000
1.000000 0.000000 0.700000
0.000000 0.350000 0.700000
0.306250 0.306250 0.743750
0.743750 0.306250 0.743750
1.000000 0.262500 0.700000
1.000000 0.350000 0.700000
0.000000 0.700000 0.700000
0.306250 0.743750 0.743750
0.700000 0.700000 0.700000
1.000000 0.656250 0.656250
1.000000 0.700000 0.700000
0.000000 1.000000 0.700000
0.262500 1.000000 0.700000
0.656250 1.000000 0.656250
1.000000 1.000000 0.656250
1.000000 1.000000 0.700000
0.000000 1.000000 0.700000
0.350000 1.000000 0.700000
0.700000 1.000000 0.700000
1.000000 1.000000 0.700000
1.000000 1.000000 0.700000
0.000000 0.000000 1.000000
0.350000 0.000000 1.000000
0.700000 0.000000 1.000000
1.000000 0.000000 1.000000
1.000000 0.000000 1.000000
0.000000 0.350000 1.000000
0.262500 0.262500 1.000000
0.700000 0.262500 1.000000
1.000000 0.262500 1.000000
1.000000 0.350000 1.000000
0.000000 0.700000 1.000000
0.262500 0.700000 1.000000
0.656250 0.656250 1.000000
1.000000 0.656250 1.000000
1.000000 0.700000 1.000000
0.000000 1.000000 1.000000
0.262500 1.000000 1.000000
0.656250 1.000000 1.000000
1.000000 1.000000 1.000000
1.000000 1.000000 1.000000
0.000000 1.000000 1.000000
0.350000 1.000000 1.000000
0.700000 1.000000 1.000000
1.000000 1.000000 1.000000
1.000000 1.000000 1.000000
0.000000 0.000000 1.000000
0.350000 0.000000 1.000000
0.700000 0.000000 1.000000
1.000000 0.000000 1.000000
1.000000 0.000000 1.000000
0.000000 0.350000 1.000000
0.350000 0.350000 1.000000
0.700000 0.350000 1.000000
1.000000 0.350000 1.000000
1.000000 0.350000 1.000000
0.000000 0.700000 1.000000
0.350000 0.700000 1.000000
0.700000 0.700000 1.000000
1.000000 0.700000 1.000000
1.000000 0.700000 1.000000
0.000000 1.000000 1.000000
0.350000 1.000000 1.000000
0.700000 1.000000 1.000000
1.000000 1.000000 1.000000
1.000000 1.000000 1.000000
0.000000 1.000000 1.000000
0.350000 1.000000 1.000000
0.700000 1.000000 1.000000
1.000000 1.000000 1.000000
1.000000 1.000000 1.000000
