HDR2SDR_general.cube
#Created by: Affinity Photo (Serif Europe Ltd.)
TITLE "HDR2SDR_general"
#LUT size
LUT_3D_SIZE 5
#data domain
#LUT data points
DOMAIN_MIN 0.000000 0.000000 0.000000
DOMAIN_MAX 0.903226 0.903226 0.903226
0.000000 0.000000 0.000000
0.290628 0.000000 0.000000
0.594724 0.000000 0.000000
0.898820 0.000000 0.000000
1.000000 0.000000 0.000000
0.000000 0.290628 0.000000
0.290628 0.290628 0.000000
0.594724 0.290628 0.000000
0.898820 0.290628 0.000000
1.000000 0.290628 0.000000
0.000000 0.594724 0.000000
0.290628 0.594724 0.000000
0.594724 0.594724 0.000000
0.898820 0.594724 0.000000
1.000000 0.594724 0.000000
0.000000 0.898820 0.000000
0.290628 0.898820 0.000000
0.594724 0.898820 0.000000
0.898820 0.898820 0.000000
1.000000 0.898820 0.000000
0.000000 1.000000 0.000000
0.290629 1.000000 0.000000
0.594724 1.000000 0.000000
0.898819 1.000000 0.000000
1.000000 1.000000 0.000000
0.000000 0.000000 0.290628
0.290628 0.000000 0.290628
0.594724 0.000000 0.290628
0.898820 0.000000 0.290629
1.000000 0.000000 0.290629
0.000000 0.290628 0.290628
0.290628 0.290628 0.290628
0.676623 0.208729 0.208729
1.000000 0.126830 0.126830
1.000000 0.160302 0.160302
0.000000 0.594724 0.290628
0.208729 0.676623 0.208729
0.676623 0.676623 0.208729
1.000000 0.594724 0.126830
1.000000 0.551282 0.160302
0.000000 0.898820 0.290628
0.126830 1.000000 0.126830
0.594724 1.000000 0.126830
1.000000 1.000000 0.126830
1.000000 0.942262 0.160302
0.000000 1.000000 0.290628
0.160302 1.000000 0.160302
0.551282 1.000000 0.160302
0.942262 1.000000 0.160302
1.000000 1.000000 0.160302
0.000000 0.000000 0.594724
0.290629 0.000000 0.594724
0.594724 0.000000 0.594724
0.898820 0.000000 0.594724
1.000000 0.000000 0.594724
0.000000 0.290629 0.594724
0.208729 0.208729 0.676623
0.676623 0.208729 0.676623
1.000000 0.126830 0.594724
1.000000 0.160302 0.551282
0.000000 0.594724 0.594724
0.208729 0.676623 0.676623
0.594724 0.594724 0.594724
0.980719 0.512825 0.512825
1.000000 0.464397 0.464398
0.000000 0.898820 0.594724
0.126830 1.000000 0.594724
0.512825 0.980719 0.512825
0.980719 0.980719 0.512825
1.000000 0.898819 0.464397
0.000000 1.000000 0.594724
0.160302 1.000000 0.551282
0.464397 1.000000 0.464397
0.898819 1.000000 0.464397
1.000000 1.000000 0.464397
0.000000 0.000000 0.898820
0.290629 0.000000 0.898820
0.594724 0.000000 0.898820
0.898819 0.000000 0.898820
1.000000 0.000000 0.898820
0.000000 0.290629 0.898820
0.126830 0.126830 1.000000
0.594724 0.126830 1.000000
1.000000 0.126830 1.000000
1.000000 0.160302 0.942262
0.000000 0.594724 0.898820
0.126830 0.594724 1.000000
0.512825 0.512825 0.980719
0.980719 0.512825 0.980719
1.000000 0.464397 0.898819
0.000000 0.898820 0.898819
0.126830 1.000000 1.000000
0.512825 0.980719 0.980719
0.898820 0.898820 0.898820
1.000000 0.816920 0.816920
0.000000 1.000000 0.898819
0.160302 1.000000 0.942262
0.464397 1.000000 0.898819
0.816920 1.000000 0.816920
1.000000 1.000000 0.816920
0.000000 0.000000 1.000000
0.290628 0.000000 1.000000
0.594724 0.000000 1.000000
0.898819 0.000000 1.000000
1.000000 0.000000 1.000000
0.000000 0.290629 1.000000
0.160302 0.160302 1.000000
0.551282 0.160302 1.000000
0.942262 0.160302 1.000000
1.000000 0.160302 1.000000
0.000000 0.594724 1.000000
0.160302 0.551282 1.000000
0.464397 0.464397 1.000000
0.898820 0.464397 1.000000
1.000000 0.464397 1.000000
0.000000 0.898819 1.000000
0.160302 0.942262 1.000000
0.464397 0.898820 1.000000
0.816920 0.816920 1.000000
1.000000 0.816920 1.000000
0.000000 1.000000 1.000000
0.160302 1.000000 1.000000
0.464397 1.000000 1.000000
0.816920 1.000000 1.000000
1.000000 1.000000 1.000000
