HDR2SDR_02_WF.cube
#Created by: Affinity Photo (Serif Europe Ltd.)
TITLE "HDR2SDR_02_WF"
#LUT size
LUT_3D_SIZE 9
#data domain
DOMAIN_MIN 0.0 0.0 0.0
DOMAIN_MAX 1.0 1.0 1.0
#LUT data points
0.000000 0.000000 0.000000
0.073940 0.000000 0.000000
0.195544 0.000000 0.000000
0.345391 0.000000 0.000000
0.517139 0.000000 0.000000
0.707258 0.000000 0.000000
0.913427 0.000000 0.000000
1.000000 0.000000 0.000000
1.000000 0.000000 0.000000
0.000000 0.073940 0.000000
0.073940 0.073940 0.000000
0.195544 0.073940 0.000000
0.345391 0.073940 0.000000
0.517139 0.073940 0.000000
0.707258 0.073940 0.000000
0.913427 0.073940 0.000000
1.000000 0.073940 0.000000
1.000000 0.073940 0.000000
0.000000 0.195544 0.000000
0.073940 0.195544 0.000000
0.195544 0.195544 0.000000
0.345391 0.195544 0.000000
0.517139 0.195544 0.000000
0.707258 0.195544 0.000000
0.913427 0.195544 0.000000
1.000000 0.195544 0.000000
1.000000 0.195544 0.000000
0.000000 0.345391 0.000000
0.073940 0.345391 0.000000
0.195544 0.345391 0.000000
0.345391 0.345391 0.000000
0.517139 0.345391 0.000000
0.707258 0.345391 0.000000
0.913427 0.345391 0.000000
1.000000 0.345391 0.000000
1.000000 0.345391 0.000000
0.000000 0.517139 0.000000
0.073940 0.517139 0.000000
0.195544 0.517139 0.000000
0.345391 0.517139 0.000000
0.517139 0.517139 0.000000
0.707258 0.517139 0.000000
0.913427 0.517139 0.000000
1.000000 0.517139 0.000000
1.000000 0.517139 0.000000
0.000000 0.707258 0.000000
0.073940 0.707258 0.000000
0.195544 0.707258 0.000000
0.345391 0.707258 0.000000
0.517139 0.707258 0.000000
0.707258 0.707258 0.000000
0.913427 0.707258 0.000000
1.000000 0.707258 0.000000
1.000000 0.707258 0.000000
0.000000 0.913427 0.000000
0.073940 0.913427 0.000000
0.195544 0.913427 0.000000
0.345391 0.913427 0.000000
0.517139 0.913427 0.000000
0.707258 0.913427 0.000000
0.913427 0.913427 0.000000
1.000000 0.913427 0.000000
1.000000 0.913427 0.000000
0.000000 1.000000 0.000000
0.073940 1.000000 0.000000
0.195544 1.000000 0.000000
0.345391 1.000000 0.000000
0.517139 1.000000 0.000000
0.707258 1.000000 0.000000
0.913427 1.000000 0.000000
1.000000 1.000000 0.000000
1.000000 1.000000 0.000000
0.000000 1.000000 0.000000
0.073940 1.000000 0.000000
0.195544 1.000000 0.000000
0.345391 1.000000 0.000000
0.517139 1.000000 0.000000
0.707258 1.000000 0.000000
0.913427 1.000000 0.000000
1.000000 1.000000 0.000000
1.000000 1.000000 0.000000
0.000000 0.000000 0.073940
0.073940 0.000000 0.073940
0.195544 0.000000 0.073940
0.345391 0.000000 0.073940
0.517139 0.000000 0.073940
0.707258 0.000000 0.073940
0.913427 0.000000 0.073940
1.000000 0.000000 0.073940
1.000000 0.000000 0.073940
0.000000 0.073940 0.073940
0.073940 0.073940 0.073940
0.236078 0.033406 0.033406
0.419331 0.000000 0.000000
0.591079 0.000000 0.000000
0.781198 0.000000 0.000000
0.987367 0.000000 0.000000
1.000000 0.073940 0.073940
1.000000 0.073940 0.073940
0.000000 0.195544 0.073940
0.033406 0.236078 0.033406
0.236078 0.236078 0.033406
0.419331 0.187850 0.000000
0.591079 0.162178 0.000000
0.781198 0.149998 0.000000
0.987367 0.143025 0.000000
1.000000 0.195544 0.073940
1.000000 0.195544 0.073940
0.000000 0.345391 0.073940
0.000000 0.419331 0.000000
0.187850 0.419331 0.000000
0.419331 0.419331 0.000000
0.591079 0.362024 0.000000
0.781198 0.334834 0.000000
0.987367 0.319268 0.000000
1.000000 0.345391 0.073940
1.000000 0.345391 0.073940
0.000000 0.517139 0.073940
0.000000 0.591079 0.000000
0.162178 0.591079 0.000000
0.362024 0.591079 0.000000
0.591079 0.591079 0.000000
0.781198 0.546686 0.000000
0.987367 0.521271 0.000000
1.000000 0.517139 0.073940
1.000000 0.517139 0.073940
0.000000 0.707258 0.073940
0.000000 0.781198 0.000000
0.149998 0.781198 0.000000
0.334835 0.781198 0.000000
0.546686 0.781198 0.000000
0.781198 0.781198 0.000000
0.987367 0.744880 0.000000
1.000000 0.707258 0.073940
1.000000 0.707258 0.073940
0.000000 0.913427 0.073940
0.000000 0.987367 0.000000
0.143025 0.987367 0.000000
0.319268 0.987367 0.000000
0.521271 0.987367 0.000000
0.744880 0.987367 0.000000
0.987368 0.987367 0.000000
1.000000 0.913427 0.073940
1.000000 0.913427 0.073940
0.000000 1.000000 0.073940
0.073940 1.000000 0.073940
0.195544 1.000000 0.073940
0.345391 1.000000 0.073940
0.517139 1.000000 0.073940
0.707258 1.000000 0.073940
0.913427 1.000000 0.073940
1.000000 1.000000 0.073940
1.000000 1.000000 0.073940
0.000000 1.000000 0.073940
0.073940 1.000000 0.073940
0.195544 1.000000 0.073940
0.345391 1.000000 0.073940
0.517139 1.000000 0.073940
0.707258 1.000000 0.073940
0.913427 1.000000 0.073940
1.000000 1.000000 0.073940
1.000000 1.000000 0.073940
0.000000 0.000000 0.195544
0.073940 0.000000 0.195544
0.195544 0.000000 0.195544
0.345391 0.000000 0.195544
0.517139 0.000000 0.195544
0.707258 0.000000 0.195543
0.913427 0.000000 0.195544
1.000000 0.000000 0.195543
1.000000 0.000000 0.195543
0.000000 0.073940 0.195544
0.033406 0.033406 0.236078
0.236078 0.033406 0.236078
0.419331 0.000000 0.187851
0.591079 0.000000 0.162179
0.781198 0.000000 0.149998
0.987367 0.000000 0.143025
1.000000 0.073940 0.195544
1.000000 0.073940 0.195544
0.000000 0.195544 0.195544
0.033406 0.236078 0.236078
0.195544 0.195544 0.195544
0.395340 0.145595 0.145595
0.624337 0.088345 0.088345
0.877829 0.024972 0.024973
1.000000 0.108971 0.108971
1.000000 0.195544 0.195544
1.000000 0.195544 0.195544
0.000000 0.345391 0.195544
0.000000 0.419331 0.187850
0.145595 0.395340 0.145595
0.395340 0.395340 0.145595
0.624337 0.338090 0.088345
0.877829 0.274717 0.024972
1.000000 0.294959 0.108971
1.000000 0.345391 0.195544
1.000000 0.345391 0.195544
0.000000 0.517139 0.195544
0.000000 0.591079 0.162178
0.088345 0.624337 0.088345
0.338090 0.624337 0.088345
0.624337 0.624337 0.088345
0.877829 0.560964 0.024972
1.000000 0.508131 0.108971
1.000000 0.517139 0.195544
1.000000 0.517139 0.195544
0.000000 0.707258 0.195544
0.000000 0.781198 0.149998
0.024972 0.877829 0.024972
0.274717 0.877829 0.024972
0.560964 0.877829 0.024972
0.877829 0.877829 0.024972
1.000000 0.744105 0.108971
1.000000 0.707258 0.195544
1.000000 0.707258 0.195544
0.000000 0.913427 0.195544
0.000000 0.987367 0.143025
0.108971 1.000000 0.108971
0.294959 1.000000 0.108971
0.508131 1.000000 0.108971
0.744105 1.000000 0.108971
1.000000 1.000000 0.108971
1.000000 0.913427 0.195544
1.000000 0.913427 0.195544
0.000000 1.000000 0.195543
0.073940 1.000000 0.195544
0.195544 1.000000 0.195544
0.345390 1.000000 0.195544
0.517139 1.000000 0.195544
0.707258 1.000000 0.195544
0.913427 1.000000 0.195544
1.000000 1.000000 0.195544
1.000000 1.000000 0.195544
0.000000 1.000000 0.195543
0.073940 1.000000 0.195544
0.195544 1.000000 0.195544
0.345390 1.000000 0.195544
0.517139 1.000000 0.195544
0.707258 1.000000 0.195544
0.913427 1.000000 0.195544
1.000000 1.000000 0.195544
1.000000 1.000000 0.195544
0.000000 0.000000 0.345391
0.073940 0.000000 0.345391
0.195544 0.000000 0.345391
0.345390 0.000000 0.345391
0.517139 0.000000 0.345391
0.707258 0.000000 0.345391
0.913427 0.000000 0.345391
1.000000 0.000000 0.345391
1.000000 0.000000 0.345391
0.000000 0.073940 0.345391
0.000000 0.000000 0.419331
0.187850 0.000000 0.419331
0.419331 0.000000 0.419331
0.591079 0.000000 0.362024
0.781198 0.000000 0.334835
0.987367 0.000000 0.319268
1.000000 0.073940 0.345391
1.000000 0.073940 0.345391
0.000000 0.195544 0.345391
0.000000 0.187851 0.419331
0.145595 0.145595 0.395340
0.395339 0.145595 0.395340
0.624337 0.088345 0.338090
0.877829 0.024972 0.274717
1.000000 0.108971 0.294959
1.000000 0.195544 0.345391
1.000000 0.195544 0.345391
0.000000 0.345391 0.345391
0.000000 0.419331 0.419331
0.145595 0.395340 0.395340
0.345391 0.345391 0.345391
0.574388 0.288141 0.288141
0.827881 0.224768 0.224768
1.000000 0.258818 0.258818
1.000000 0.345391 0.345391
1.000000 0.345391 0.345391
0.000000 0.517139 0.345390
0.000000 0.591079 0.362024
0.088345 0.624337 0.338090
0.288141 0.574388 0.288141
0.574388 0.574388 0.288141
0.827881 0.511015 0.224768
1.000000 0.482917 0.258818
1.000000 0.517139 0.345391
1.000000 0.517139 0.345391
0.000000 0.707258 0.345391
0.000000 0.781198 0.334834
0.024972 0.877829 0.274717
0.224768 0.827881 0.224768
0.511015 0.827881 0.224768
0.827881 0.827881 0.224768
1.000000 0.730987 0.258818
1.000000 0.707258 0.345391
1.000000 0.707258 0.345391
0.000000 0.913427 0.345391
0.000000 0.987367 0.319268
0.108971 1.000000 0.294959
0.258818 1.000000 0.258818
0.482917 1.000000 0.258818
0.730987 1.000000 0.258818
1.000000 1.000000 0.258818
1.000000 0.913427 0.345391
1.000000 0.913427 0.345391
0.000000 1.000000 0.345391
0.073940 1.000000 0.345391
0.195544 1.000000 0.345391
0.345391 1.000000 0.345391
0.517139 1.000000 0.345391
0.707258 1.000000 0.345391
0.913427 1.000000 0.345391
1.000000 1.000000 0.345391
1.000000 1.000000 0.345391
0.000000 1.000000 0.345391
0.073940 1.000000 0.345391
0.195544 1.000000 0.345391
0.345391 1.000000 0.345391
0.517139 1.000000 0.345391
0.707258 1.000000 0.345391
0.913427 1.000000 0.345391
1.000000 1.000000 0.345391
1.000000 1.000000 0.345391
0.000000 0.000000 0.517139
0.073940 0.000000 0.517139
0.195544 0.000000 0.517139
0.345391 0.000000 0.517139
0.517139 0.000000 0.517139
0.707258 0.000000 0.517139
0.913427 0.000000 0.517139
1.000000 0.000000 0.517139
1.000000 0.000000 0.517139
0.000000 0.073940 0.517139
0.000000 0.000000 0.591079
0.162179 0.000000 0.591079
0.362024 0.000000 0.591079
0.591079 0.000000 0.591079
0.781198 0.000000 0.546686
0.987367 0.000000 0.521271
1.000000 0.073940 0.517139
1.000000 0.073940 0.517139
0.000000 0.195544 0.517139
0.000000 0.162179 0.591079
0.088345 0.088345 0.624337
0.338090 0.088345 0.624337
0.624337 0.088345 0.624337
0.877829 0.024972 0.560964
1.000000 0.108971 0.508132
1.000000 0.195544 0.517139
1.000000 0.195544 0.517139
0.000000 0.345391 0.517139
0.000000 0.362024 0.591079
0.088345 0.338090 0.624337
0.288141 0.288141 0.574388
0.574388 0.288141 0.574388
0.827881 0.224768 0.511015
1.000000 0.258818 0.482917
1.000000 0.345391 0.517139
1.000000 0.345391 0.517139
0.000000 0.517139 0.517139
0.000000 0.591079 0.591079
0.088345 0.624337 0.624337
0.288141 0.574388 0.574388
0.517139 0.517139 0.517139
0.770631 0.453766 0.453766
1.000000 0.430566 0.430566
1.000000 0.517139 0.517139
1.000000 0.517139 0.517139
0.000000 0.707258 0.517139
0.000000 0.781198 0.546686
0.024972 0.877829 0.560964
0.224768 0.827881 0.511015
0.453766 0.770631 0.453766
0.770631 0.770631 0.453766
1.000000 0.703752 0.430566
1.000000 0.707258 0.517139
1.000000 0.707258 0.517139
0.000000 0.913427 0.517139
0.000000 0.987367 0.521270
0.108971 1.000000 0.508131
0.258818 1.000000 0.482917
0.430566 1.000000 0.430566
0.703752 1.000000 0.430566
1.000000 1.000000 0.430566
1.000000 0.913427 0.517139
1.000000 0.913427 0.517139
0.000000 1.000000 0.517139
0.073940 1.000000 0.517139
0.195544 1.000000 0.517139
0.345391 1.000000 0.517139
0.517139 1.000000 0.517139
0.707258 1.000000 0.517139
0.913427 1.000000 0.517139
1.000000 1.000000 0.517139
1.000000 1.000000 0.517139
0.000000 1.000000 0.517139
0.073940 1.000000 0.517139
0.195544 1.000000 0.517139
0.345391 1.000000 0.517139
0.517139 1.000000 0.517139
0.707258 1.000000 0.517139
0.913427 1.000000 0.517139
1.000000 1.000000 0.517139
1.000000 1.000000 0.517139
0.000000 0.000000 0.707258
0.073940 0.000000 0.707258
0.195544 0.000000 0.707258
0.345391 0.000000 0.707258
0.517139 0.000000 0.707258
0.707258 0.000000 0.707258
0.913427 0.000000 0.707258
1.000000 0.000000 0.707258
1.000000 0.000000 0.707258
0.000000 0.073940 0.707258
0.000000 0.000000 0.781198
0.149998 0.000000 0.781198
0.334834 0.000000 0.781198
0.546686 0.000000 0.781198
0.781198 0.000000 0.781198
0.987367 0.000000 0.744880
1.000000 0.073940 0.707258
1.000000 0.073940 0.707258
0.000000 0.195544 0.707258
0.000000 0.149998 0.781198
0.024972 0.024972 0.877829
0.274717 0.024972 0.877829
0.560964 0.024972 0.877829
0.877829 0.024972 0.877829
1.000000 0.108971 0.744105
1.000000 0.195544 0.707259
1.000000 0.195544 0.707259
0.000000 0.345391 0.707258
0.000000 0.334835 0.781198
0.024972 0.274717 0.877829
0.224768 0.224768 0.827881
0.511015 0.224768 0.827881
0.827880 0.224768 0.827881
1.000000 0.258818 0.730987
1.000000 0.345391 0.707258
1.000000 0.345391 0.707258
0.000000 0.517139 0.707258
0.000000 0.546686 0.781198
0.024972 0.560964 0.877829
0.224768 0.511015 0.827881
0.453766 0.453766 0.770631
0.770631 0.453766 0.770631
1.000000 0.430566 0.703752
1.000000 0.517139 0.707258
1.000000 0.517139 0.707258
0.000000 0.707258 0.707258
0.000000 0.781198 0.781198
0.024972 0.877829 0.877829
0.224768 0.827881 0.827880
0.453766 0.770631 0.770631
0.707258 0.707258 0.707258
0.982150 0.638535 0.638535
1.000000 0.707258 0.707258
1.000000 0.707258 0.707258
0.000000 0.913427 0.707258
0.000000 0.987367 0.744880
0.108971 1.000000 0.744105
0.258818 1.000000 0.730987
0.430566 1.000000 0.703752
0.638535 0.982150 0.638535
0.982151 0.982150 0.638535
1.000000 0.913427 0.707258
1.000000 0.913427 0.707258
0.000000 1.000000 0.707258
0.073940 1.000000 0.707258
0.195544 1.000000 0.707258
0.345391 1.000000 0.707258
0.517139 1.000000 0.707258
0.707258 1.000000 0.707258
0.913427 1.000000 0.707258
1.000000 1.000000 0.707258
1.000000 1.000000 0.707258
0.000000 1.000000 0.707258
0.073940 1.000000 0.707258
0.195544 1.000000 0.707258
0.345391 1.000000 0.707258
0.517139 1.000000 0.707258
0.707258 1.000000 0.707258
0.913427 1.000000 0.707258
1.000000 1.000000 0.707258
1.000000 1.000000 0.707258
0.000000 0.000000 0.913427
0.073940 0.000000 0.913427
0.195544 0.000000 0.913427
0.345391 0.000000 0.913427
0.517139 0.000000 0.913427
0.707258 0.000000 0.913427
0.913427 0.000000 0.913427
1.000000 0.000000 0.913428
1.000000 0.000000 0.913428
0.000000 0.073940 0.913427
0.000000 0.000000 0.987367
0.143024 0.000000 0.987367
0.319268 0.000000 0.987367
0.521271 0.000000 0.987367
0.744880 0.000000 0.987367
0.987367 0.000000 0.987367
1.000000 0.073940 0.913428
1.000000 0.073940 0.913428
0.000000 0.195544 0.913427
0.000000 0.143025 0.987367
0.108971 0.108971 1.000000
0.294959 0.108971 1.000000
0.508131 0.108971 1.000000
0.744105 0.108971 1.000000
1.000000 0.108971 1.000000
1.000000 0.195544 0.913428
1.000000 0.195544 0.913428
0.000000 0.345391 0.913427
0.000000 0.319268 0.987367
0.108971 0.294959 1.000000
0.258818 0.258818 1.000000
0.482918 0.258818 1.000000
0.730988 0.258818 1.000000
1.000000 0.258818 1.000000
1.000000 0.345391 0.913427
1.000000 0.345391 0.913427
0.000000 0.517139 0.913427
0.000000 0.521271 0.987367
0.108971 0.508132 1.000000
0.258818 0.482918 1.000000
0.430566 0.430566 1.000000
0.703752 0.430566 1.000000
1.000000 0.430566 1.000000
1.000000 0.517139 0.913427
1.000000 0.517139 0.913427
0.000000 0.707258 0.913427
0.000000 0.744880 0.987367
0.108971 0.744105 1.000000
0.258818 0.730987 1.000000
0.430566 0.703752 1.000000
0.638535 0.638535 0.982150
0.982150 0.638535 0.982150
1.000000 0.707258 0.913427
1.000000 0.707258 0.913427
0.000000 0.913427 0.913427
0.000000 0.987368 0.987367
0.108971 1.000000 1.000000
0.258818 1.000000 1.000000
0.430566 1.000000 1.000000
0.638535 0.982151 0.982150
0.913427 0.913427 0.913427
1.000000 0.913427 0.913427
1.000000 0.913427 0.913427
0.000000 1.000000 0.913427
0.073940 1.000000 0.913427
0.195544 1.000000 0.913427
0.345391 1.000000 0.913427
0.517139 1.000000 0.913427
0.707258 1.000000 0.913427
0.913427 1.000000 0.913427
1.000000 1.000000 0.913427
1.000000 1.000000 0.913427
0.000000 1.000000 0.913427
0.073940 1.000000 0.913427
0.195544 1.000000 0.913427
0.345391 1.000000 0.913427
0.517139 1.000000 0.913427
0.707258 1.000000 0.913427
0.913427 1.000000 0.913427
1.000000 1.000000 0.913427
1.000000 1.000000 0.913427
0.000000 0.000000 1.000000
0.073940 0.000000 1.000000
0.195544 0.000000 1.000000
0.345391 0.000000 1.000000
0.517139 0.000000 1.000000
0.707258 0.000000 1.000000
0.913427 0.000000 1.000000
1.000000 0.000000 1.000000
1.000000 0.000000 1.000000
0.000000 0.073940 1.000000
0.073940 0.073940 1.000000
0.195544 0.073940 1.000000
0.345391 0.073940 1.000000
0.517139 0.073940 1.000000
0.707258 0.073940 1.000000
0.913427 0.073940 1.000000
1.000000 0.073940 1.000000
1.000000 0.073940 1.000000
0.000000 0.195543 1.000000
0.073940 0.195544 1.000000
0.195544 0.195544 1.000000
0.345391 0.195544 1.000000
0.517139 0.195544 1.000000
0.707258 0.195544 1.000000
0.913428 0.195544 1.000000
1.000000 0.195544 1.000000
1.000000 0.195544 1.000000
0.000000 0.345391 1.000000
0.073940 0.345391 1.000000
0.195544 0.345391 1.000000
0.345391 0.345391 1.000000
0.517139 0.345391 1.000000
0.707258 0.345391 1.000000
0.913427 0.345391 1.000000
1.000000 0.345391 1.000000
1.000000 0.345391 1.000000
0.000000 0.517139 1.000000
0.073940 0.517139 1.000000
0.195544 0.517139 1.000000
0.345391 0.517139 1.000000
0.517139 0.517139 1.000000
0.707258 0.517139 1.000000
0.913427 0.517139 1.000000
1.000000 0.517139 1.000000
1.000000 0.517139 1.000000
0.000000 0.707258 1.000000
0.073940 0.707258 1.000000
0.195544 0.707258 1.000000
0.345391 0.707258 1.000000
0.517139 0.707258 1.000000
0.707258 0.707258 1.000000
0.913427 0.707258 1.000000
1.000000 0.707258 1.000000
1.000000 0.707258 1.000000
0.000000 0.913427 1.000000
0.073940 0.913427 1.000000
0.195544 0.913428 1.000000
0.345391 0.913427 1.000000
0.517139 0.913427 1.000000
0.707258 0.913427 1.000000
0.913427 0.913427 1.000000
1.000000 0.913427 1.000000
1.000000 0.913427 1.000000
0.000000 1.000000 1.000000
0.073940 1.000000 1.000000
0.195544 1.000000 1.000000
0.345391 1.000000 1.000000
0.517139 1.000000 1.000000
0.707258 1.000000 1.000000
0.913427 1.000000 1.000000
1.000000 1.000000 1.000000
1.000000 1.000000 1.000000
0.000000 1.000000 1.000000
0.073940 1.000000 1.000000
0.195544 1.000000 1.000000
0.345391 1.000000 1.000000
0.517139 1.000000 1.000000
0.707258 1.000000 1.000000
0.913427 1.000000 1.000000
1.000000 1.000000 1.000000
1.000000 1.000000 1.000000
0.000000 0.000000 1.000000
0.073940 0.000000 1.000000
0.195544 0.000000 1.000000
0.345391 0.000000 1.000000
0.517139 0.000000 1.000000
0.707258 0.000000 1.000000
0.913427 0.000000 1.000000
1.000000 0.000000 1.000000
1.000000 0.000000 1.000000
0.000000 0.073940 1.000000
0.073940 0.073940 1.000000
0.195544 0.073940 1.000000
0.345391 0.073940 1.000000
0.517139 0.073940 1.000000
0.707258 0.073940 1.000000
0.913427 0.073940 1.000000
1.000000 0.073940 1.000000
1.000000 0.073940 1.000000
0.000000 0.195543 1.000000
0.073940 0.195544 1.000000
0.195544 0.195544 1.000000
0.345391 0.195544 1.000000
0.517139 0.195544 1.000000
0.707258 0.195544 1.000000
0.913428 0.195544 1.000000
1.000000 0.195544 1.000000
1.000000 0.195544 1.000000
0.000000 0.345391 1.000000
0.073940 0.345391 1.000000
0.195544 0.345391 1.000000
0.345391 0.345391 1.000000
0.517139 0.345391 1.000000
0.707258 0.345391 1.000000
0.913427 0.345391 1.000000
1.000000 0.345391 1.000000
1.000000 0.345391 1.000000
0.000000 0.517139 1.000000
0.073940 0.517139 1.000000
0.195544 0.517139 1.000000
0.345391 0.517139 1.000000
0.517139 0.517139 1.000000
0.707258 0.517139 1.000000
0.913427 0.517139 1.000000
1.000000 0.517139 1.000000
1.000000 0.517139 1.000000
0.000000 0.707258 1.000000
0.073940 0.707258 1.000000
0.195544 0.707258 1.000000
0.345391 0.707258 1.000000
0.517139 0.707258 1.000000
0.707258 0.707258 1.000000
0.913427 0.707258 1.000000
1.000000 0.707258 1.000000
1.000000 0.707258 1.000000
0.000000 0.913427 1.000000
0.073940 0.913427 1.000000
0.195544 0.913428 1.000000
0.345391 0.913427 1.000000
0.517139 0.913427 1.000000
0.707258 0.913427 1.000000
0.913427 0.913427 1.000000
1.000000 0.913427 1.000000
1.000000 0.913427 1.000000
0.000000 1.000000 1.000000
0.073940 1.000000 1.000000
0.195544 1.000000 1.000000
0.345391 1.000000 1.000000
0.517139 1.000000 1.000000
0.707258 1.000000 1.000000
0.913427 1.000000 1.000000
1.000000 1.000000 1.000000
1.000000 1.000000 1.000000
0.000000 1.000000 1.000000
0.073940 1.000000 1.000000
0.195544 1.000000 1.000000
0.345391 1.000000 1.000000
0.517139 1.000000 1.000000
0.707258 1.000000 1.000000
0.913427 1.000000 1.000000
1.000000 1.000000 1.000000
1.000000 1.000000 1.000000
